src/assets/luts/ON1 Nature & Wildlife LUTs/CinematicX LUTs - 30 Free Cinematic LUTs - The Resolve Store 2022/Bayagan - Rec709.cube
# Copyright: (C) Copyright 2022 The Resolve Store 
# Cannot be resold, shared or otherwise redistributed
TITLE "CinematicX (Rec.709)"
LUT_3D_SIZE 33
0.000000 0.000000 0.000000
0.026093 0.000610 0.002777
0.052521 0.001862 0.005554
0.079742 0.003387 0.008026
0.106781 0.005249 0.009888
0.133820 0.008026 0.011444
0.160248 0.010834 0.011780
0.186005 0.013306 0.011780
0.211548 0.015472 0.011780
0.236877 0.017822 0.011780
0.262543 0.019226 0.011780
0.288818 0.020294 0.011780
0.315582 0.021057 0.011780
0.343170 0.022064 0.011780
0.371582 0.022552 0.011780
0.401001 0.022797 0.011475
0.431213 0.023285 0.011475
0.462036 0.023743 0.011780
0.493042 0.023285 0.011139
0.524261 0.022308 0.011139
0.555664 0.020569 0.010834
0.587067 0.018677 0.010529
0.618408 0.016998 0.010223
0.649658 0.014862 0.009918
0.680817 0.013306 0.010223
0.711823 0.012390 0.010223
0.742706 0.011475 0.010223
0.773438 0.010834 0.010834
0.804077 0.010529 0.011139
0.834717 0.010223 0.011139
0.865356 0.010223 0.011475
0.896118 0.010223 0.012085
0.927002 0.010529 0.012390
0.000305 0.023010 0.002472
0.025787 0.023926 0.004639
0.051575 0.025482 0.006805
0.078491 0.027039 0.008667
0.105835 0.029205 0.010193
0.133026 0.031677 0.011139
0.160095 0.034454 0.011475
0.186584 0.037109 0.011780
0.212952 0.039795 0.012085
0.239319 0.042236 0.012360
0.266022 0.044067 0.012695
0.293274 0.045593 0.012695
0.321198 0.047058 0.013000
0.349945 0.048096 0.013000
0.379303 0.049072 0.013306
0.409363 0.049835 0.013306
0.440002 0.050598 0.013306
0.470612 0.050415 0.012695
0.501343 0.050018 0.012360
0.532196 0.049255 0.012054
0.563080 0.048096 0.011444
0.593964 0.046661 0.011139
0.624786 0.044952 0.010834
0.655548 0.043640 0.010529
0.686218 0.042694 0.010529
0.716858 0.041748 0.010223
0.747345 0.041290 0.010223
0.777832 0.041046 0.010223
0.808258 0.041046 0.010529
0.838715 0.041290 0.010834
0.869232 0.041290 0.011139
0.899811 0.041748 0.011780
0.930542 0.042236 0.012390
0.000610 0.046021 0.004639
0.025482 0.047546 0.006500
0.050659 0.049103 0.008362
0.077484 0.051270 0.009888
0.105042 0.053741 0.010834
0.132721 0.056091 0.011749
0.160248 0.059021 0.012054
0.187378 0.061920 0.012360
0.214661 0.064606 0.012695
0.242035 0.067078 0.013306
0.269745 0.069763 0.013916
0.298126 0.071930 0.014221
0.327209 0.073456 0.014526
0.356903 0.075134 0.014862
0.387177 0.076569 0.014862
0.417969 0.077637 0.014862
0.448578 0.078094 0.014221
0.479065 0.078094 0.013611
0.509552 0.077789 0.013306
0.540070 0.077179 0.012695
0.570526 0.076233 0.012085
0.600952 0.075287 0.011749
0.631287 0.074127 0.011444
0.661560 0.073120 0.010834
0.691803 0.072449 0.010529
0.722076 0.071930 0.010223
0.752258 0.071930 0.010223
0.782471 0.071930 0.010529
0.812683 0.072266 0.010529
0.842896 0.072784 0.010834
0.873230 0.073303 0.011475
0.903656 0.073792 0.012085
0.934235 0.074463 0.012390
0.000916 0.070557 0.007111
0.024872 0.071808 0.008362
0.049408 0.073029 0.009583
0.075073 0.074799 0.010529
0.103180 0.078003 0.012054
0.132080 0.081818 0.013000
0.160492 0.084412 0.013306
0.188385 0.087433 0.013306
0.216766 0.090027 0.014221
0.245117 0.093109 0.014526
0.273926 0.095856 0.015472
0.303436 0.098846 0.016083
0.333557 0.101257 0.016388
0.364258 0.103302 0.016388
0.395416 0.105103 0.016693
0.426575 0.106354 0.016388
0.457031 0.106750 0.015472
0.487427 0.106750 0.014526
0.517639 0.106628 0.013947
0.547821 0.106232 0.013306
0.577911 0.105499 0.012695
0.607941 0.104858 0.012360
0.637909 0.104065 0.011780
0.667786 0.103424 0.011139
0.697693 0.103027 0.010834
0.727570 0.102753 0.010529
0.757477 0.103027 0.010223
0.787384 0.103302 0.010834
0.817352 0.103699 0.010834
0.847382 0.104340 0.011444
0.877502 0.105103 0.011780
0.907745 0.105988 0.012695
0.938110 0.106873 0.013306
0.000946 0.095154 0.009583
0.024231 0.096466 0.010193
0.048187 0.097748 0.010834
0.073334 0.099182 0.011444
0.099670 0.101044 0.012054
0.128326 0.103821 0.011475
0.158905 0.108826 0.013306
0.189606 0.113251 0.015167
0.219086 0.116516 0.015778
0.248688 0.120117 0.016388
0.278625 0.123444 0.017273
0.309204 0.126831 0.017548
0.340393 0.129761 0.018127
0.372009 0.132446 0.018127
0.403809 0.134674 0.018127
0.434784 0.135803 0.017548
0.465179 0.136230 0.016693
0.495361 0.136322 0.015472
0.525391 0.136230 0.014557
0.555267 0.136017 0.013947
0.585083 0.135498 0.013306
0.614777 0.135101 0.012695
0.644440 0.134674 0.012085
0.674042 0.134369 0.011749
0.703674 0.134155 0.011444
0.733276 0.134247 0.011139
0.762909 0.134460 0.011139
0.792572 0.134766 0.011139
0.822296 0.135498 0.011444
0.852142 0.136108 0.012054
0.882019 0.137024 0.012695
0.912079 0.137817 0.013306
0.942261 0.138702 0.014221
0.000641 0.120667 0.011444
0.023315 0.121552 0.011749
0.046631 0.122375 0.012054
0.071503 0.124023 0.012360
0.097504 0.125397 0.012360
0.124817 0.127258 0.012085
0.154327 0.130768 0.011475
0.186249 0.135956 0.012390
0.218719 0.141388 0.014557
0.250916 0.146393 0.016113
0.282867 0.151093 0.017822
0.315399 0.155823 0.019226
0.347412 0.159332 0.019501
0.379669 0.162384 0.019501
0.411926 0.164886 0.019501
0.442627 0.165833 0.018677
0.472778 0.166260 0.017578
0.502777 0.166351 0.016388
0.532440 0.166351 0.015167
0.562073 0.166260 0.014557
0.591614 0.165924 0.013947
0.621094 0.165741 0.013306
0.650604 0.165497 0.013000
0.680023 0.165405 0.012695
0.709503 0.165405 0.012360
0.738892 0.165497 0.012360
0.768341 0.165741 0.012360
0.797791 0.166260 0.012360
0.827332 0.166870 0.012695
0.856964 0.167542 0.013306
0.886688 0.168365 0.013916
0.916534 0.169250 0.015167
0.946503 0.170166 0.016083
0.000641 0.145508 0.013306
0.022369 0.146240 0.013000
0.045074 0.147156 0.013306
0.069336 0.148193 0.013000
0.095154 0.149567 0.012695
0.122589 0.151367 0.012390
0.151062 0.153564 0.011780
0.181793 0.157654 0.010834
0.214844 0.163574 0.011475
0.249847 0.170715 0.014252
0.284515 0.177063 0.016113
0.318604 0.182556 0.017853
0.352936 0.187836 0.019775
0.386993 0.192505 0.021057
0.419434 0.195312 0.021057
0.449768 0.196106 0.020020
0.479614 0.196564 0.018677
0.509247 0.196625 0.017578
0.538635 0.196564 0.016693
0.568085 0.196472 0.015778
0.597412 0.196320 0.015167
0.626831 0.196259 0.014526
0.656219 0.196198 0.014221
0.685608 0.196106 0.013916
0.715027 0.196259 0.013916
0.744293 0.196472 0.013916
0.773651 0.196838 0.013916
0.802979 0.197266 0.013916
0.832367 0.197845 0.014221
0.861877 0.198547 0.014862
0.891418 0.199402 0.015778
0.921112 0.200226 0.016968
0.950928 0.201050 0.018402
0.000305 0.170197 0.015472
0.021759 0.170837 0.015167
0.043854 0.171478 0.014221
0.067169 0.172394 0.013641
0.092621 0.173615 0.013306
0.120026 0.175385 0.012695
0.148895 0.177612 0.012085
0.178955 0.180542 0.011475
0.210907 0.185425 0.010223
0.246002 0.192566 0.010529
0.283508 0.201447 0.014862
0.320007 0.208679 0.016693
0.355865 0.214813 0.018127
0.390839 0.220184 0.020294
0.425415 0.225006 0.022308
0.456116 0.226349 0.021576
0.485626 0.226624 0.020020
0.514893 0.226685 0.018951
0.544006 0.226624 0.018127
0.573242 0.226624 0.017273
0.602478 0.226562 0.016693
0.631836 0.226471 0.016083
0.661255 0.226471 0.015778
0.690674 0.226562 0.015472
0.720123 0.226746 0.015472
0.749420 0.226990 0.015472
0.778717 0.227417 0.015472
0.807983 0.227936 0.015472
0.837311 0.228485 0.016083
0.866669 0.229279 0.016693
0.896149 0.230133 0.017822
0.925720 0.230927 0.019226
0.955444 0.231812 0.020782
0.000305 0.194641 0.017822
0.020844 0.195068 0.017273
0.042603 0.195618 0.016388
0.065308 0.196472 0.015778
0.090485 0.197662 0.014526
0.117462 0.199371 0.013306
0.146606 0.201782 0.012695
0.177338 0.204895 0.011780
0.209015 0.208679 0.010834
0.242462 0.214172 0.009613
0.280212 0.223480 0.011749
0.319244 0.233276 0.015778
0.356720 0.240936 0.017578
0.392975 0.247162 0.018951
0.427368 0.251740 0.020569
0.459869 0.254791 0.021820
0.490723 0.256531 0.021820
0.519775 0.256592 0.020782
0.548645 0.256531 0.019745
0.577698 0.256470 0.018951
0.606964 0.256531 0.018402
0.636383 0.256531 0.017822
0.665833 0.256622 0.017548
0.695374 0.256805 0.017273
0.724854 0.257080 0.016968
0.754242 0.257416 0.016968
0.783539 0.257843 0.016968
0.812836 0.258392 0.017273
0.842133 0.259033 0.018127
0.871429 0.259857 0.018951
0.900818 0.260712 0.020294
0.930359 0.261597 0.021790
0.959930 0.262390 0.023010
0.000305 0.219147 0.021301
0.020538 0.219513 0.020294
0.041351 0.219910 0.019226
0.063751 0.220642 0.018127
0.088013 0.221863 0.016693
0.114929 0.223633 0.015167
0.144379 0.226135 0.013641
0.175812 0.229492 0.012390
0.208374 0.233521 0.011139
0.241669 0.237976 0.010529
0.276184 0.243958 0.009613
0.316589 0.255432 0.013306
0.356110 0.265533 0.016693
0.393280 0.273041 0.018951
0.428070 0.278137 0.020020
0.461060 0.281586 0.020569
0.492859 0.284241 0.021576
0.523926 0.286285 0.022552
0.552826 0.286407 0.021545
0.581787 0.286407 0.020782
0.611023 0.286438 0.020020
0.640503 0.286591 0.019745
0.670105 0.286835 0.019501
0.699738 0.287079 0.018951
0.729401 0.287445 0.019226
0.758850 0.287872 0.019226
0.788239 0.288361 0.019226
0.817535 0.288879 0.019501
0.846802 0.289612 0.020294
0.876099 0.290375 0.021301
0.905426 0.291260 0.022552
0.934875 0.292206 0.024200
0.964417 0.293091 0.025757
0.000305 0.243988 0.025757
0.020203 0.244232 0.024658
0.040741 0.244690 0.023254
0.062500 0.245361 0.021301
0.086151 0.246429 0.019745
0.112457 0.248260 0.017578
0.142181 0.250824 0.015472
0.174072 0.254364 0.013641
0.207611 0.258575 0.012085
0.241852 0.263275 0.010834
0.276093 0.268219 0.010223
0.311005 0.274139 0.009613
0.353516 0.287628 0.015167
0.392426 0.297333 0.018677
0.427704 0.303650 0.020294
0.461060 0.307983 0.020813
0.493317 0.311157 0.021057
0.524841 0.313538 0.021820
0.555817 0.315491 0.022797
0.585541 0.316254 0.022766
0.614868 0.316528 0.022064
0.644440 0.316772 0.021790
0.674194 0.317139 0.021545
0.703949 0.317535 0.021545
0.733704 0.317932 0.021545
0.763306 0.318451 0.021545
0.792725 0.318939 0.021790
0.822052 0.319580 0.022308
0.851318 0.320251 0.022766
0.880585 0.321106 0.023956
0.909851 0.322021 0.025330
0.939240 0.322937 0.027039
0.968719 0.323792 0.028503
0.000305 0.269409 0.030853
0.019897 0.269714 0.029694
0.040131 0.270111 0.028076
0.061279 0.270721 0.026184
0.084900 0.271790 0.023956
0.110992 0.273529 0.021057
0.140106 0.276123 0.018127
0.172241 0.279663 0.015472
0.206360 0.283905 0.013306
0.241669 0.288727 0.011780
0.276855 0.293610 0.010529
0.311340 0.298462 0.009918
0.347931 0.306000 0.011749
0.389709 0.319244 0.017822
0.426422 0.327667 0.020538
0.460388 0.333221 0.021332
0.493011 0.337402 0.021820
0.524994 0.340515 0.022064
0.556580 0.343048 0.022064
0.587769 0.345093 0.023285
0.618561 0.346619 0.023956
0.648285 0.347107 0.023956
0.678162 0.347534 0.023712
0.708069 0.348053 0.023712
0.737885 0.348572 0.024200
0.767578 0.349152 0.024414
0.797058 0.349792 0.024658
0.826416 0.350433 0.025330
0.855682 0.351135 0.026184
0.884857 0.351959 0.027039
0.914124 0.352814 0.028290
0.943390 0.353729 0.029694
0.972748 0.354584 0.031219
0.000305 0.295746 0.037140
0.019592 0.295990 0.035675
0.039520 0.296356 0.033966
0.060669 0.296906 0.031616
0.083679 0.297852 0.028717
0.109161 0.299500 0.025330
0.138306 0.301910 0.021332
0.170532 0.305328 0.018127
0.205109 0.309570 0.014862
0.240906 0.314331 0.012695
0.277008 0.319366 0.011139
0.312134 0.324127 0.010529
0.346283 0.328644 0.010223
0.384613 0.337860 0.015472
0.423737 0.349396 0.020294
0.458984 0.357117 0.022308
0.492279 0.362610 0.023010
0.524689 0.366882 0.023499
0.556671 0.370209 0.023712
0.588593 0.372986 0.023499
0.620422 0.375366 0.024445
0.651917 0.377350 0.025757
0.681946 0.378052 0.025970
0.711975 0.378662 0.026398
0.741913 0.379333 0.027039
0.771606 0.380005 0.027466
0.801208 0.380707 0.028076
0.830566 0.381348 0.028503
0.859772 0.382111 0.029297
0.888916 0.382874 0.030090
0.918030 0.383698 0.031219
0.947205 0.384583 0.032532
0.976471 0.385437 0.033600
0.000305 0.322662 0.043488
0.019592 0.322998 0.041901
0.039185 0.323212 0.040131
0.060028 0.323700 0.037476
0.082428 0.324463 0.033966
0.107910 0.325928 0.029907
0.136444 0.328186 0.025543
0.168549 0.331360 0.021057
0.203369 0.335449 0.016998
0.239685 0.340057 0.013947
0.276459 0.345001 0.012085
0.312347 0.349701 0.011139
0.346863 0.354126 0.010834
0.380341 0.358337 0.011139
0.419098 0.368134 0.018677
0.456573 0.378876 0.022766
0.491058 0.386444 0.024414
0.524200 0.392151 0.025085
0.556732 0.396698 0.025330
0.589081 0.400391 0.025757
0.621429 0.403534 0.025970
0.653687 0.406219 0.026398
0.685486 0.408386 0.028076
0.715668 0.409271 0.028687
0.745636 0.410034 0.029510
0.775391 0.410767 0.030457
0.804962 0.411560 0.031036
0.834320 0.412292 0.031799
0.863525 0.413055 0.032349
0.892578 0.413849 0.033234
0.921600 0.414673 0.034119
0.950653 0.415436 0.034821
0.979736 0.416229 0.035675
0.000305 0.350067 0.049652
0.019592 0.350281 0.048035
0.039185 0.350555 0.046082
0.059418 0.350983 0.043213
0.081818 0.351624 0.039520
0.106354 0.352875 0.034821
0.134705 0.354828 0.029510
0.166473 0.357697 0.024200
0.201294 0.361481 0.019501
0.238068 0.365936 0.015808
0.275208 0.370605 0.013306
0.311859 0.375305 0.012085
0.347229 0.379730 0.011475
0.380829 0.383698 0.011475
0.413696 0.387726 0.012695
0.452667 0.398071 0.022064
0.489227 0.408356 0.025757
0.523499 0.416138 0.026825
0.556854 0.422150 0.027679
0.589752 0.427063 0.028290
0.622528 0.431213 0.028687
0.655090 0.434662 0.029297
0.687286 0.437439 0.029877
0.718994 0.439667 0.030670
0.749054 0.440582 0.031799
0.778809 0.441437 0.032715
0.808350 0.442291 0.033783
0.837677 0.443115 0.034485
0.866821 0.443909 0.035156
0.895782 0.444672 0.035828
0.924744 0.445465 0.036346
0.953644 0.446198 0.036835
0.982635 0.446899 0.037323
0.000305 0.377655 0.055298
0.019592 0.377838 0.053619
0.038879 0.378113 0.051514
0.059113 0.378418 0.048553
0.080872 0.378906 0.044617
0.105133 0.379913 0.039368
0.132843 0.381622 0.033630
0.163940 0.384155 0.027496
0.198853 0.387573 0.021820
0.235748 0.391663 0.017273
0.273499 0.396149 0.014557
0.310883 0.400787 0.013000
0.346954 0.405273 0.012390
0.381500 0.409454 0.012695
0.414551 0.413269 0.013306
0.448120 0.418396 0.016083
0.486511 0.428314 0.025757
0.522583 0.438324 0.028900
0.557037 0.446381 0.030273
0.590698 0.452789 0.031036
0.623962 0.458099 0.031982
0.656799 0.462402 0.032898
0.689117 0.465973 0.033600
0.720917 0.468811 0.034119
0.752075 0.470947 0.033966
0.781799 0.471893 0.034637
0.811279 0.472778 0.035675
0.840576 0.473694 0.036499
0.869598 0.474518 0.037170
0.898499 0.475342 0.037659
0.927368 0.476105 0.038116
0.956177 0.476837 0.038300
0.985046 0.477478 0.038452
0.000305 0.405060 0.060089
0.019592 0.405273 0.058533
0.038879 0.405518 0.056305
0.058807 0.405792 0.053253
0.080261 0.406189 0.049072
0.104187 0.406982 0.043640
0.131165 0.408386 0.037323
0.161774 0.410522 0.030487
0.196198 0.413574 0.024200
0.233154 0.417389 0.019226
0.271393 0.421692 0.015808
0.309448 0.426208 0.013947
0.346405 0.430817 0.013641
0.381836 0.435181 0.013916
0.415710 0.439392 0.014526
0.448547 0.443359 0.016083
0.483978 0.450256 0.021790
0.521454 0.459259 0.029694
0.557343 0.469025 0.032898
0.591980 0.477325 0.034119
0.625824 0.484009 0.035339
0.658905 0.489410 0.036499
0.691315 0.493805 0.037628
0.723022 0.497375 0.038269
0.754059 0.500153 0.038422
0.784454 0.502228 0.037964
0.813782 0.503143 0.036835
0.842957 0.504059 0.037659
0.871948 0.504944 0.038116
0.900818 0.505768 0.038757
0.929535 0.506561 0.038910
0.958313 0.507263 0.039062
0.987122 0.507904 0.038910
0.000305 0.432251 0.064514
0.019592 0.432465 0.062592
0.038879 0.432678 0.060394
0.058807 0.432892 0.057159
0.079956 0.433197 0.052917
0.102966 0.433838 0.047272
0.129364 0.434998 0.040588
0.159515 0.436768 0.033447
0.193329 0.439453 0.026642
0.230316 0.442963 0.021057
0.268921 0.447083 0.017273
0.307800 0.451599 0.015167
0.345642 0.456329 0.014557
0.382019 0.460968 0.015167
0.416870 0.465454 0.016083
0.450409 0.469788 0.017273
0.483368 0.474121 0.018951
0.520630 0.482422 0.026611
0.557922 0.490875 0.034302
0.593689 0.500305 0.037476
0.628113 0.508698 0.039062
0.661530 0.515350 0.040436
0.693909 0.520752 0.041748
0.725403 0.525085 0.042786
0.756134 0.528564 0.043182
0.786224 0.531250 0.042786
0.815857 0.533203 0.041321
0.844940 0.534332 0.039062
0.873871 0.535156 0.038452
0.902679 0.536041 0.038757
0.931396 0.536835 0.038910
0.960114 0.537537 0.038910
0.988892 0.538147 0.038757
0.000610 0.458923 0.068115
0.019592 0.459167 0.066223
0.038879 0.459381 0.063873
0.058502 0.459503 0.060516
0.079346 0.459747 0.056183
0.102020 0.460236 0.050415
0.127808 0.461151 0.043365
0.157074 0.462708 0.035858
0.190613 0.465118 0.028717
0.227448 0.468353 0.022552
0.266357 0.472351 0.018402
0.305939 0.476929 0.016388
0.344818 0.481873 0.015808
0.382202 0.486786 0.016388
0.418060 0.491669 0.017548
0.452484 0.496368 0.018677
0.485992 0.500824 0.020020
0.519379 0.505371 0.021790
0.558502 0.514984 0.031799
0.595703 0.522980 0.039062
0.631042 0.531860 0.042633
0.664673 0.540039 0.044464
0.696960 0.546570 0.046082
0.728149 0.551849 0.047272
0.758453 0.556061 0.048035
0.788025 0.559418 0.047760
0.817230 0.561981 0.046326
0.846161 0.563843 0.044189
0.875092 0.565125 0.041199
0.904144 0.566040 0.038300
0.932892 0.566864 0.038300
0.961639 0.567627 0.038116
0.990448 0.568268 0.038116
0.000641 0.485138 0.071198
0.019897 0.485321 0.069183
0.038879 0.485504 0.066681
0.058502 0.485626 0.063385
0.079010 0.485779 0.058868
0.101715 0.486145 0.052917
0.126282 0.486908 0.045837
0.154938 0.488281 0.037964
0.188049 0.490448 0.030487
0.224548 0.493561 0.024200
0.263947 0.497528 0.019775
0.304169 0.502197 0.017273
0.343933 0.507324 0.016998
0.382416 0.512604 0.017548
0.419189 0.517883 0.018677
0.454590 0.522949 0.020020
0.488922 0.527802 0.021057
0.522705 0.532379 0.022766
0.558319 0.538574 0.027252
0.597473 0.547821 0.036987
0.634064 0.554993 0.044464
0.668365 0.563202 0.048553
0.700531 0.571106 0.050537
0.731262 0.577423 0.051971
0.761017 0.582520 0.052795
0.790039 0.586639 0.052795
0.818604 0.589874 0.051605
0.846985 0.592316 0.049286
0.875427 0.594147 0.046082
0.904083 0.595428 0.042328
0.933105 0.596283 0.038116
0.962189 0.597015 0.036530
0.991180 0.597748 0.036194
0.000916 0.510803 0.073792
0.019897 0.510956 0.071625
0.039185 0.511169 0.069000
0.058502 0.511169 0.065643
0.079010 0.511322 0.061005
0.101105 0.511566 0.054962
0.125031 0.512238 0.047791
0.152893 0.513489 0.039825
0.185455 0.515503 0.032349
0.221985 0.518524 0.025543
0.261444 0.522522 0.020813
0.302490 0.527313 0.018402
0.343201 0.532776 0.017578
0.382660 0.538422 0.018402
0.420502 0.544098 0.019501
0.456787 0.549561 0.020782
0.491882 0.554779 0.022308
0.526276 0.559540 0.023712
0.560455 0.564240 0.025543
0.598572 0.572418 0.033966
0.636261 0.580231 0.042633
0.671753 0.586609 0.050293
0.704498 0.594055 0.055054
0.734772 0.601654 0.056824
0.763855 0.607788 0.057892
0.792114 0.612762 0.057892
0.820068 0.616760 0.056946
0.847778 0.619934 0.054749
0.875671 0.622375 0.051483
0.903839 0.624176 0.047516
0.932495 0.625519 0.043060
0.961731 0.626434 0.038452
0.991577 0.627045 0.033966
0.000946 0.535950 0.075989
0.019897 0.536102 0.073700
0.039185 0.536224 0.070923
0.058502 0.536285 0.067413
0.078705 0.536346 0.062805
0.100159 0.536591 0.056732
0.124115 0.537140 0.049438
0.151550 0.538300 0.041473
0.183472 0.540283 0.033630
0.219910 0.543274 0.026855
0.259552 0.547363 0.022064
0.301025 0.552368 0.019226
0.342712 0.558105 0.018402
0.383148 0.564209 0.018951
0.421844 0.570251 0.020294
0.458954 0.576111 0.021545
0.494751 0.581604 0.022766
0.529694 0.586670 0.024658
0.564117 0.591339 0.026184
0.598450 0.595917 0.029114
0.637817 0.605164 0.040131
0.673828 0.611816 0.048401
0.707672 0.617432 0.056610
0.738556 0.624237 0.061798
0.766968 0.631592 0.063171
0.794464 0.637634 0.063477
0.821594 0.642548 0.062592
0.848633 0.646484 0.060394
0.875885 0.649658 0.057281
0.903534 0.652100 0.053253
0.931702 0.653992 0.048676
0.960602 0.655396 0.043610
0.990265 0.656403 0.038574
0.001526 0.560699 0.077789
0.020538 0.560822 0.075409
0.039520 0.560883 0.072723
0.058807 0.560944 0.068939
0.078705 0.560974 0.064240
0.099854 0.561157 0.058136
0.122864 0.561707 0.050903
0.150146 0.562836 0.042786
0.181763 0.564819 0.035004
0.218109 0.567902 0.028107
0.258118 0.572113 0.023041
0.300110 0.577393 0.020294
0.342468 0.583466 0.018951
0.383728 0.589935 0.019226
0.423370 0.596375 0.020782
0.461151 0.602539 0.021790
0.497498 0.608307 0.023254
0.532928 0.613617 0.025085
0.567749 0.618408 0.026825
0.602020 0.622864 0.029694
0.638489 0.629486 0.036835
0.675232 0.636841 0.046204
0.709259 0.642517 0.054626
0.741119 0.647491 0.063080
0.770233 0.653687 0.068756
0.796967 0.660919 0.069275
0.823273 0.666931 0.068573
0.849579 0.671844 0.066498
0.876129 0.675812 0.063477
0.903168 0.679047 0.059387
0.930847 0.681580 0.054626
0.959259 0.683563 0.049530
0.988617 0.685120 0.044037
0.001556 0.585052 0.079468
0.020538 0.585114 0.076935
0.039825 0.585175 0.074036
0.059113 0.585175 0.070343
0.078400 0.585236 0.065460
0.099548 0.585449 0.059387
0.122559 0.585968 0.052094
0.149261 0.587036 0.044067
0.180756 0.589142 0.036194
0.217072 0.592346 0.029327
0.257233 0.596741 0.024200
0.299652 0.602325 0.021057
0.342590 0.608765 0.019775
0.384613 0.615509 0.019775
0.424866 0.622406 0.020782
0.463257 0.628876 0.022308
0.500153 0.634888 0.023956
0.535889 0.640320 0.025757
0.570953 0.645203 0.027679
0.605225 0.649597 0.030090
0.639038 0.653809 0.034119
0.675842 0.661255 0.043762
0.710205 0.667297 0.052429
0.742126 0.672211 0.060913
0.772095 0.676697 0.069641
0.799622 0.682343 0.075348
0.825104 0.689575 0.075012
0.850586 0.695679 0.073212
0.876373 0.700623 0.070160
0.902740 0.704712 0.066223
0.929810 0.708038 0.061127
0.958038 0.710907 0.054535
0.987396 0.713226 0.047546
0.001862 0.609161 0.080963
0.020844 0.609161 0.078247
0.039825 0.609222 0.075348
0.058807 0.609192 0.071442
0.078400 0.609222 0.066589
0.099243 0.609375 0.060394
0.122559 0.609955 0.053253
0.148956 0.611145 0.045288
0.180573 0.613312 0.037323
0.216797 0.616669 0.030304
0.257050 0.621277 0.025116
0.299713 0.627197 0.021820
0.343140 0.633881 0.020020
0.385620 0.641022 0.020294
0.426422 0.648193 0.021057
0.465271 0.654846 0.022552
0.502502 0.661011 0.024200
0.538513 0.666626 0.025970
0.573700 0.671570 0.028076
0.608093 0.675995 0.030853
0.641663 0.679932 0.034637
0.675110 0.684418 0.040131
0.710510 0.691467 0.050293
0.742645 0.696625 0.058746
0.772614 0.700958 0.067230
0.800812 0.705109 0.075989
0.827026 0.710236 0.081848
0.851654 0.717590 0.080444
0.876648 0.723938 0.077087
0.902405 0.729584 0.071198
0.929230 0.734161 0.064423
0.957184 0.737823 0.057495
0.986328 0.740784 0.050537
0.001862 0.632965 0.082153
0.020844 0.633026 0.079468
0.039520 0.632996 0.076294
0.058502 0.632965 0.072388
0.078400 0.632996 0.067413
0.099548 0.633179 0.061401
0.122559 0.633759 0.053955
0.149567 0.635040 0.046234
0.181152 0.637329 0.038300
0.217316 0.640839 0.031250
0.257416 0.645721 0.026001
0.300293 0.651825 0.022308
0.343933 0.658875 0.020569
0.386719 0.666229 0.020569
0.427887 0.673584 0.021332
0.467041 0.680481 0.022766
0.504517 0.686798 0.024414
0.540680 0.692413 0.026398
0.575928 0.697357 0.029114
0.610382 0.701782 0.031982
0.643921 0.705719 0.035492
0.676453 0.709412 0.039978
0.710052 0.714844 0.047760
0.742645 0.720398 0.056824
0.772705 0.724884 0.065094
0.800903 0.729095 0.073303
0.827362 0.733643 0.080536
0.852325 0.739410 0.084167
0.876770 0.747528 0.079620
0.902161 0.754272 0.073700
0.928650 0.759735 0.067139
0.956390 0.764191 0.060211
0.985291 0.767853 0.053253
0.001556 0.656555 0.083313
0.020538 0.656586 0.080444
0.039185 0.656525 0.077148
0.058807 0.656464 0.073212
0.078400 0.656494 0.068115
0.099854 0.656738 0.062012
0.123474 0.657379 0.054871
0.150452 0.658752 0.046875
0.182159 0.661194 0.039062
0.218231 0.664856 0.032166
0.258484 0.670013 0.026642
0.301270 0.676300 0.023041
0.345032 0.683533 0.021057
0.387970 0.691132 0.020813
0.429230 0.698639 0.021057
0.468536 0.705658 0.022552
0.506104 0.711975 0.024414
0.542358 0.717590 0.026611
0.577637 0.722565 0.029510
0.612061 0.726929 0.032532
0.645599 0.730835 0.036346
0.677948 0.734436 0.040588
0.709167 0.738007 0.045410
0.741577 0.744843 0.053589
0.771515 0.751038 0.060516
