src/assets/luts/ON1 Nature & Wildlife LUTs/CinematicX LUTs - 30 Free Cinematic LUTs - The Resolve Store 2022/Bayamon - Rec709.cube
# Copyright: (C) Copyright 2022 The Resolve Store 
# Cannot be resold, shared or otherwise redistributed
TITLE "CinematicX (Rec.709)"
LUT_3D_SIZE 5
0.000000 0.000000 0.000000
0.206360 0.013611 0.000000
0.398804 0.071777 0.000000
0.596008 0.159027 0.000000
0.803680 0.281982 0.000000
0.000000 0.194733 0.006897
0.220551 0.194305 0.000000
0.415375 0.214417 0.000000
0.613861 0.257111 0.000000
0.811981 0.336548 0.000000
0.000000 0.367523 0.073059
0.241699 0.366730 0.000000
0.445374 0.396393 0.000000
0.652527 0.423126 0.000000
0.843140 0.464081 0.000000
0.000000 0.575592 0.206940
0.244019 0.576233 0.000000
0.479553 0.594177 0.000000
0.704132 0.632935 0.000000
0.899017 0.647491 0.000000
0.000000 0.822662 0.420441
0.000000 0.846680 0.228363
0.468109 0.853943 0.017365
0.732910 0.884094 0.000000
0.961853 0.874878 0.000000
0.000000 0.021881 0.236816
0.232758 0.000000 0.218811
0.440613 0.000977 0.123901
0.615112 0.150696 0.000000
0.804413 0.299316 0.000000
0.000000 0.221741 0.237640
0.217590 0.223206 0.222015
0.439270 0.227936 0.173309
0.628754 0.262939 0.064270
0.815063 0.340668 0.000000
0.000000 0.383606 0.240112
0.139008 0.395386 0.195129
0.444092 0.415100 0.189911
0.674377 0.441681 0.192474
0.848755 0.476410 0.052277
0.000000 0.582672 0.335571
0.091064 0.598267 0.203308
0.462311 0.603180 0.140289
0.706940 0.644226 0.184967
0.912842 0.662903 0.132324
0.000000 0.835724 0.501282
0.000000 0.856293 0.416809
0.436920 0.870209 0.258545
0.741455 0.886414 0.183929
0.966034 0.880890 0.063873
0.000000 0.069946 0.455017
0.154297 0.083466 0.493744
0.465637 0.000000 0.419220
0.709900 0.012817 0.311829
0.913940 0.224243 0.177246
0.000000 0.269989 0.465424
0.068848 0.287994 0.509888
0.473053 0.263031 0.471649
0.722900 0.256470 0.336823
0.913696 0.319702 0.225403
0.059753 0.469116 0.545868
0.236298 0.471191 0.525940
0.464539 0.478424 0.478455
0.712463 0.498291 0.441406
0.916016 0.506531 0.341858
0.000000 0.641937 0.564514
0.000000 0.651001 0.532684
0.366974 0.657257 0.478333
0.703644 0.689270 0.461884
0.946075 0.707397 0.438446
0.000000 0.863800 0.637299
0.000000 0.881042 0.584869
0.360260 0.897430 0.517303
0.740601 0.899902 0.424927
0.987213 0.921600 0.426422
0.000000 0.146362 0.643341
0.000000 0.168671 0.728729
0.390747 0.180359 0.736023
0.730347 0.028595 0.601410
1.000000 0.094269 0.471680
0.000000 0.331085 0.651794
0.000000 0.349854 0.702118
0.170959 0.393524 0.819519
0.755524 0.281097 0.649384
1.000000 0.318085 0.511505
0.131561 0.544037 0.766113
0.206116 0.556488 0.768738
0.322205 0.582214 0.779297
0.700836 0.552643 0.772186
1.000000 0.537170 0.585999
0.219055 0.746216 0.865479
0.316315 0.747040 0.846405
0.509583 0.744446 0.798126
0.731476 0.748505 0.746704
0.984802 0.767548 0.686798
0.000000 0.940765 0.897491
0.005920 0.951385 0.885864
0.413361 0.954254 0.837250
0.671509 0.967865 0.787689
0.998627 0.982422 0.738647
0.000000 0.247009 0.798248
0.000000 0.275574 0.846405
0.000000 0.334747 1.000000
0.659454 0.291962 0.974213
1.000000 0.086975 0.752533
0.000000 0.408661 0.820282
0.000000 0.428375 0.846954
0.000000 0.484924 0.952301
0.567871 0.477966 1.000000
1.000000 0.354675 0.777069
0.000000 0.615814 0.950531
0.000000 0.625916 0.959167
0.000000 0.652252 0.995056
0.455627 0.679779 1.000000
1.000000 0.580780 0.839691
0.441681 0.801392 1.000000
0.461426 0.809357 1.000000
0.515106 0.826782 1.000000
0.633118 0.849976 1.000000
1.000000 0.814728 0.931061
0.805756 0.966705 1.000000
0.806274 0.970459 1.000000
0.814331 0.976135 1.000000
0.869080 0.989594 1.000000
0.997162 0.997986 0.998077
