src/assets/luts/ON1 Nature & Wildlife LUTs/CinematicX LUTs - 30 Free Cinematic LUTs - The Resolve Store 2022/Bayagan - Rec709.cube
# Copyright: (C) Copyright 2022 The Resolve Store 
# Cannot be resold, shared or otherwise redistributed
TITLE "CinematicX (Rec.709)"
LUT_3D_SIZE 5
0.000000 0.000000 0.000000
0.211548 0.015472 0.011780
0.431213 0.023285 0.011475
0.680817 0.013306 0.010223
0.927002 0.010529 0.012390
0.000305 0.194641 0.017822
0.209015 0.208679 0.010834
0.490723 0.256531 0.021820
0.724854 0.257080 0.016968
0.959930 0.262390 0.023010
0.000305 0.405060 0.060089
0.196198 0.413574 0.024200
0.483978 0.450256 0.021790
0.754059 0.500153 0.038422
0.987122 0.507904 0.038910
0.001862 0.609161 0.080963
0.180573 0.613312 0.037323
0.502502 0.661011 0.024200
0.772614 0.700958 0.067230
0.986328 0.740784 0.050537
0.000305 0.841888 0.065948
0.212860 0.854004 0.029694
0.505219 0.903473 0.017822
0.759918 0.939117 0.030670
0.987457 0.967438 0.039215
0.032349 0.018127 0.208588
0.214752 0.021545 0.225159
0.438324 0.008362 0.227356
0.675598 0.003113 0.233185
0.919403 0.002808 0.243286
0.007721 0.227753 0.247345
0.129364 0.192719 0.221008
0.427338 0.212158 0.217682
0.647614 0.193542 0.212311
0.901764 0.232941 0.247650
0.000000 0.437134 0.265228
0.067413 0.344269 0.248474
0.400574 0.390808 0.266083
0.757324 0.513123 0.309845
0.970673 0.514465 0.290771
0.001526 0.636475 0.284027
0.058411 0.484863 0.276031
0.413483 0.561981 0.277130
0.754913 0.660400 0.359375
0.976013 0.748901 0.313110
0.000000 0.862793 0.279266
0.162781 0.789520 0.269775
0.484650 0.857635 0.264893
0.758484 0.916901 0.289948
0.977386 0.957855 0.299561
0.055847 0.040741 0.401062
0.239441 0.047394 0.429962
0.456390 0.028503 0.469574
0.668762 0.006805 0.463287
0.910126 0.000946 0.468903
0.044586 0.265961 0.481506
0.209686 0.269501 0.433319
0.410919 0.274292 0.451477
0.620209 0.210236 0.431641
0.884796 0.201721 0.455658
0.028076 0.463318 0.505066
0.155457 0.403320 0.469635
0.370728 0.429474 0.461761
0.695282 0.476868 0.483917
0.924194 0.496338 0.497437
0.044189 0.661835 0.515381
0.059845 0.549988 0.471954
0.284790 0.578461 0.451477
0.685547 0.681396 0.540314
0.967224 0.760223 0.557434
0.000000 0.887634 0.507721
0.138275 0.825989 0.489227
0.375702 0.821533 0.472137
0.738922 0.908020 0.517456
0.969208 0.959229 0.562317
0.085724 0.054413 0.592651
0.279480 0.065765 0.646851
0.455597 0.071960 0.673584
0.693512 0.033264 0.702576
0.867981 0.026398 0.673798
0.086060 0.270538 0.676453
0.355682 0.281128 0.532501
0.447205 0.310577 0.573547
0.646454 0.296112 0.678253
0.844482 0.286346 0.678711
0.079254 0.487762 0.733917
0.244965 0.459869 0.677917
0.473541 0.483276 0.678741
0.670807 0.517944 0.715485
0.880310 0.517761 0.716705
0.063477 0.682892 0.752533
0.225128 0.608215 0.728271
0.387512 0.635986 0.706146
0.636414 0.698578 0.724182
0.936554 0.756042 0.761780
0.063354 0.907684 0.745544
0.178223 0.860657 0.716339
0.365356 0.846863 0.687317
0.703522 0.914795 0.734192
0.975220 0.972778 0.782440
0.109741 0.061218 0.781250
0.300934 0.072784 0.836731
0.471741 0.076691 0.858643
0.642731 0.082306 0.852478
0.939178 0.026855 0.941559
0.141296 0.261505 0.839081
0.354950 0.275482 0.721375
0.482941 0.296173 0.756927
0.619904 0.317047 0.803314
0.922821 0.276489 0.928772
0.073639 0.488098 0.902679
0.302124 0.478058 0.834045
0.546936 0.478851 0.746704
0.662598 0.515594 0.790009
0.917206 0.516754 0.924255
0.097504 0.690552 0.941345
0.295593 0.660095 0.900421
0.472198 0.666321 0.856812
0.676208 0.716827 0.863922
0.933777 0.756897 0.938019
0.091644 0.920990 0.969360
0.323547 0.884125 0.947937
0.510071 0.878296 0.937408
0.723663 0.926453 0.957275
0.981995 0.981476 0.982361
