src/assets/luts/ON1 Nature & Wildlife LUTs/CinematicX LUTs - 30 Free Cinematic LUTs - The Resolve Store 2022/Bayagan - Rec709.cube
# Copyright: (C) Copyright 2022 The Resolve Store 
# Cannot be resold, shared or otherwise redistributed
TITLE "CinematicX (Rec.709)"
LUT_3D_SIZE 9
0.000000 0.000000 0.000000
0.106781 0.005249 0.009888
0.211548 0.015472 0.011780
0.315582 0.021057 0.011780
0.431213 0.023285 0.011475
0.555664 0.020569 0.010834
0.680817 0.013306 0.010223
0.804077 0.010529 0.011139
0.927002 0.010529 0.012390
0.000946 0.095154 0.009583
0.099670 0.101044 0.012054
0.219086 0.116516 0.015778
0.340393 0.129761 0.018127
0.465179 0.136230 0.016693
0.585083 0.135498 0.013306
0.703674 0.134155 0.011444
0.822296 0.135498 0.011444
0.942261 0.138702 0.014221
0.000305 0.194641 0.017822
0.090485 0.197662 0.014526
0.209015 0.208679 0.010834
0.356720 0.240936 0.017578
0.490723 0.256531 0.021820
0.606964 0.256531 0.018402
0.724854 0.257080 0.016968
0.842133 0.259033 0.018127
0.959930 0.262390 0.023010
0.000305 0.295746 0.037140
0.083679 0.297852 0.028717
0.205109 0.309570 0.014862
0.346283 0.328644 0.010223
0.492279 0.362610 0.023010
0.620422 0.375366 0.024445
0.741913 0.379333 0.027039
0.859772 0.382111 0.029297
0.976471 0.385437 0.033600
0.000305 0.405060 0.060089
0.080261 0.406189 0.049072
0.196198 0.413574 0.024200
0.346405 0.430817 0.013641
0.483978 0.450256 0.021790
0.625824 0.484009 0.035339
0.754059 0.500153 0.038422
0.871948 0.504944 0.038116
0.987122 0.507904 0.038910
0.000916 0.510803 0.073792
0.079010 0.511322 0.061005
0.185455 0.515503 0.032349
0.343201 0.532776 0.017578
0.491882 0.554779 0.022308
0.636261 0.580231 0.042633
0.763855 0.607788 0.057892
0.875671 0.622375 0.051483
0.991577 0.627045 0.033966
0.001862 0.609161 0.080963
0.078400 0.609222 0.066589
0.180573 0.613312 0.037323
0.343140 0.633881 0.020020
0.502502 0.661011 0.024200
0.641663 0.679932 0.034637
0.772614 0.700958 0.067230
0.876648 0.723938 0.077087
0.986328 0.740784 0.050537
0.001251 0.703125 0.084961
0.079651 0.702972 0.068939
0.186157 0.708466 0.039978
0.348022 0.732208 0.021332
0.507721 0.764984 0.023743
0.644775 0.789215 0.033783
0.766357 0.807953 0.048035
0.876160 0.826874 0.067322
0.983154 0.847321 0.058136
0.000305 0.841888 0.065948
0.094055 0.843628 0.052216
0.212860 0.854004 0.029694
0.362152 0.877777 0.015472
0.505219 0.903473 0.017822
0.636627 0.922546 0.023743
0.759918 0.939117 0.030670
0.874420 0.954285 0.038300
0.987457 0.967438 0.039215
0.018127 0.006805 0.108093
0.107544 0.013916 0.114990
0.213776 0.018677 0.115143
0.319214 0.017273 0.111084
0.428253 0.016388 0.107544
0.548187 0.016113 0.109528
0.672424 0.008667 0.116058
0.796509 0.003723 0.124481
0.921051 0.003723 0.130096
0.004333 0.108276 0.119141
0.055573 0.086945 0.103394
0.166351 0.104279 0.099487
0.289093 0.116821 0.096558
0.401794 0.114471 0.090118
0.509521 0.106567 0.090973
0.623657 0.105408 0.106079
0.737518 0.112640 0.124969
0.914520 0.124817 0.133911
0.002167 0.206482 0.124603
0.032501 0.147980 0.113953
0.139496 0.165161 0.113617
0.336304 0.233948 0.139496
0.470490 0.247314 0.131622
0.577911 0.239380 0.118866
0.684967 0.239349 0.124695
0.789642 0.249237 0.141968
0.940277 0.256897 0.145050
0.000305 0.312469 0.141754
0.021637 0.230164 0.151123
0.117493 0.242981 0.138702
0.284424 0.274628 0.136871
0.485107 0.358032 0.168060
0.620087 0.377747 0.166504
0.734131 0.380493 0.165283
0.838379 0.387177 0.172852
0.965820 0.386719 0.157623
0.000305 0.421722 0.159607
0.017975 0.320709 0.187469
0.091553 0.325409 0.159393
0.268066 0.350372 0.140991
0.434113 0.385986 0.149445
0.631195 0.481293 0.201141
0.764740 0.511475 0.202698
0.868378 0.517212 0.198456
0.981598 0.511902 0.166870
0.000916 0.524811 0.171112
0.018646 0.398071 0.208801
0.076385 0.399597 0.172485
0.253693 0.425812 0.142975
0.450470 0.471680 0.149384
0.625519 0.528656 0.198700
0.778564 0.603821 0.242126
0.876740 0.632233 0.227020
0.988770 0.631622 0.165283
0.001862 0.622345 0.178497
0.023102 0.464233 0.220978
0.078003 0.467407 0.181793
0.257080 0.501038 0.147308
0.470764 0.558136 0.155396
0.640656 0.605042 0.192169
0.785919 0.655273 0.256989
0.873383 0.708771 0.275146
0.981598 0.743713 0.182251
0.002472 0.716156 0.182678
0.025879 0.522797 0.227173
0.093903 0.530212 0.187927
0.278412 0.571442 0.154541
0.488922 0.641510 0.162354
0.652161 0.697723 0.194031
0.776489 0.740723 0.224945
0.870361 0.781219 0.256866
0.976685 0.845490 0.190338
0.000305 0.851562 0.169647
0.083740 0.813202 0.170013
0.196106 0.824310 0.153076
0.348694 0.851105 0.140198
0.499298 0.882050 0.142609
0.635193 0.906616 0.152740
0.760193 0.928436 0.162567
0.872955 0.947296 0.169281
0.982941 0.962555 0.169098
0.032349 0.018127 0.208588
0.116516 0.018951 0.212463
0.214752 0.021545 0.225159
0.321075 0.017578 0.225403
0.438324 0.008362 0.227356
0.557007 0.005585 0.229248
0.675598 0.003113 0.233185
0.796326 0.001862 0.238403
0.919403 0.002808 0.243286
0.014526 0.125366 0.230713
0.064758 0.120667 0.196594
0.168640 0.125854 0.195251
0.278870 0.122894 0.202271
0.397980 0.095581 0.197571
0.501953 0.076355 0.193848
0.607330 0.072998 0.203522
0.718964 0.081207 0.220001
0.904968 0.107269 0.241119
0.007721 0.227753 0.247345
0.046570 0.188751 0.226288
0.129364 0.192719 0.221008
0.291901 0.215820 0.225220
0.427338 0.212158 0.217682
0.541351 0.198486 0.207764
0.647614 0.193542 0.212311
0.755188 0.206085 0.229218
0.901764 0.232941 0.247650
0.013916 0.331177 0.256958
0.045410 0.268677 0.246979
0.095154 0.266693 0.232880
0.255585 0.284698 0.239807
0.456360 0.347504 0.267670
0.595947 0.361877 0.265930
0.714233 0.362946 0.261292
0.819489 0.369568 0.266876
0.943542 0.380188 0.270813
0.000000 0.437134 0.265228
0.017242 0.354340 0.267426
0.067413 0.344269 0.248474
0.227264 0.358948 0.247162
0.400574 0.390808 0.266083
0.618286 0.490540 0.317535
0.757324 0.513123 0.309845
0.861603 0.516815 0.306061
0.970673 0.514465 0.290771
0.000305 0.538879 0.275818
0.017944 0.429871 0.288788
0.053619 0.417084 0.263153
0.202667 0.433441 0.252289
0.404358 0.476013 0.272095
0.582001 0.526733 0.309906
0.771545 0.621857 0.358856
0.876556 0.643494 0.337799
0.984650 0.639069 0.298492
0.001526 0.636475 0.284027
0.022400 0.496765 0.304443
0.058411 0.484863 0.276031
0.195740 0.507233 0.259308
0.413483 0.561981 0.277130
0.604919 0.614960 0.312592
0.754913 0.660400 0.359375
0.866455 0.724640 0.377625
0.976013 0.748901 0.313110
0.002472 0.729980 0.288330
0.025879 0.553925 0.311218
0.072449 0.553467 0.282867
0.221039 0.584442 0.266998
0.441895 0.653198 0.280365
0.625336 0.712555 0.308594
0.762726 0.756439 0.336731
0.859497 0.791138 0.359131
0.968140 0.844604 0.321716
0.000000 0.862793 0.279266
0.080200 0.827332 0.276825
0.162781 0.789520 0.269775
0.317169 0.819489 0.261963
0.484650 0.857635 0.264893
0.629608 0.889282 0.276306
0.758484 0.916901 0.289948
0.870453 0.939880 0.298401
0.977386 0.957855 0.299561
0.040588 0.031616 0.304565
0.128601 0.029877 0.307404
0.218536 0.033600 0.322540
0.331665 0.024872 0.342743
0.437836 0.013916 0.343597
0.559570 0.002808 0.349304
0.678131 0.000641 0.351044
0.798584 0.000641 0.353333
0.921478 0.001251 0.356598
0.020294 0.144836 0.341644
0.100281 0.157593 0.289948
0.208862 0.154846 0.273712
0.291870 0.161835 0.325745
0.392639 0.139709 0.326782
0.505859 0.093292 0.320465
0.608917 0.068970 0.314209
0.718719 0.071899 0.320038
0.902954 0.099548 0.349304
0.033600 0.251556 0.372223
0.098785 0.238586 0.347778
0.159698 0.237946 0.337646
0.296936 0.245148 0.332001
0.406616 0.234680 0.334045
0.531525 0.201447 0.323578
0.640106 0.176147 0.315979
0.743713 0.176727 0.321442
0.892517 0.210388 0.346375
0.018402 0.351746 0.383057
0.068726 0.310303 0.371704
0.125244 0.303436 0.353485
0.247620 0.309662 0.344269
0.408875 0.331116 0.346039
0.550659 0.333313 0.344208
0.677490 0.331085 0.340973
0.786926 0.336975 0.347626
0.901886 0.356323 0.364624
0.027893 0.449768 0.385040
0.080353 0.380859 0.373322
0.108978 0.371857 0.345947
0.213928 0.377380 0.334534
0.375610 0.403229 0.356110
0.586029 0.479370 0.400574
0.733765 0.500610 0.404053
0.845795 0.507904 0.403717
0.949310 0.512085 0.404633
0.026825 0.551178 0.390350
0.020050 0.459656 0.382080
0.056549 0.447571 0.354919
0.171906 0.450104 0.340851
0.359894 0.486359 0.365936
0.545044 0.536621 0.409058
0.750000 0.626709 0.452667
0.870178 0.645599 0.438324
0.971985 0.645172 0.428192
0.000641 0.650299 0.395142
0.018951 0.529510 0.400543
0.042572 0.518097 0.372070
0.140228 0.524841 0.351471
0.342834 0.570435 0.371399
0.556000 0.626678 0.413574
0.721680 0.671478 0.453705
0.855927 0.736725 0.474518
0.968597 0.755341 0.442719
0.001251 0.743378 0.398895
0.021759 0.585999 0.407898
0.051453 0.583313 0.379639
0.149963 0.596527 0.359497
0.367279 0.659790 0.375916
0.584290 0.724121 0.409424
0.742920 0.769958 0.438812
0.851929 0.804840 0.465149
0.957642 0.845551 0.456177
0.000000 0.875427 0.393677
0.077850 0.843628 0.389587
0.145508 0.806885 0.379120
0.249542 0.780457 0.369293
0.441772 0.826843 0.376251
0.613800 0.869415 0.391663
0.753082 0.904205 0.410370
0.866272 0.932312 0.426453
0.970398 0.953583 0.435364
0.055847 0.040741 0.401062
0.147614 0.042633 0.410706
0.239441 0.047394 0.429962
0.331848 0.051117 0.449707
0.456390 0.028503 0.469574
0.549408 0.018951 0.459320
0.668762 0.006805 0.463287
0.788055 0.002167 0.465576
0.910126 0.000946 0.468903
0.041779 0.157257 0.451385
0.200836 0.172913 0.373718
0.257538 0.181396 0.360687
0.312073 0.195251 0.403473
0.413452 0.178375 0.449158
0.479706 0.162994 0.428619
0.594452 0.112244 0.426544
0.700348 0.081207 0.423523
0.891602 0.097198 0.459839
0.044586 0.265961 0.481506
0.116974 0.275055 0.444580
0.209686 0.269501 0.433319
0.332916 0.268066 0.403320
0.410919 0.274292 0.451477
0.494110 0.257812 0.436859
0.620209 0.210236 0.431641
0.730560 0.178833 0.428802
0.884796 0.201721 0.455658
0.048431 0.367432 0.499207
0.130798 0.345215 0.480011
0.187744 0.339447 0.462830
0.276947 0.345551 0.450073
0.412598 0.359253 0.448364
0.518158 0.355713 0.451660
0.662323 0.338684 0.450562
0.781403 0.329132 0.452179
0.899231 0.343201 0.467010
0.028076 0.463318 0.505066
0.097076 0.409485 0.490051
0.155457 0.403320 0.469635
0.250000 0.408539 0.456055
0.370728 0.429474 0.461761
0.539734 0.463898 0.477722
0.695282 0.476868 0.483917
0.817078 0.484741 0.487183
0.924194 0.496338 0.497437
0.039978 0.561737 0.509644
0.111481 0.481201 0.497131
0.138885 0.474487 0.468933
0.205811 0.478302 0.445435
0.336761 0.503845 0.452881
0.513031 0.546722 0.491425
0.726562 0.622742 0.535858
0.852905 0.638336 0.536896
0.954315 0.642273 0.538513
0.044189 0.661835 0.515381
0.102325 0.556732 0.507904
0.059845 0.549988 0.471954
0.119690 0.551605 0.446625
0.284790 0.578461 0.451477
0.500336 0.631592 0.494110
0.685547 0.681396 0.540314
0.844421 0.744995 0.571808
0.967224 0.760223 0.557434
0.036835 0.756195 0.513885
0.016968 0.618530 0.506317
0.037567 0.615875 0.479065
0.104462 0.621521 0.451782
0.286102 0.662598 0.455963
0.525055 0.727325 0.494934
0.713104 0.778717 0.533966
0.841248 0.816772 0.574402
0.956512 0.855011 0.577545
0.000000 0.887634 0.507721
0.078247 0.859863 0.502258
0.138275 0.825989 0.489227
0.205719 0.793732 0.470245
0.375702 0.821533 0.472137
0.577362 0.868835 0.493134
0.738922 0.908020 0.517456
0.861389 0.937653 0.545135
0.969208 0.959229 0.562317
0.071106 0.047668 0.496765
0.167694 0.053009 0.517639
0.261383 0.058868 0.540436
0.352753 0.062012 0.560577
0.444672 0.063385 0.570496
0.576019 0.032166 0.587799
0.653503 0.030853 0.565643
0.771118 0.014221 0.571167
0.891937 0.005859 0.576385
0.091034 0.155762 0.548767
0.250000 0.188782 0.438995
0.300232 0.199036 0.445251
0.350128 0.210968 0.482788
0.396942 0.222473 0.512329
0.522491 0.183960 0.553192
0.556488 0.188202 0.513184
0.672729 0.145508 0.523560
0.876984 0.120331 0.571594
0.047913 0.272705 0.580139
0.178436 0.288239 0.519287
0.315338 0.272491 0.487152
0.370087 0.286011 0.471985
0.417419 0.300446 0.508087
0.526031 0.290039 0.563416
0.578094 0.290985 0.535828
0.709778 0.250458 0.546448
0.871521 0.234924 0.572723
0.063934 0.378235 0.605194
0.164856 0.371246 0.564148
0.216553 0.368744 0.544983
0.330780 0.371552 0.535065
0.446442 0.380890 0.515778
0.532227 0.395050 0.577728
0.620331 0.390411 0.568115
0.757935 0.365051 0.572784
0.882935 0.360901 0.583008
0.067322 0.477081 0.625183
0.162781 0.438995 0.602325
0.213165 0.435242 0.583252
0.309082 0.445068 0.575958
0.401794 0.467926 0.582703
0.546722 0.489105 0.586456
0.661560 0.493835 0.595306
0.801849 0.489105 0.597382
0.920319 0.495544 0.605835
0.046082 0.573456 0.631805
0.118561 0.507721 0.618622
0.183380 0.505585 0.599182
0.270813 0.514648 0.588501
0.371765 0.536438 0.589386
0.501251 0.568176 0.602539
0.679901 0.605103 0.615570
0.820862 0.620544 0.625885
0.930298 0.631439 0.635101
0.049805 0.672546 0.636169
0.139160 0.581390 0.627777
0.166412 0.577148 0.598633
0.216278 0.583008 0.571106
0.308228 0.603149 0.556183
0.463531 0.639679 0.576782
0.648804 0.686005 0.623596
0.835815 0.748840 0.667419
0.956451 0.758698 0.664948
0.055634 0.768738 0.638641
0.138062 0.645020 0.629456
0.139923 0.644226 0.592133
0.119324 0.655151 0.554749
0.263336 0.680145 0.546417
0.469482 0.726593 0.573669
0.675110 0.780884 0.625122
0.827271 0.824524 0.677094
0.958801 0.863464 0.683685
0.000000 0.899048 0.624359
0.080597 0.874207 0.615997
0.141083 0.843658 0.599365
0.200623 0.811920 0.574951
0.339355 0.828186 0.568420
0.528992 0.866669 0.587585
0.713654 0.910736 0.622589
0.855255 0.943573 0.657990
0.971497 0.966492 0.677216
0.085724 0.054413 0.592651
0.184296 0.059692 0.621094
0.279480 0.065765 0.646851
0.369385 0.068207 0.665863
0.455597 0.071960 0.673584
0.549225 0.070343 0.670837
0.693512 0.033264 0.702576
0.753143 0.042511 0.665375
0.867981 0.026398 0.673798
0.108154 0.157867 0.636353
0.288116 0.199310 0.497284
0.335114 0.209717 0.521179
0.381927 0.221405 0.554810
0.424866 0.231171 0.581635
0.465454 0.241119 0.591766
0.635040 0.184509 0.659637
0.634857 0.211548 0.594574
0.851837 0.161194 0.671844
0.086060 0.270538 0.676453
0.299225 0.274506 0.566254
0.355682 0.281128 0.532501
0.401306 0.296204 0.537109
0.447205 0.310577 0.573547
0.494049 0.326141 0.607605
0.646454 0.296112 0.678253
0.671692 0.316406 0.634918
0.844482 0.286346 0.678711
0.059387 0.384033 0.703186
0.172241 0.385376 0.633179
0.271942 0.379364 0.615112
0.422058 0.373413 0.589111
0.482727 0.393707 0.587799
0.537323 0.413177 0.634216
0.662170 0.407745 0.700775
0.713135 0.420135 0.676544
0.848663 0.406433 0.695068
0.079254 0.487762 0.733917
0.194519 0.462402 0.695801
0.244965 0.459869 0.677917
0.332123 0.475586 0.672485
0.473541 0.483276 0.678741
0.577698 0.501373 0.657806
0.670807 0.517944 0.715485
0.751068 0.521149 0.705078
0.880310 0.517761 0.716705
0.085022 0.585632 0.750031
0.208191 0.531647 0.733398
0.261139 0.532837 0.720673
0.349457 0.548462 0.716644
0.436188 0.570312 0.718323
0.523621 0.596527 0.721130
0.677399 0.618835 0.715698
0.781342 0.629669 0.724609
0.907196 0.637024 0.736511
0.063477 0.682892 0.752533
0.153412 0.605896 0.743408
0.225128 0.608215 0.728271
0.306396 0.619629 0.715363
0.387512 0.635986 0.706146
0.490509 0.662018 0.707550
0.636414 0.698578 0.724182
0.806946 0.739868 0.748840
0.936554 0.756042 0.761780
0.060699 0.778778 0.752289
0.168976 0.667542 0.739410
0.209656 0.674286 0.717804
0.269440 0.687347 0.694946
0.356079 0.708557 0.678680
0.480164 0.744110 0.683136
0.661957 0.787476 0.722198
0.819336 0.828949 0.764832
0.960846 0.866394 0.777252
0.063354 0.907684 0.745544
0.141235 0.885620 0.735474
0.178223 0.860657 0.716339
0.242218 0.834778 0.694519
0.365356 0.846863 0.687317
0.524841 0.875793 0.700043
0.703522 0.914795 0.734192
0.854858 0.949707 0.767670
0.975220 0.972778 0.782440
0.100128 0.059998 0.687286
0.197937 0.064148 0.720398
0.293427 0.070831 0.746674
0.382050 0.072968 0.764008
0.466217 0.075897 0.769958
0.548004 0.081116 0.767365
0.647644 0.075989 0.762512
0.815216 0.031616 0.820618
0.850464 0.055420 0.762726
0.121277 0.159302 0.724670
0.315796 0.205597 0.555481
0.360779 0.216858 0.583984
0.404388 0.227692 0.613159
0.443817 0.236145 0.636139
0.481140 0.246826 0.648315
0.542908 0.250641 0.654297
0.756958 0.180481 0.771729
0.829559 0.185547 0.754761
0.131348 0.262451 0.758881
0.331909 0.275024 0.600800
0.379181 0.283783 0.582306
0.421906 0.298615 0.599396
0.467133 0.312836 0.630493
0.516083 0.327301 0.665558
0.568329 0.343872 0.691742
0.772736 0.292816 0.791382
0.813446 0.310425 0.753937
0.077850 0.381866 0.792877
0.251129 0.377289 0.684570
0.389435 0.361115 0.657104
0.451538 0.377197 0.633881
0.502777 0.394989 0.644653
0.556366 0.412415 0.687592
0.612885 0.433472 0.726257
0.787567 0.406433 0.809357
0.801575 0.430725 0.759552
0.072113 0.490448 0.822266
0.186188 0.471558 0.747864
0.260742 0.472656 0.738129
0.391693 0.479187 0.733521
0.534515 0.479645 0.712158
0.596649 0.501556 0.708923
0.655182 0.524200 0.749420
0.795837 0.520020 0.819153
0.820801 0.536591 0.780457
0.093231 0.592896 0.846893
0.227966 0.547272 0.803925
0.282776 0.551514 0.796234
0.371368 0.568298 0.790955
0.449707 0.589417 0.786926
0.554749 0.604401 0.785828
0.689209 0.618591 0.759155
0.796112 0.636993 0.820709
0.842712 0.651459 0.800079
0.089874 0.688873 0.854095
0.230957 0.616669 0.822723
0.297546 0.626129 0.816681
0.379028 0.641541 0.810364
0.450195 0.659393 0.805054
0.536591 0.683716 0.805573
0.660217 0.714447 0.808990
0.801849 0.747070 0.827606
0.905090 0.760132 0.840393
0.062714 0.786438 0.854218
0.207123 0.687317 0.822815
0.286499 0.698944 0.816376
0.364960 0.714905 0.810760
0.443604 0.734924 0.808746
0.546173 0.764191 0.816406
0.691071 0.803223 0.833649
0.827606 0.838013 0.849731
0.952087 0.866364 0.869324
0.085236 0.915985 0.856964
0.187775 0.896240 0.848663
0.281403 0.874359 0.836914
0.368317 0.853699 0.821503
0.455261 0.866791 0.816040
0.554626 0.893188 0.819397
0.708221 0.924713 0.842285
0.857361 0.954468 0.867920
0.978973 0.978210 0.883606
0.109741 0.061218 0.781250
0.207520 0.066315 0.813873
0.300934 0.072784 0.836731
0.388275 0.074768 0.852234
0.471741 0.076691 0.858643
0.552490 0.081207 0.855896
0.642731 0.082306 0.852478
0.745605 0.076538 0.851074
0.939178 0.026855 0.941559
0.131470 0.160156 0.810303
0.244476 0.172760 0.771210
0.321777 0.179077 0.785400
0.398285 0.184845 0.800293
0.473114 0.189301 0.813080
0.546967 0.194855 0.820862
0.624207 0.202393 0.827301
0.726440 0.198792 0.830078
0.930389 0.152191 0.934601
0.141296 0.261505 0.839081
0.254333 0.264465 0.787079
0.354950 0.275482 0.721375
0.418121 0.286041 0.736267
0.482941 0.296173 0.756927
0.550446 0.305542 0.781891
0.619904 0.317047 0.803314
0.710083 0.319885 0.813202
0.922821 0.276489 0.928772
0.107147 0.375427 0.876709
0.253082 0.364105 0.836334
0.371399 0.365173 0.764709
0.460907 0.377228 0.690155
0.511505 0.391724 0.705231
0.565765 0.405670 0.740112
0.627136 0.423431 0.778473
0.699249 0.435974 0.799500
0.914795 0.399658 0.922150
0.073639 0.488098 0.902679
0.176544 0.482422 0.872833
0.302124 0.478058 0.834045
0.471863 0.464844 0.782806
0.546936 0.478851 0.746704
0.601898 0.495667 0.749634
0.662598 0.515594 0.790009
0.722015 0.536133 0.818481
0.917206 0.516754 0.924255
0.093933 0.594269 0.930084
0.184296 0.582642 0.908142
0.276154 0.575867 0.879181
0.374542 0.578369 0.840668
0.466583 0.591125 0.827972
0.587769 0.594849 0.825043
0.697479 0.612640 0.799438
0.757141 0.639374 0.830750
0.916962 0.637665 0.923279
0.097504 0.690552 0.941345
0.195068 0.674225 0.924286
0.295593 0.660095 0.900421
0.395203 0.651611 0.867737
0.472198 0.666321 0.856812
0.553802 0.688263 0.855072
0.676208 0.716827 0.863922
0.808960 0.741272 0.864288
0.933777 0.756897 0.938019
0.085876 0.788239 0.949188
0.190338 0.769562 0.935059
0.301117 0.750458 0.916901
0.398529 0.735016 0.896545
0.479095 0.751312 0.898956
0.575226 0.775970 0.910339
0.714508 0.808441 0.924652
0.866180 0.835297 0.917786
0.954742 0.869049 0.956879
0.091644 0.920990 0.969360
0.209930 0.903168 0.959442
0.323547 0.884125 0.947937
0.425171 0.866302 0.935669
0.510071 0.878296 0.937408
0.601685 0.898651 0.944824
0.723663 0.926453 0.957275
0.862579 0.956482 0.971466
0.981995 0.981476 0.982361
