src/assets/luts/ON1 Nature & Wildlife LUTs/CinematicX LUTs - 30 Free Cinematic LUTs - The Resolve Store 2022/Bayamon - Rec709.cube
# Copyright: (C) Copyright 2022 The Resolve Store 
# Cannot be resold, shared or otherwise redistributed
TITLE "CinematicX (Rec.709)"
LUT_3D_SIZE 9
0.000000 0.000000 0.000000
0.106964 0.001373 0.000000
0.206360 0.013611 0.000000
0.305176 0.035492 0.000000
0.398804 0.071777 0.000000
0.495789 0.109192 0.000000
0.596008 0.159027 0.000000
0.704956 0.221130 0.000000
0.803680 0.281982 0.000000
0.000000 0.103088 0.000702
0.109314 0.100952 0.000000
0.211700 0.105530 0.000000
0.311493 0.116455 0.000000
0.408356 0.134033 0.000000
0.503143 0.162354 0.000000
0.603760 0.200134 0.000000
0.716980 0.245728 0.000000
0.804871 0.301270 0.000000
0.000000 0.194733 0.006897
0.113892 0.194092 0.000000
0.220551 0.194305 0.000000
0.318481 0.203888 0.000000
0.415375 0.214417 0.000000
0.511047 0.231476 0.000000
0.613861 0.257111 0.000000
0.725586 0.293945 0.000000
0.811981 0.336548 0.000000
0.000000 0.279816 0.036072
0.106934 0.281006 0.000000
0.227325 0.281830 0.000000
0.332367 0.292511 0.000000
0.430328 0.306213 0.000000
0.524475 0.316498 0.000000
0.626740 0.332428 0.000000
0.742249 0.358002 0.000000
0.826172 0.390808 0.000000
0.000000 0.367523 0.073059
0.103577 0.368561 0.000000
0.241699 0.366730 0.000000
0.341583 0.379059 0.000000
0.445374 0.396393 0.000000
0.553955 0.410767 0.000000
0.652527 0.423126 0.000000
0.763672 0.438965 0.000000
0.843140 0.464081 0.000000
0.000000 0.464142 0.130646
0.064392 0.467590 0.000000
0.260834 0.461151 0.000000
0.363037 0.471497 0.000000
0.457458 0.493622 0.000000
0.567688 0.512604 0.000000
0.685883 0.524414 0.000000
0.792908 0.532379 0.000000
0.865540 0.549591 0.000000
0.000000 0.575592 0.206940
0.000000 0.582031 0.059875
0.244019 0.576233 0.000000
0.384399 0.575409 0.000000
0.479553 0.594177 0.000000
0.580505 0.617645 0.000000
0.704132 0.632935 0.000000
0.825317 0.639771 0.000000
0.899017 0.647491 0.000000
0.000000 0.693726 0.310120
0.000000 0.701843 0.214172
0.129639 0.707489 0.023254
0.360352 0.703003 0.000000
0.496552 0.708893 0.000000
0.600189 0.731415 0.000000
0.720215 0.752960 0.000000
0.861633 0.762817 0.000000
0.934753 0.764191 0.000000
0.000000 0.822662 0.420441
0.000000 0.832428 0.352570
0.000000 0.846680 0.228363
0.277405 0.851074 0.127441
0.468109 0.853943 0.017365
0.607941 0.865143 0.000000
0.732910 0.884094 0.000000
0.881012 0.879486 0.000000
0.961853 0.874878 0.000000
0.000305 0.005310 0.121216
0.119141 0.000000 0.115082
0.219574 0.000000 0.058838
0.321289 0.010925 0.027802
0.418549 0.037598 0.003845
0.510834 0.091827 0.000000
0.605804 0.153046 0.000000
0.709778 0.221680 0.000000
0.802643 0.288757 0.000000
0.000000 0.112549 0.115753
0.109070 0.111481 0.110413
0.216431 0.108795 0.079559
0.315643 0.116577 0.039734
0.417450 0.128784 0.011719
0.517151 0.151550 0.000000
0.612213 0.195953 0.000000
0.720001 0.247498 0.000000
0.804047 0.306396 0.000000
0.000000 0.203491 0.111359
0.073914 0.207886 0.103485
0.215851 0.204315 0.088776
0.323181 0.209106 0.080963
0.416077 0.218384 0.036407
0.517609 0.230347 0.001984
0.618866 0.257141 0.000000
0.728088 0.296387 0.000000
0.813080 0.337860 0.000000
0.000000 0.285278 0.129578
0.017639 0.293304 0.086761
0.203033 0.291687 0.060425
0.331207 0.298157 0.069244
0.440125 0.310547 0.078033
0.533783 0.319427 0.036774
0.631561 0.334961 0.000000
0.744812 0.361145 0.000000
0.825745 0.394257 0.000000
0.000000 0.369629 0.162781
0.000000 0.378113 0.074890
0.201660 0.376221 0.018219
0.331177 0.383331 0.018921
0.445526 0.400757 0.054596
0.560028 0.415985 0.070953
0.660858 0.427368 0.018311
0.769165 0.441895 0.000000
0.844482 0.466797 0.000000
0.000000 0.465851 0.206238
0.000000 0.473694 0.104065
0.205627 0.472229 0.000885
0.344360 0.476685 0.000000
0.452301 0.496033 0.005432
0.568329 0.516113 0.045746
0.692108 0.528412 0.056732
0.800049 0.536560 0.004242
0.872131 0.552185 0.000000
0.000000 0.577789 0.274078
0.000000 0.585175 0.183777
0.178955 0.587036 0.039490
0.352692 0.584656 0.000000
0.469299 0.597870 0.000000
0.577942 0.619873 0.004822
0.705231 0.636261 0.031433
0.832031 0.644287 0.000000
0.905853 0.650848 0.000000
0.000000 0.698090 0.365814
0.000000 0.705841 0.294281
0.039581 0.715881 0.152710
0.327454 0.712555 0.057983
0.477570 0.716644 0.000092
0.594757 0.735229 0.001068
0.719391 0.755676 0.020203
0.863678 0.766510 0.000000
0.938538 0.767273 0.000000
0.000000 0.829346 0.460236
0.000000 0.837891 0.419098
0.000000 0.851929 0.322479
0.228424 0.860474 0.216522
0.451294 0.862274 0.149384
0.604279 0.870911 0.098267
0.734863 0.885773 0.052521
0.880371 0.881287 0.000000
0.963409 0.877319 0.000000
0.000000 0.021881 0.236816
0.093872 0.020508 0.248199
0.232758 0.000000 0.218811
0.336243 0.000000 0.168549
0.440613 0.000977 0.123901
0.526855 0.074341 0.067688
0.615112 0.150696 0.000000
0.712982 0.227020 0.000000
0.804413 0.299316 0.000000
0.000000 0.127350 0.239868
0.086914 0.130768 0.245697
0.226990 0.119965 0.231262
0.349976 0.106506 0.177979
0.443634 0.117188 0.136078
0.531769 0.147644 0.087067
0.619293 0.197998 0.004517
0.721802 0.254883 0.000000
0.806488 0.315430 0.000000
0.000000 0.221741 0.237640
0.103760 0.223969 0.234802
0.217590 0.223206 0.222015
0.333191 0.226624 0.199158
0.439270 0.227936 0.173309
0.536530 0.236450 0.135742
0.628754 0.262939 0.064270
0.734375 0.302399 0.000488
0.815063 0.340668 0.000000
0.000000 0.304779 0.230652
0.017242 0.311310 0.223511
0.170776 0.314026 0.216064
0.322357 0.318481 0.203918
0.445068 0.331085 0.209351
0.547913 0.335785 0.186951
0.646881 0.346527 0.142822
0.747284 0.374512 0.062073
0.829865 0.399323 0.000000
0.000000 0.383606 0.240112
0.000000 0.390350 0.226166
0.139008 0.395386 0.195129
0.312103 0.397797 0.172028
0.444092 0.415100 0.189911
0.566254 0.434021 0.207001
0.674377 0.441681 0.192474
0.770813 0.458374 0.122345
0.848755 0.476410 0.052277
0.000000 0.473389 0.280975
0.000000 0.480438 0.254822
0.133057 0.487427 0.182648
0.319672 0.488129 0.148376
0.447693 0.502716 0.158813
0.569275 0.526306 0.186401
0.697510 0.542145 0.202423
0.809174 0.550110 0.173767
0.877777 0.564789 0.110870
0.000000 0.582672 0.335571
0.000000 0.589813 0.301544
0.091064 0.598267 0.203308
0.325531 0.595184 0.151642
0.462311 0.603180 0.140289
0.578827 0.623810 0.162750
0.706940 0.644226 0.184967
0.840271 0.654327 0.184082
0.912842 0.662903 0.132324
0.000000 0.703247 0.409973
0.000000 0.710175 0.379181
0.000000 0.722717 0.278290
0.298370 0.721802 0.206757
0.469025 0.723297 0.164001
0.596405 0.738739 0.164520
0.722321 0.759918 0.179291
0.865753 0.773712 0.177490
0.943512 0.774597 0.123108
0.000000 0.835724 0.501282
0.000000 0.843384 0.475525
0.000000 0.856293 0.416809
0.176056 0.868774 0.314819
0.436920 0.870209 0.258545
0.603790 0.876678 0.219574
0.741455 0.886414 0.183929
0.882233 0.882233 0.114960
0.966034 0.880890 0.063873
0.000000 0.038452 0.358826
0.049072 0.042450 0.372101
0.208893 0.037170 0.360413
0.347198 0.000000 0.320923
0.456421 0.000000 0.267883
0.570679 0.000000 0.224579
0.669037 0.090973 0.179901
0.762451 0.184174 0.110870
0.838745 0.285431 0.000000
0.000000 0.146698 0.350372
0.022552 0.151154 0.379547
0.174866 0.155212 0.381561
0.352570 0.127228 0.340454
0.479248 0.104523 0.276886
0.578186 0.122009 0.228699
0.672699 0.165527 0.186829
0.766388 0.226288 0.121460
0.845032 0.300842 0.000000
0.002258 0.244659 0.358093
0.100037 0.249908 0.362091
0.172424 0.257629 0.367493
0.329346 0.249146 0.363617
0.479065 0.235779 0.294708
0.577942 0.242462 0.255768
0.674774 0.260651 0.217834
0.772095 0.294922 0.158691
0.839996 0.340668 0.021667
0.000000 0.337616 0.378632
0.105652 0.340820 0.377991
0.216766 0.341644 0.363007
0.336212 0.346008 0.345398
0.457306 0.358490 0.323914
0.572205 0.360931 0.304657
0.677917 0.366608 0.272156
0.783844 0.382385 0.223022
0.846375 0.411530 0.097412
0.000000 0.420898 0.385498
0.000000 0.425690 0.383331
0.124054 0.429413 0.371216
0.279144 0.433655 0.345276
0.431030 0.447479 0.335083
0.573608 0.464264 0.341827
0.688904 0.469116 0.325043
0.797760 0.476471 0.284485
0.863007 0.494751 0.170746
0.000000 0.503815 0.389099
0.000000 0.507690 0.381165
0.029114 0.516785 0.349670
0.244873 0.519867 0.332153
0.419983 0.527649 0.309174
0.567230 0.549530 0.323639
0.706085 0.567352 0.340057
0.822571 0.572235 0.324371
0.892761 0.584473 0.240936
0.000000 0.600861 0.422455
0.000000 0.606476 0.401672
0.000000 0.616730 0.362457
0.247101 0.619110 0.324738
0.429535 0.621826 0.293213
0.570099 0.638214 0.298737
0.708710 0.661835 0.320251
0.847961 0.673767 0.329376
0.928558 0.682129 0.280548
0.000000 0.715057 0.478699
0.000000 0.721832 0.451843
0.000000 0.731628 0.414459
0.225830 0.738251 0.353943
0.438049 0.738159 0.309448
0.588043 0.748993 0.297974
0.722870 0.770233 0.310333
0.868439 0.787109 0.317627
0.952362 0.789398 0.260773
0.000000 0.844635 0.556702
0.000000 0.852631 0.530396
0.000000 0.863556 0.496979
0.083466 0.878540 0.428925
0.412659 0.880585 0.378143
0.598907 0.884338 0.336182
0.748199 0.887665 0.295288
0.886261 0.883759 0.248444
0.980438 0.898926 0.253906
0.000000 0.069946 0.455017
0.000000 0.069794 0.492737
0.154297 0.083466 0.493744
0.323181 0.061920 0.468689
0.465637 0.000000 0.419220
0.583679 0.000000 0.360443
0.709900 0.012817 0.311829
0.818024 0.137299 0.259705
0.913940 0.224243 0.177246
0.000000 0.170105 0.451324
0.000000 0.174438 0.494812
0.083771 0.184021 0.515900
0.300415 0.179108 0.503601
0.477295 0.134857 0.440979
0.607819 0.105560 0.369537
0.717682 0.135559 0.315216
0.822174 0.196991 0.266602
0.916962 0.257568 0.195435
0.000000 0.269989 0.465424
0.000000 0.277954 0.498657
0.068848 0.287994 0.509888
0.241028 0.296844 0.522675
0.473053 0.263031 0.471649
0.617859 0.242523 0.388153
0.722900 0.256470 0.336823
0.825836 0.287598 0.292816
0.913696 0.319702 0.225403
0.095001 0.368652 0.493073
0.156281 0.374359 0.495758
0.216034 0.381958 0.491638
0.284180 0.394867 0.497528
0.414307 0.396606 0.517944
0.616791 0.374420 0.423462
0.723358 0.381622 0.384247
0.830841 0.393677 0.348389
0.912598 0.406555 0.276459
0.059753 0.469116 0.545868
0.141113 0.471222 0.542358
0.236298 0.471191 0.525940
0.347046 0.471954 0.500092
0.464539 0.478424 0.478455
0.584656 0.496246 0.453247
0.712463 0.498291 0.441406
0.828308 0.501099 0.407928
0.916016 0.506531 0.341858
0.000000 0.557556 0.562073
0.000000 0.558990 0.558350
0.036560 0.562378 0.551117
0.257080 0.561310 0.523010
0.401794 0.566711 0.487061
0.548828 0.585449 0.475739
0.710266 0.600464 0.477081
0.834564 0.602814 0.458527
0.923737 0.606995 0.400238
0.000000 0.641937 0.564514
0.000000 0.643890 0.556854
0.000000 0.651001 0.532684
0.211975 0.653534 0.498138
0.366974 0.657257 0.478333
0.535370 0.668304 0.456757
0.703644 0.689270 0.461884
0.854706 0.701569 0.471375
0.946075 0.707397 0.438446
0.000000 0.742676 0.586182
0.000000 0.747162 0.569733
0.000000 0.756042 0.538422
0.168365 0.763092 0.505768
0.358856 0.767212 0.487610
0.547241 0.773651 0.454468
0.710663 0.790710 0.450134
0.869354 0.806732 0.454437
0.968689 0.815796 0.438995
0.000000 0.863800 0.637299
0.000000 0.870575 0.615936
0.000000 0.881042 0.584869
0.075256 0.893433 0.545990
0.360260 0.897430 0.517303
0.573120 0.896820 0.461548
0.740601 0.899902 0.424927
0.887238 0.907227 0.412872
0.987213 0.921600 0.426422
0.000000 0.105286 0.550781
0.000000 0.105652 0.596466
0.015381 0.124939 0.623657
0.269196 0.127228 0.613220
0.442596 0.094818 0.575806
0.591095 0.001465 0.512878
0.723053 0.000000 0.446350
0.858490 0.066193 0.390137
0.974548 0.165924 0.334839
0.000000 0.199158 0.546722
0.000000 0.204132 0.582733
0.000000 0.215698 0.634735
0.188660 0.230682 0.653625
0.433594 0.203247 0.614685
0.605225 0.143982 0.534027
0.743042 0.113068 0.453857
0.866638 0.160706 0.395294
0.982361 0.218475 0.346649
0.000000 0.298035 0.561859
0.000000 0.305481 0.592163
0.000000 0.317505 0.624512
0.085052 0.334717 0.663910
0.375763 0.329956 0.658386
0.611206 0.273804 0.567657
0.756989 0.249603 0.471313
0.874176 0.273743 0.415924
0.988098 0.304291 0.373077
0.000000 0.402649 0.614136
0.016693 0.410187 0.627167
0.100525 0.420319 0.633698
0.179016 0.436157 0.645996
0.313629 0.450317 0.668488
0.586578 0.411163 0.624390
0.765533 0.385223 0.511749
0.880157 0.396179 0.465088
0.980713 0.407135 0.412506
0.204468 0.505005 0.650299
0.237854 0.509705 0.650085
0.287201 0.515106 0.641205
0.345520 0.523315 0.628448
0.411163 0.536133 0.630920
0.489716 0.548126 0.666199
0.756439 0.512634 0.557648
0.872559 0.517578 0.517487
0.971008 0.519135 0.467407
0.156097 0.609070 0.715668
0.198517 0.609375 0.708649
0.274078 0.608734 0.691925
0.372101 0.607697 0.666321
0.481384 0.606567 0.635071
0.596649 0.612793 0.612885
0.714813 0.633240 0.584137
0.853912 0.632385 0.570526
0.958618 0.631165 0.524170
0.000000 0.699646 0.728455
0.000000 0.700928 0.724823
0.019867 0.703461 0.719147
0.253967 0.701324 0.699249
0.398224 0.699005 0.668823
0.533020 0.704926 0.630829
0.680359 0.725464 0.616211
0.853821 0.734467 0.608551
0.960144 0.738281 0.575470
0.000000 0.788849 0.736877
0.000000 0.791107 0.731934
0.000000 0.796539 0.719757
0.158478 0.801819 0.692596
0.364716 0.801910 0.656342
0.507538 0.807739 0.632446
0.673981 0.820679 0.608582
0.861786 0.832916 0.595398
0.980438 0.846802 0.594147
0.000000 0.895844 0.754883
0.000000 0.901306 0.742218
0.000000 0.910309 0.718445
0.148773 0.917847 0.680908
0.367737 0.919159 0.655792
0.506317 0.926788 0.638275
0.696930 0.933716 0.601471
0.873962 0.943115 0.584076
0.994385 0.950073 0.583191
0.000000 0.146362 0.643341
0.000000 0.151581 0.675171
0.000000 0.168671 0.728729
0.122192 0.190857 0.759338
0.390747 0.180359 0.736023
0.571533 0.136414 0.683197
0.730347 0.028595 0.601410
0.875946 0.000000 0.521179
1.000000 0.094269 0.471680
0.000000 0.233948 0.637756
0.000000 0.239655 0.668427
0.000000 0.254456 0.704620
0.000000 0.275574 0.793030
0.337891 0.276367 0.783234
0.568970 0.231201 0.720673
0.744965 0.155457 0.619171
0.890381 0.128662 0.528229
1.000000 0.206757 0.485291
0.000000 0.331085 0.651794
0.000000 0.337616 0.676941
0.000000 0.349854 0.702118
0.000000 0.371826 0.757629
0.170959 0.393524 0.819519
0.532166 0.353699 0.771118
0.755524 0.281097 0.649384
0.902618 0.259155 0.550201
1.000000 0.318085 0.511505
0.000000 0.435852 0.705139
0.000000 0.443390 0.723480
0.000000 0.454041 0.744110
0.000000 0.471954 0.766876
0.136597 0.493652 0.809875
0.411285 0.493683 0.821503
0.747131 0.417328 0.706451
0.912140 0.392151 0.595245
1.000000 0.429901 0.547150
0.131561 0.544037 0.766113
0.166107 0.549591 0.769287
0.206116 0.556488 0.768738
0.241852 0.567993 0.768646
0.322205 0.582214 0.779297
0.417786 0.594818 0.803741
0.700836 0.552643 0.772186
0.911255 0.521667 0.640411
1.000000 0.537170 0.585999
0.293762 0.644684 0.809113
0.312805 0.646576 0.804962
0.352142 0.649323 0.793365
0.406799 0.654358 0.775787
0.481293 0.659790 0.759766
0.541443 0.670593 0.759460
0.610443 0.683594 0.798218
0.898285 0.645844 0.670685
1.000000 0.646759 0.631409
0.219055 0.746216 0.865479
0.251404 0.746826 0.859589
0.316315 0.747040 0.846405
0.405579 0.746857 0.825958
0.509583 0.744446 0.798126
0.615540 0.742493 0.765228
0.731476 0.748505 0.746704
0.850525 0.768616 0.712219
0.984802 0.767548 0.686798
0.000000 0.844910 0.886597
0.000000 0.847260 0.883942
0.109619 0.849304 0.877716
0.291504 0.848724 0.862427
0.427765 0.847015 0.840088
0.555603 0.845581 0.808044
0.683807 0.852203 0.770508
0.838623 0.869843 0.751709
0.985382 0.881409 0.738556
0.000000 0.940765 0.897491
0.000000 0.944885 0.894196
0.005920 0.951385 0.885864
0.252075 0.953461 0.865601
0.413361 0.954254 0.837250
0.549438 0.957336 0.806946
0.671509 0.967865 0.787689
0.837616 0.979523 0.758850
0.998627 0.982422 0.738647
0.000000 0.195526 0.713348
0.000000 0.200958 0.754395
0.000000 0.221069 0.783844
0.000000 0.252228 0.876434
0.265961 0.259521 0.895813
0.520386 0.237946 0.858582
0.713684 0.178711 0.786346
0.883942 0.051697 0.677673
1.000000 0.074371 0.600677
0.000000 0.274048 0.727722
0.000000 0.280914 0.747681
0.000000 0.297424 0.772888
0.000000 0.323120 0.844666
0.050293 0.347168 0.943085
0.484436 0.321808 0.904236
0.715210 0.258789 0.818787
0.898834 0.165283 0.693207
1.000000 0.210144 0.611786
0.000000 0.368286 0.735870
0.000000 0.374115 0.755707
0.000000 0.387024 0.779083
0.000000 0.410126 0.812378
0.000000 0.441925 0.914642
0.368591 0.436829 0.953827
0.694366 0.370422 0.865173
0.906952 0.285614 0.724823
1.000000 0.331299 0.633942
0.000000 0.472931 0.790314
0.000000 0.478149 0.804230
0.000000 0.487885 0.819519
0.000000 0.505188 0.834137
0.000000 0.532013 0.897614
0.076080 0.556976 0.972198
0.625214 0.500580 0.924561
0.905518 0.416901 0.775635
1.000000 0.447968 0.667145
0.000000 0.582855 0.877258
0.000000 0.586914 0.882629
0.000000 0.593964 0.890717
0.000000 0.605591 0.897369
0.080994 0.621155 0.919067
0.292297 0.635345 0.940369
0.506775 0.631836 0.957947
0.888641 0.548065 0.831970
1.000000 0.563202 0.699036
0.264648 0.679962 0.909729
0.278168 0.682281 0.908173
0.306427 0.686462 0.903717
0.341919 0.694366 0.897888
0.402924 0.704102 0.896240
0.468536 0.715210 0.904388
0.546997 0.726288 0.929108
0.860382 0.675385 0.882111
1.000000 0.675995 0.740143
0.352600 0.777161 0.948883
0.369446 0.779297 0.945190
0.407806 0.781921 0.935516
0.463470 0.786194 0.919525
0.542877 0.789642 0.899445
0.618134 0.793579 0.879913
0.669861 0.806366 0.880127
0.736359 0.820709 0.927216
1.000000 0.792542 0.785217
0.337524 0.879486 0.995087
0.358551 0.881500 0.991089
0.405701 0.883118 0.982269
0.481689 0.884125 0.967224
0.573273 0.884766 0.946136
0.665955 0.884613 0.920013
0.763428 0.885773 0.893402
0.877869 0.893707 0.887207
0.994995 0.914581 0.845428
0.360779 0.978638 1.000000
0.368073 0.982452 1.000000
0.386414 0.987152 1.000000
0.427856 0.990448 0.999908
0.516449 0.990509 0.987274
0.623047 0.989746 0.966705
0.735748 0.991486 0.939606
0.849243 0.999207 0.913361
0.999451 0.999756 0.878387
0.000000 0.247009 0.798248
0.000000 0.255463 0.820496
0.000000 0.275574 0.846405
0.000000 0.310486 0.910553
0.000000 0.334747 1.000000
0.412903 0.329803 1.000000
0.659454 0.291962 0.974213
0.868561 0.204437 0.873718
1.000000 0.086975 0.752533
0.000000 0.319794 0.801147
0.000000 0.327240 0.819305
0.000000 0.344299 0.842773
0.000000 0.370667 0.895325
0.000000 0.410034 0.985870
0.355377 0.412811 1.000000
0.633545 0.364685 1.000000
0.875214 0.274719 0.902618
1.000000 0.239471 0.759521
0.000000 0.408661 0.820282
0.000000 0.414734 0.832062
0.000000 0.428375 0.846954
0.000000 0.451233 0.877197
0.000000 0.484924 0.952301
0.204346 0.512085 1.000000
0.567871 0.477966 1.000000
0.867920 0.373260 0.941284
1.000000 0.354675 0.777069
0.000000 0.509674 0.867340
0.000000 0.514465 0.877747
0.000000 0.524445 0.887177
0.000000 0.541351 0.899445
0.000000 0.567932 0.948914
0.066467 0.596863 1.000000
0.493744 0.584534 1.000000
0.833344 0.492676 0.992493
1.000000 0.465149 0.808014
0.000000 0.615814 0.950531
0.000000 0.618988 0.952179
0.000000 0.625916 0.959167
0.000000 0.636444 0.968994
0.000000 0.652252 0.995056
0.260986 0.667267 1.000000
0.455627 0.679779 1.000000
0.757233 0.631104 1.000000
1.000000 0.580780 0.839691
0.164551 0.712036 1.000000
0.183319 0.714905 1.000000
0.208435 0.719757 1.000000
0.237946 0.728119 1.000000
0.311768 0.738312 1.000000
0.416565 0.748444 1.000000
0.527618 0.760681 1.000000
0.687195 0.761169 1.000000
1.000000 0.696289 0.880432
0.441681 0.801392 1.000000
0.447052 0.804596 1.000000
0.461426 0.809357 1.000000
0.479553 0.817200 1.000000
0.515106 0.826782 1.000000
0.565430 0.837341 1.000000
0.633118 0.849976 1.000000
0.723877 0.858856 1.000000
1.000000 0.814728 0.931061
0.616241 0.890747 1.000000
0.620453 0.894165 1.000000
0.632935 0.898651 1.000000
0.652008 0.905701 1.000000
0.683502 0.915588 1.000000
0.721680 0.926178 1.000000
0.764313 0.936340 1.000000
0.809662 0.951508 1.000000
0.929962 0.962769 0.943817
0.805756 0.966705 1.000000
0.804657 0.968872 1.000000
0.806274 0.970459 1.000000
0.808289 0.972656 1.000000
0.814331 0.976135 1.000000
0.836761 0.982819 1.000000
0.869080 0.989594 1.000000
0.917114 0.994904 1.000000
0.997162 0.997986 0.998077
