src/assets/luts/ON1 Nature & Wildlife LUTs/CinematicX LUTs - 30 Free Cinematic LUTs - The Resolve Store 2022/Bayamon - Rec709.cube
# Copyright: (C) Copyright 2022 The Resolve Store 
# Cannot be resold, shared or otherwise redistributed
TITLE "CinematicX (Rec.709)"
LUT_3D_SIZE 33
0.000000 0.000000 0.000000
0.029663 0.000000 0.000000
0.057068 0.000000 0.000000
0.082855 0.000000 0.000000
0.106964 0.001373 0.000000
0.131805 0.003387 0.000000
0.156494 0.006012 0.000000
0.182434 0.008362 0.000000
0.206360 0.013611 0.000000
0.231781 0.018036 0.000000
0.255920 0.024231 0.000000
0.281067 0.028717 0.000000
0.305176 0.035492 0.000000
0.328369 0.044861 0.000000
0.353699 0.050690 0.000000
0.377350 0.059174 0.000000
0.398804 0.071777 0.000000
0.422821 0.080719 0.000000
0.446472 0.090393 0.000000
0.472504 0.097015 0.000000
0.495789 0.109192 0.000000
0.518921 0.122314 0.000000
0.544556 0.133301 0.000000
0.568542 0.147766 0.000000
0.596008 0.159027 0.000000
0.621826 0.174408 0.000000
0.648834 0.189331 0.000000
0.677826 0.203552 0.000000
0.704956 0.221130 0.000000
0.736542 0.234528 0.000000
0.765869 0.251129 0.000000
0.796112 0.266510 0.000000
0.803680 0.281982 0.000000
0.000000 0.027649 0.000000
0.026855 0.026703 0.000000
0.053467 0.026550 0.000000
0.079712 0.026550 0.000000
0.105682 0.027740 0.000000
0.130646 0.028839 0.000000
0.157471 0.030884 0.000000
0.183258 0.033020 0.000000
0.208344 0.036530 0.000000
0.234375 0.039520 0.000000
0.258942 0.043823 0.000000
0.282684 0.050140 0.000000
0.307770 0.055389 0.000000
0.331848 0.061462 0.000000
0.356598 0.067230 0.000000
0.378815 0.077271 0.000000
0.403839 0.083069 0.000000
0.427124 0.091766 0.000000
0.449554 0.102661 0.000000
0.472931 0.112762 0.000000
0.498413 0.120819 0.000000
0.521271 0.133453 0.000000
0.546661 0.143890 0.000000
0.570526 0.157745 0.000000
0.597595 0.168793 0.000000
0.625244 0.180817 0.000000
0.651978 0.195465 0.000000
0.679443 0.210785 0.000000
0.708893 0.224884 0.000000
0.739014 0.239197 0.000000
0.768066 0.255371 0.000000
0.797058 0.270081 0.000000
0.801392 0.288116 0.000000
0.000000 0.053619 0.000000
0.024780 0.053223 0.000000
0.053711 0.052063 0.000000
0.080292 0.051636 0.000000
0.106476 0.051971 0.000000
0.132477 0.053070 0.000000
0.158569 0.054626 0.000000
0.184235 0.056824 0.000000
0.209534 0.059448 0.000000
0.235107 0.062469 0.000000
0.260773 0.065491 0.000000
0.283691 0.071594 0.000000
0.309570 0.074860 0.000000
0.333435 0.080383 0.000000
0.357452 0.086517 0.000000
0.381317 0.092834 0.000000
0.404114 0.100922 0.000000
0.428528 0.107697 0.000000
0.452057 0.116058 0.000000
0.476196 0.124176 0.000000
0.499420 0.134460 0.000000
0.523743 0.144562 0.000000
0.548767 0.154785 0.000000
0.573578 0.166565 0.000000
0.599304 0.178680 0.000000
0.627045 0.189819 0.000000
0.654846 0.202545 0.000000
0.681915 0.217377 0.000000
0.711884 0.230286 0.000000
0.740479 0.245667 0.000000
0.770203 0.260315 0.000000
0.797363 0.275085 0.000000
0.803253 0.290497 0.000000
0.000000 0.078278 0.000000
0.020966 0.079254 0.000000
0.053101 0.078064 0.000000
0.081268 0.076782 0.000000
0.107422 0.076782 0.000000
0.133087 0.077545 0.000000
0.159088 0.078888 0.000000
0.185272 0.080414 0.000000
0.210449 0.082520 0.000000
0.236237 0.084991 0.000000
0.261139 0.087952 0.000000
0.285736 0.091644 0.000000
0.310669 0.095337 0.000000
0.334595 0.100311 0.000000
0.358551 0.105438 0.000000
0.382721 0.110718 0.000000
0.406494 0.116669 0.000000
0.429993 0.123657 0.000000
0.454956 0.129608 0.000000
0.476929 0.139771 0.000000
0.501892 0.147308 0.000000
0.526703 0.155884 0.000000
0.551666 0.165710 0.000000
0.575958 0.177124 0.000000
0.601471 0.188934 0.000000
0.628632 0.200134 0.000000
0.656830 0.211548 0.000000
0.685303 0.224335 0.000000
0.714325 0.237488 0.000000
0.742462 0.252686 0.000000
0.772949 0.265808 0.000000
0.799103 0.279694 0.000000
0.803223 0.295990 0.000000
0.000000 0.103088 0.000702
0.017456 0.104156 0.000000
0.049622 0.103363 0.000000
0.082428 0.101715 0.000000
0.109314 0.100952 0.000000
0.134857 0.101074 0.000000
0.160858 0.102142 0.000000
0.186249 0.103729 0.000000
0.211700 0.105530 0.000000
0.236389 0.107666 0.000000
0.262329 0.109802 0.000000
0.286713 0.113098 0.000000
0.311493 0.116455 0.000000
0.336029 0.119781 0.000000
0.360413 0.124023 0.000000
0.384216 0.128906 0.000000
0.408356 0.134033 0.000000
0.431671 0.140381 0.000000
0.455170 0.147217 0.000000
0.478638 0.154968 0.000000
0.503143 0.162354 0.000000
0.527588 0.170746 0.000000
0.552338 0.179871 0.000000
0.577606 0.189697 0.000000
0.603760 0.200134 0.000000
0.630829 0.210846 0.000000
0.658661 0.222168 0.000000
0.687469 0.233582 0.000000
0.716980 0.245728 0.000000
0.746002 0.259277 0.000000
0.774536 0.273865 0.000000
0.799561 0.286957 0.000000
0.804871 0.301270 0.000000
0.000000 0.127350 0.000153
0.015045 0.128296 0.000000
0.047974 0.127747 0.000000
0.083099 0.126404 0.000000
0.111816 0.124939 0.000000
0.137238 0.124481 0.000000
0.162354 0.125305 0.000000
0.187836 0.126404 0.000000
0.213043 0.128174 0.000000
0.238098 0.129852 0.000000
0.263062 0.132294 0.000000
0.288391 0.134460 0.000000
0.312622 0.137512 0.000000
0.337494 0.140472 0.000000
0.360901 0.144562 0.000000
0.385132 0.148651 0.000000
0.409668 0.152924 0.000000
0.433350 0.158203 0.000000
0.457977 0.163147 0.000000
0.481384 0.170166 0.000000
0.504791 0.177917 0.000000
0.530182 0.184814 0.000000
0.555511 0.192719 0.000000
0.580719 0.201935 0.000000
0.606934 0.211609 0.000000
0.633453 0.222290 0.000000
0.661194 0.233124 0.000000
0.689392 0.244598 0.000000
0.718475 0.256409 0.000000
0.747650 0.269257 0.000000
0.777679 0.281494 0.000000
0.800110 0.295502 0.000000
0.805511 0.308685 0.000000
0.000000 0.150085 0.001068
0.012848 0.151794 0.000000
0.048248 0.151062 0.000000
0.082855 0.149994 0.000000
0.113861 0.148285 0.000000
0.140228 0.147552 0.000000
0.165314 0.147736 0.000000
0.190063 0.148865 0.000000
0.214966 0.150452 0.000000
0.239716 0.152588 0.000000
0.264771 0.154419 0.000000
0.289886 0.156677 0.000000
0.314148 0.159241 0.000000
0.338470 0.162140 0.000000
0.363159 0.164886 0.000000
0.387177 0.168518 0.000000
0.410980 0.172668 0.000000
0.434753 0.177307 0.000000
0.458984 0.182098 0.000000
0.482544 0.188110 0.000000
0.507751 0.193756 0.000000
0.531616 0.201233 0.000000
0.557190 0.208435 0.000000
0.581940 0.217499 0.000000
0.608032 0.226624 0.000000
0.636078 0.235138 0.000000
0.663910 0.245270 0.000000
0.692047 0.256226 0.000000
0.720612 0.267975 0.000000
0.749939 0.279694 0.000000
0.778961 0.292175 0.000000
0.802856 0.303162 0.000000
0.809021 0.315338 0.000000
0.000000 0.172821 0.000824
0.011719 0.174042 0.000000
0.045807 0.173676 0.000000
0.082214 0.172852 0.000000
0.114227 0.171600 0.000000
0.142853 0.170532 0.000000
0.168365 0.170105 0.000000
0.192963 0.170959 0.000000
0.217499 0.172577 0.000000
0.242218 0.174591 0.000000
0.266785 0.176697 0.000000
0.291595 0.178986 0.000000
0.316345 0.181305 0.000000
0.340485 0.183868 0.000000
0.364990 0.186554 0.000000
0.389252 0.189392 0.000000
0.412872 0.193176 0.000000
0.436432 0.197266 0.000000
0.460419 0.201813 0.000000
0.484497 0.206848 0.000000
0.509003 0.212341 0.000000
0.533905 0.218262 0.000000
0.559021 0.225342 0.000000
0.583923 0.233490 0.000000
0.611084 0.241089 0.000000
0.637970 0.250031 0.000000
0.665344 0.259918 0.000000
0.694885 0.268982 0.000000
0.723663 0.279816 0.000000
0.752411 0.291443 0.000000
0.781616 0.303009 0.000000
0.804169 0.313965 0.000000
0.810242 0.325439 0.000000
0.000000 0.194733 0.006897
0.007965 0.195984 0.000000
0.042328 0.195801 0.000000
0.081116 0.194916 0.000000
0.113892 0.194092 0.000000
0.143707 0.193298 0.000000
0.171173 0.192566 0.000000
0.196411 0.192871 0.000000
0.220551 0.194305 0.000000
0.244781 0.196228 0.000000
0.269623 0.198853 0.000000
0.294037 0.201355 0.000000
0.318481 0.203888 0.000000
0.342804 0.206329 0.000000
0.367218 0.208801 0.000000
0.391235 0.211395 0.000000
0.415375 0.214417 0.000000
0.439178 0.217743 0.000000
0.463013 0.221802 0.000000
0.487335 0.226074 0.000000
0.511047 0.231476 0.000000
0.535858 0.237000 0.000000
0.560730 0.243469 0.000000
0.586334 0.250275 0.000000
0.613861 0.257111 0.000000
0.640656 0.265594 0.000000
0.669128 0.273682 0.000000
0.697052 0.283569 0.000000
0.725586 0.293945 0.000000
0.755768 0.303711 0.000000
0.785004 0.314697 0.000000
0.806732 0.325073 0.000000
0.811981 0.336548 0.000000
0.000000 0.216217 0.011719
0.004883 0.217560 0.000000
0.037903 0.217682 0.000000
0.079132 0.216858 0.000000
0.113403 0.216095 0.000000
0.143616 0.215454 0.000000
0.171570 0.215118 0.000000
0.198486 0.215393 0.000000
0.224060 0.216064 0.000000
0.248444 0.218109 0.000000
0.272614 0.220764 0.000000
0.297150 0.223633 0.000000
0.321716 0.226440 0.000000
0.345795 0.229034 0.000000
0.370148 0.231506 0.000000
0.393646 0.234131 0.000000
0.417450 0.236908 0.000000
0.441803 0.239563 0.000000
0.465240 0.243134 0.000000
0.489624 0.247009 0.000000
0.514282 0.251038 0.000000
0.538879 0.256073 0.000000
0.564301 0.261444 0.000000
0.590149 0.267639 0.000000
0.616730 0.274261 0.000000
0.643555 0.282166 0.000000
0.671478 0.290100 0.000000
0.698700 0.299866 0.000000
0.728546 0.308441 0.000000
0.758453 0.317963 0.000000
0.789032 0.327423 0.000000
0.810181 0.337128 0.000000
0.814941 0.348236 0.000000
0.000000 0.237305 0.021851
0.002258 0.239014 0.002472
0.030914 0.239380 0.000000
0.075073 0.238739 0.000000
0.111877 0.237885 0.000000
0.142731 0.237396 0.000000
0.171478 0.237152 0.000000
0.199097 0.237427 0.000000
0.225525 0.238495 0.000000
0.251404 0.240021 0.000000
0.276459 0.242584 0.000000
0.300934 0.245544 0.000000
0.325012 0.248840 0.000000
0.349579 0.251831 0.000000
0.373505 0.254364 0.000000
0.397278 0.256958 0.000000
0.420807 0.259644 0.000000
0.444427 0.262238 0.000000
0.468567 0.265167 0.000000
0.492371 0.268524 0.000000
0.516815 0.272308 0.000000
0.541504 0.276611 0.000000
0.567047 0.281403 0.000000
0.592682 0.287140 0.000000
0.619141 0.293213 0.000000
0.646240 0.300140 0.000000
0.674347 0.307343 0.000000
0.703278 0.314972 0.000000
0.731934 0.324188 0.000000
0.762939 0.332520 0.000000
0.793610 0.341156 0.000000
0.813995 0.350525 0.000000
0.818573 0.361145 0.000000
0.000000 0.258392 0.029846
0.000519 0.260162 0.008911
0.021210 0.261078 0.000000
0.069824 0.260345 0.000000
0.109222 0.259521 0.000000
0.141785 0.259033 0.000000
0.171112 0.258942 0.000000
0.199188 0.259308 0.000000
0.226105 0.260315 0.000000
0.252472 0.261780 0.000000
0.278564 0.264343 0.000000
0.304504 0.267365 0.000000
0.329773 0.270752 0.000000
0.354065 0.274200 0.000000
0.377991 0.277405 0.000000
0.401550 0.280273 0.000000
0.425354 0.282776 0.000000
0.448608 0.285278 0.000000
0.472046 0.288025 0.000000
0.496155 0.290771 0.000000
0.520081 0.294250 0.000000
0.544922 0.297913 0.000000
0.570618 0.302002 0.000000
0.595947 0.307098 0.000000
0.623077 0.312225 0.000000
0.650452 0.318176 0.000000
0.678223 0.325104 0.000000
0.707184 0.332367 0.000000
0.737488 0.340088 0.000000
0.768402 0.347809 0.000000
0.797241 0.357117 0.000000
0.817627 0.365387 0.000000
0.822388 0.375244 0.000000
0.000000 0.279816 0.036072
0.000000 0.281525 0.013306
0.014343 0.282471 0.000000
0.061676 0.282166 0.000000
0.106934 0.281006 0.000000
0.141449 0.280396 0.000000
0.171570 0.280334 0.000000
0.200226 0.280762 0.000000
0.227325 0.281830 0.000000
0.253754 0.283569 0.000000
0.279938 0.285950 0.000000
0.306152 0.288940 0.000000
0.332367 0.292511 0.000000
0.358337 0.296173 0.000000
0.383575 0.299683 0.000000
0.407593 0.302979 0.000000
0.430328 0.306213 0.000000
0.453613 0.308685 0.000000
0.477203 0.311066 0.000000
0.500549 0.313751 0.000000
0.524475 0.316498 0.000000
0.548981 0.319763 0.000000
0.574005 0.323608 0.000000
0.599701 0.327881 0.000000
0.626740 0.332428 0.000000
0.653931 0.338135 0.000000
0.683228 0.343842 0.000000
0.712189 0.350922 0.000000
0.742249 0.358002 0.000000
0.772614 0.365295 0.000000
0.802673 0.372803 0.000000
0.821655 0.381348 0.000000
0.826172 0.390808 0.000000
0.000000 0.301392 0.042419
0.000000 0.303040 0.016754
0.011383 0.304016 0.000000
0.056641 0.303650 0.000000
0.105988 0.302612 0.000000
0.142395 0.301758 0.000000
0.173492 0.301605 0.000000
0.202148 0.302063 0.000000
0.229431 0.303223 0.000000
0.255951 0.304901 0.000000
0.281738 0.307404 0.000000
0.307861 0.310425 0.000000
0.334015 0.313965 0.000000
0.360229 0.317902 0.000000
0.386627 0.321899 0.000000
0.412720 0.325409 0.000000
0.437927 0.328400 0.000000
0.461273 0.331421 0.000000
0.482391 0.334747 0.000000
0.506012 0.337128 0.000000
0.529816 0.339630 0.000000
0.553711 0.342438 0.000000
0.578827 0.345551 0.000000
0.604340 0.349274 0.000000
0.631195 0.353546 0.000000
0.659546 0.358490 0.000000
0.688019 0.364258 0.000000
0.718140 0.369934 0.000000
0.747375 0.376831 0.000000
0.777191 0.383759 0.000000
0.807098 0.390625 0.000000
0.825958 0.398346 0.000000
0.829895 0.407684 0.000000
0.000000 0.323090 0.051086
0.000000 0.324951 0.021057
0.009369 0.325897 0.001343
0.053802 0.325348 0.000000
0.104431 0.324127 0.000000
0.144562 0.323059 0.000000
0.175323 0.322998 0.000000
0.204773 0.323303 0.000000
0.232727 0.324402 0.000000
0.258942 0.326263 0.000000
0.284485 0.329010 0.000000
0.310089 0.332062 0.000000
0.335907 0.335602 0.000000
0.361908 0.339478 0.000000
0.388367 0.343719 0.000000
0.415009 0.347748 0.000000
0.441528 0.351379 0.000000
0.467346 0.354401 0.000000
0.491974 0.357117 0.000000
0.513702 0.360382 0.000000
0.535797 0.363281 0.000000
0.559937 0.365692 0.000000
0.584442 0.368378 0.000000
0.610199 0.371948 0.000000
0.636993 0.375977 0.000000
0.664948 0.380493 0.000000
0.694153 0.385162 0.000000
0.722565 0.391022 0.000000
0.752869 0.396332 0.000000
0.782166 0.403015 0.000000
0.811554 0.409454 0.000000
0.829834 0.416962 0.000000
0.833954 0.425629 0.000000
0.000000 0.344849 0.064270
0.000000 0.347107 0.026031
0.006042 0.347900 0.003113
0.048767 0.347565 0.000000
0.103058 0.346283 0.000000
0.146057 0.344849 0.000000
0.179382 0.344299 0.000000
0.208954 0.344421 0.000000
0.236908 0.345459 0.000000
0.262512 0.347473 0.000000
0.287811 0.350281 0.000000
0.313080 0.353607 0.000000
0.338318 0.357208 0.000000
0.364044 0.361206 0.000000
0.390076 0.365448 0.000000
0.416718 0.369873 0.000000
0.443726 0.374023 0.000000
0.470734 0.377563 0.000000
0.497009 0.380524 0.000000
0.522461 0.383240 0.000000
0.545776 0.386353 0.000000
0.567139 0.389984 0.000000
0.592407 0.392731 0.000000
0.617828 0.395782 0.000000
0.644318 0.399170 0.000000
0.671265 0.403168 0.000000
0.699524 0.407501 0.000000
0.728699 0.412140 0.000000
0.757843 0.417480 0.000000
0.787964 0.422729 0.000000
0.816864 0.428772 0.000000
0.834503 0.435974 0.000000
0.838043 0.444702 0.000000
0.000000 0.367523 0.073059
0.000000 0.369202 0.040131
0.001709 0.370514 0.005066
0.043121 0.370087 0.000000
0.103577 0.368561 0.000000
0.147614 0.367035 0.000000
0.182892 0.366058 0.000000
0.214020 0.365936 0.000000
0.241699 0.366730 0.000000
0.267609 0.368591 0.000000
0.292328 0.371582 0.000000
0.317230 0.375031 0.000000
0.341583 0.379059 0.000000
0.366730 0.383087 0.000000
0.392242 0.387451 0.000000
0.418457 0.391968 0.000000
0.445374 0.396393 0.000000
0.472809 0.400726 0.000000
0.500336 0.404510 0.000000
0.527496 0.407684 0.000000
0.553955 0.410767 0.000000
0.578552 0.413910 0.000000
0.600342 0.417755 0.000000
0.626007 0.420349 0.000000
0.652527 0.423126 0.000000
0.678741 0.426453 0.000000
0.706024 0.430328 0.000000
0.734283 0.434509 0.000000
0.763672 0.438965 0.000000
0.793488 0.443634 0.000000
0.822113 0.449127 0.000000
0.839691 0.455719 0.000000
0.843140 0.464081 0.000000
0.000000 0.390228 0.086578
0.000000 0.391998 0.052277
0.000000 0.393402 0.011536
0.036316 0.393066 0.000000
0.097168 0.391876 0.000000
0.149689 0.389648 0.000000
0.186462 0.388397 0.000000
0.218475 0.387970 0.000000
0.246643 0.388519 0.000000
0.273499 0.389923 0.000000
0.297943 0.392853 0.000000
0.321930 0.396423 0.000000
0.346100 0.400604 0.000000
0.370270 0.405029 0.000000
0.395081 0.409607 0.000000
0.420837 0.414551 0.000000
0.447418 0.419525 0.000000
0.474854 0.424500 0.000000
0.502991 0.429077 0.000000
0.531189 0.432983 0.000000
0.559143 0.436279 0.000000
0.586334 0.439056 0.000000
0.611389 0.442017 0.000000
0.633789 0.445648 0.000000
0.660278 0.447998 0.000000
0.687042 0.450562 0.000000
0.714050 0.453522 0.000000
0.741699 0.457092 0.000000
0.770081 0.461090 0.000000
0.799194 0.465332 0.000000
0.828033 0.469971 0.000000
0.845001 0.476288 0.000000
0.848450 0.484344 0.000000
0.000000 0.413910 0.097839
0.000000 0.415314 0.067108
0.000000 0.416626 0.023041
0.027893 0.416809 0.000214
0.094452 0.415192 0.000000
0.148834 0.413116 0.000000
0.189728 0.411407 0.000000
0.222900 0.410583 0.000000
0.252380 0.410706 0.000000
0.279144 0.411896 0.000000
0.303680 0.414490 0.000000
0.327606 0.418213 0.000000
0.351135 0.422913 0.000000
0.375061 0.428040 0.000000
0.398956 0.433472 0.000000
0.424164 0.438599 0.000000
0.450195 0.443695 0.000000
0.477173 0.448792 0.000000
0.505188 0.453735 0.000000
0.533813 0.458008 0.000000
0.562775 0.461700 0.000000
0.591309 0.464722 0.000000
0.619049 0.467346 0.000000
0.644684 0.470215 0.000000
0.668060 0.473450 0.000000
0.694916 0.475525 0.000000
0.722015 0.477966 0.000000
0.749390 0.480804 0.000000
0.776825 0.484192 0.000000
0.804962 0.487854 0.000000
0.833527 0.491760 0.000000
0.850830 0.497559 0.000000
0.854065 0.505157 0.000000
0.000000 0.437622 0.115570
0.000000 0.439148 0.085114
0.000000 0.441101 0.035461
0.018372 0.441315 0.002991
0.082245 0.440155 0.000000
0.145294 0.437744 0.000000
0.190796 0.435730 0.000000
0.226196 0.434753 0.000000
0.257538 0.434692 0.000000
0.284973 0.435852 0.000000
0.310059 0.438446 0.000000
0.333344 0.442413 0.000000
0.357056 0.446991 0.000000
0.380066 0.452423 0.000000
0.403656 0.457916 0.000000
0.428070 0.463318 0.000000
0.453552 0.468567 0.000000
0.479980 0.473602 0.000000
0.507477 0.478455 0.000000
0.536041 0.483063 0.000000
0.565338 0.487183 0.000000
0.594757 0.490570 0.000000
0.624146 0.493378 0.000000
0.652283 0.495819 0.000000
0.677826 0.498596 0.000000
0.702728 0.501099 0.000000
0.729980 0.502960 0.000000
0.757263 0.505219 0.000000
0.785095 0.507721 0.000000
0.812775 0.510742 0.000000
0.839966 0.514374 0.000000
0.856628 0.519562 0.000000
0.859802 0.526917 0.000000
0.000000 0.464142 0.130646
0.000000 0.465637 0.101379
0.000000 0.467255 0.060303
0.003998 0.468201 0.008667
0.064392 0.467590 0.000000
0.136017 0.465515 0.000000
0.188538 0.463135 0.000000
0.226776 0.461884 0.000000
0.260834 0.461151 0.000000
0.289246 0.461853 0.000000
0.315613 0.463745 0.000000
0.339966 0.466949 0.000000
0.363037 0.471497 0.000000
0.385834 0.476746 0.000000
0.409180 0.482361 0.000000
0.432678 0.488190 0.000000
0.457458 0.493622 0.000000
0.483337 0.498749 0.000000
0.510315 0.503632 0.000000
0.538422 0.508240 0.000000
0.567688 0.512604 0.000000
0.597565 0.516357 0.000000
0.627686 0.519501 0.000000
0.657501 0.522064 0.000000
0.685883 0.524414 0.000000
0.710754 0.527252 0.000000
0.737732 0.528870 0.000000
0.765472 0.530396 0.000000
0.792908 0.532379 0.000000
0.820282 0.534729 0.000000
0.847534 0.537506 0.000000
0.863556 0.542328 0.000000
0.865540 0.549591 0.000000
0.000000 0.491516 0.147308
0.000000 0.493042 0.118591
0.000000 0.494598 0.079926
0.000000 0.495941 0.025024
0.043152 0.495605 0.000000
0.120789 0.494019 0.000000
0.180634 0.491577 0.000000
0.225037 0.489594 0.000000
0.261261 0.488525 0.000000
0.293030 0.488312 0.000000
0.320587 0.489685 0.000000
0.345612 0.492340 0.000000
0.369812 0.496094 0.000000
0.392303 0.501129 0.000000
0.414978 0.506775 0.000000
0.437958 0.512817 0.000000
0.462006 0.518646 0.000000
0.487061 0.524109 0.000000
0.513580 0.529114 0.000000
0.541229 0.533752 0.000000
0.570160 0.538116 0.000000
0.600098 0.542267 0.000000
0.630707 0.545715 0.000000
0.661438 0.548584 0.000000
0.691650 0.550873 0.000000
0.719971 0.553192 0.000000
0.745300 0.555481 0.000000
0.773071 0.556580 0.000000
0.800903 0.557861 0.000000
0.828400 0.559448 0.000000
0.855347 0.561523 0.000000
0.871735 0.565704 0.000000
0.873505 0.572510 0.000000
0.000000 0.519012 0.166595
0.000000 0.520660 0.138641
0.000000 0.522400 0.102936
0.000000 0.523865 0.051453
0.006531 0.524353 0.001495
0.097290 0.523071 0.000000
0.165558 0.520782 0.000000
0.218353 0.518372 0.000000
0.260681 0.516510 0.000000
0.293457 0.516144 0.000000
0.324188 0.516479 0.000000
0.350861 0.518402 0.000000
0.375458 0.521576 0.000000
0.398712 0.526031 0.000000
0.421234 0.531464 0.000000
0.443878 0.537476 0.000000
0.467102 0.543671 0.000000
0.491730 0.549469 0.000000
0.517456 0.554779 0.000000
0.544678 0.559662 0.000000
0.573090 0.564117 0.000000
0.602844 0.568298 0.000000
0.633545 0.572083 0.000000
0.664825 0.575287 0.000000
0.696167 0.577820 0.000000
0.726562 0.579926 0.000000
0.753479 0.582367 0.000000
0.780975 0.583466 0.000000
0.808929 0.584167 0.000000
0.836456 0.585236 0.000000
0.863525 0.586517 0.000000
0.879944 0.590118 0.000000
0.881897 0.596436 0.000000
0.000000 0.546600 0.188416
0.000000 0.548340 0.161987
0.000000 0.550079 0.128937
0.000000 0.551819 0.084808
0.000000 0.553101 0.018768
0.061951 0.552643 0.000000
0.144653 0.550598 0.000000
0.206848 0.548065 0.000000
0.253418 0.546021 0.000000
0.293823 0.544434 0.000000
0.325012 0.544586 0.000000
0.354553 0.545502 0.000000
0.380829 0.547821 0.000000
0.405060 0.551514 0.000000
0.428131 0.556488 0.000000
0.450684 0.562347 0.000000
0.473663 0.568542 0.000000
0.497223 0.574829 0.000000
0.522034 0.580719 0.000000
0.548645 0.585846 0.000000
0.576477 0.590637 0.000000
0.605865 0.594879 0.000000
0.636505 0.598755 0.000000
0.668152 0.602295 0.000000
0.700165 0.605072 0.000000
0.731842 0.607391 0.000000
0.761963 0.609497 0.000000
0.789001 0.611115 0.000000
0.816895 0.611481 0.000000
0.844757 0.611908 0.000000
0.871582 0.612579 0.000000
0.888428 0.615479 0.000000
0.890350 0.621368 0.000000
0.000000 0.575592 0.206940
0.000000 0.576508 0.187195
0.000000 0.578461 0.155823
0.000000 0.580200 0.117523
0.000000 0.582031 0.059875
0.015594 0.582581 0.002106
0.112427 0.581390 0.000000
0.185028 0.579071 0.000000
0.244019 0.576233 0.000000
0.286407 0.574646 0.000000
0.324371 0.573578 0.000000
0.355194 0.573944 0.000000
0.384399 0.575409 0.000000
0.409821 0.578461 0.000000
0.433746 0.582672 0.000000
0.457001 0.587952 0.000000
0.479553 0.594177 0.000000
0.503021 0.600494 0.000000
0.527313 0.606781 0.000000
0.552887 0.612610 0.000000
0.580505 0.617645 0.000000
0.609436 0.622192 0.000000
0.639923 0.626190 0.000000
0.671509 0.629852 0.000000
0.704132 0.632935 0.000000
0.736725 0.635559 0.000000
0.768585 0.637543 0.000000
0.797363 0.639496 0.000000
0.825317 0.639771 0.000000
0.853210 0.639740 0.000000
0.880188 0.639771 0.000000
0.897461 0.641907 0.000000
0.899017 0.647491 0.000000
0.000000 0.604187 0.231506
0.000000 0.605530 0.210541
0.000000 0.607208 0.183838
0.000000 0.609314 0.147614
0.000000 0.611145 0.101471
0.000000 0.612915 0.027466
0.063446 0.612518 0.000000
0.156433 0.610748 0.000000
0.221771 0.608307 0.000000
0.276184 0.605743 0.000000
0.318024 0.604340 0.000000
0.354614 0.603729 0.000000
0.385193 0.604523 0.000000
0.413300 0.606567 0.000000
0.438843 0.610016 0.000000
0.462769 0.614655 0.000000
0.486206 0.620270 0.000000
0.509247 0.626648 0.000000
0.533020 0.633148 0.000000
0.558105 0.639435 0.000000
0.584869 0.645111 0.000000
0.613373 0.650116 0.000000
0.643585 0.654388 0.000000
0.675201 0.658264 0.000000
0.708099 0.661530 0.000000
0.741486 0.664337 0.000000
0.774628 0.666473 0.000000
0.806213 0.668304 0.000000
0.834106 0.669037 0.000000
0.862030 0.668610 0.000000
0.888763 0.668121 0.000000
0.906097 0.669739 0.000000
0.907928 0.674744 0.000000
0.000000 0.633331 0.257141
0.000000 0.635406 0.233490
0.000000 0.636719 0.210999
0.000000 0.638977 0.178131
0.000000 0.641113 0.137238
0.000000 0.643311 0.075958
0.020142 0.643890 0.010040
0.118530 0.642761 0.000000
0.196686 0.640839 0.000000
0.256317 0.638550 0.000000
0.306610 0.636475 0.000000
0.347229 0.635468 0.000000
0.383026 0.635284 0.000000
0.413422 0.636566 0.000000
0.441925 0.638977 0.000000
0.467072 0.642975 0.000000
0.491241 0.648010 0.000000
0.515137 0.653870 0.000000
0.539246 0.660217 0.000000
0.563751 0.666718 0.000000
0.589783 0.673035 0.000000
0.617859 0.678467 0.000000
0.647614 0.683380 0.000000
0.679047 0.687531 0.000000
0.712158 0.691010 0.000000
