src/assets/luts/ON1 Nature & Wildlife LUTs/CinematicX LUTs - 30 Free Cinematic LUTs - The Resolve Store 2022/Bukana - Rec709.cube
# Copyright: (C) Copyright 2022 The Resolve Store 
# Cannot be resold, shared or otherwise redistributed
TITLE "CinematicX (Rec.709)"
LUT_3D_SIZE 33
0.000000 0.001068 0.001038
0.011230 0.001709 0.000885
0.025299 0.002319 0.002289
0.039734 0.003662 0.002899
0.056702 0.005798 0.004242
0.074951 0.007660 0.005432
0.095367 0.008606 0.005646
0.118744 0.009644 0.005707
0.144257 0.010345 0.005188
0.171997 0.010986 0.004730
0.201019 0.010406 0.003021
0.231689 0.010773 0.001709
0.263489 0.010437 0.000183
0.296265 0.010010 0.000000
0.330200 0.009888 0.000000
0.365692 0.010254 0.000000
0.402527 0.010773 0.000000
0.440338 0.011536 0.000885
0.478577 0.012268 0.002991
0.516998 0.013062 0.005707
0.554901 0.013763 0.008270
0.592010 0.014099 0.010895
0.628143 0.014221 0.013214
0.663422 0.014099 0.015259
0.697723 0.013489 0.016602
0.731506 0.012817 0.017456
0.764740 0.011993 0.017792
0.797516 0.010803 0.017639
0.830017 0.009521 0.017120
0.862305 0.008148 0.016388
0.894470 0.006683 0.015320
0.926727 0.004974 0.014038
0.959045 0.003265 0.012543
0.002258 0.013885 0.003204
0.015808 0.014526 0.003662
0.029816 0.016052 0.004364
0.045197 0.016815 0.005676
0.061615 0.018158 0.006134
0.080475 0.019684 0.006592
0.101837 0.021210 0.006714
0.125427 0.022522 0.006744
0.151733 0.023895 0.006042
0.179596 0.024536 0.004974
0.208832 0.025055 0.003265
0.239441 0.025452 0.001953
0.270996 0.025970 0.000519
0.303772 0.026337 0.000000
0.337830 0.026825 0.000000
0.373169 0.027985 0.000000
0.409882 0.028961 0.000397
0.447510 0.030243 0.002136
0.485535 0.031586 0.004211
0.523499 0.032898 0.006683
0.560852 0.033905 0.009064
0.597443 0.034760 0.011536
0.633179 0.035461 0.013885
0.667877 0.035736 0.015594
0.701813 0.035767 0.016907
0.735260 0.035583 0.017670
0.768188 0.035217 0.017944
0.800751 0.034698 0.017670
0.832947 0.033966 0.017120
0.864960 0.033051 0.016266
0.896912 0.032043 0.015198
0.928955 0.030884 0.013885
0.961121 0.029572 0.012329
0.006592 0.027496 0.006317
0.019684 0.027740 0.006165
0.034241 0.029663 0.007355
0.049683 0.030762 0.007812
0.066681 0.032166 0.008118
0.086365 0.033630 0.008087
0.108490 0.035187 0.007721
0.132904 0.036713 0.007629
0.158997 0.037903 0.006287
0.186951 0.039307 0.005157
0.216461 0.040344 0.003967
0.247192 0.041656 0.002380
0.278961 0.042725 0.001373
0.311798 0.043762 0.000336
0.345825 0.044952 0.000092
0.381348 0.046509 0.000885
0.417847 0.048035 0.001831
0.455200 0.049713 0.003174
0.492920 0.051575 0.005341
0.530273 0.053253 0.007416
0.567230 0.054993 0.009979
0.603271 0.056305 0.012177
0.638519 0.057312 0.014404
0.672699 0.058258 0.015991
0.706207 0.058716 0.017212
0.739288 0.059113 0.017853
0.771881 0.059113 0.018005
0.804047 0.059113 0.017700
0.835999 0.058868 0.017059
0.867767 0.058411 0.016174
0.899506 0.057831 0.015076
0.931305 0.057068 0.013702
0.963196 0.056213 0.012085
0.011047 0.041138 0.008789
0.024445 0.042358 0.009247
0.038147 0.043518 0.009827
0.054077 0.045105 0.010071
0.072540 0.047150 0.010101
0.092865 0.048920 0.009918
0.115509 0.050507 0.009338
0.140350 0.052307 0.008118
0.166962 0.053833 0.006866
0.195099 0.055359 0.005188
0.225006 0.057434 0.003998
0.255463 0.058929 0.002594
0.287415 0.060699 0.001678
0.320251 0.062347 0.001129
0.354462 0.064056 0.001373
0.389984 0.066162 0.001770
0.426392 0.068085 0.002838
0.463531 0.070282 0.004517
0.500824 0.072449 0.006317
0.537750 0.074707 0.008514
0.574097 0.076721 0.010681
0.609589 0.078522 0.012909
0.644135 0.080048 0.014923
0.677856 0.081329 0.016327
0.710938 0.082367 0.017303
0.743561 0.083160 0.017883
0.775757 0.083740 0.017944
0.807617 0.084106 0.017639
0.839233 0.084351 0.016907
0.870728 0.084290 0.015930
0.902161 0.084106 0.014771
0.933716 0.083801 0.013306
0.965393 0.083405 0.011658
0.015381 0.055725 0.011780
0.029053 0.057190 0.011749
0.043335 0.058838 0.012787
0.059296 0.060577 0.012939
0.077545 0.062744 0.012177
0.098633 0.065094 0.011658
0.122345 0.067413 0.010468
0.148071 0.069458 0.009308
0.174896 0.071442 0.007599
0.203705 0.073395 0.005829
0.233521 0.075623 0.004120
0.264587 0.077881 0.003113
0.296539 0.080200 0.002594
0.329498 0.082367 0.001892
0.363922 0.084656 0.002228
0.399506 0.087189 0.003052
0.435822 0.089539 0.004059
0.472656 0.092041 0.005554
0.509430 0.094635 0.007202
0.545776 0.097137 0.009186
0.581482 0.099548 0.011353
0.616364 0.101715 0.013397
0.650269 0.103638 0.015106
0.683441 0.105377 0.016479
0.716034 0.106903 0.017426
0.748230 0.108124 0.017822
0.779968 0.109161 0.017792
0.811432 0.109924 0.017334
0.842712 0.110565 0.016602
0.873840 0.110901 0.015564
0.904968 0.111145 0.014282
0.936188 0.111237 0.012787
0.967560 0.111084 0.011017
0.020630 0.072083 0.014832
0.034088 0.073792 0.015411
0.048950 0.075256 0.015869
0.064911 0.077118 0.015381
0.082947 0.079102 0.015106
0.104218 0.081970 0.013977
0.128815 0.085358 0.012299
0.155457 0.088318 0.010498
0.183411 0.090851 0.008453
0.212494 0.093323 0.006500
0.242676 0.095947 0.005249
0.273834 0.098572 0.003906
0.306213 0.101379 0.003387
0.339661 0.104126 0.003021
0.374268 0.106903 0.003479
0.409790 0.109741 0.004120
0.446014 0.112488 0.005188
0.482513 0.115204 0.006470
0.518707 0.118042 0.008118
0.554382 0.120880 0.009918
0.589386 0.123505 0.011810
0.623566 0.126038 0.013824
0.656738 0.128357 0.015228
0.689331 0.130493 0.016449
0.721405 0.132416 0.017273
0.753082 0.134003 0.017700
0.784424 0.135468 0.017517
0.815460 0.136627 0.016968
0.846344 0.137604 0.016113
0.877075 0.138458 0.015015
0.907806 0.138977 0.013702
0.938751 0.139374 0.012024
0.969818 0.139526 0.010254
0.025879 0.089142 0.017853
0.039886 0.091309 0.018372
0.054901 0.093353 0.018951
0.071320 0.095703 0.019012
0.089539 0.097961 0.018311
0.110748 0.100586 0.017303
0.134979 0.104034 0.015137
0.162292 0.108124 0.012848
0.191223 0.111572 0.010132
0.220978 0.114807 0.008057
0.251678 0.118011 0.006256
0.283264 0.120941 0.005035
0.316040 0.124146 0.004364
0.349945 0.127411 0.004333
0.384827 0.130615 0.004639
0.420471 0.133698 0.005371
0.456604 0.136749 0.006256
0.492615 0.139740 0.007416
0.528381 0.142731 0.008942
0.563385 0.145721 0.010651
0.597565 0.148651 0.012329
0.630890 0.151520 0.013977
0.663483 0.154175 0.015320
0.695404 0.156677 0.016418
0.726868 0.158905 0.016998
0.757996 0.160950 0.017395
0.788818 0.162750 0.017151
0.819427 0.164307 0.016510
0.849915 0.165619 0.015564
0.880280 0.166748 0.014374
0.910614 0.167633 0.012878
0.941254 0.168304 0.011169
0.971985 0.168762 0.009216
0.031342 0.107605 0.021423
0.045532 0.110168 0.022003
0.061218 0.112640 0.022430
0.077942 0.115112 0.022644
0.096771 0.117859 0.022217
0.118011 0.120544 0.020752
0.141815 0.123749 0.018463
0.168732 0.128021 0.015625
0.198395 0.132904 0.012665
0.229126 0.137268 0.010193
0.260468 0.141205 0.008301
0.292725 0.144806 0.006866
0.325989 0.148346 0.006195
0.360260 0.151917 0.005920
0.395355 0.155304 0.006073
0.431152 0.158722 0.006653
0.467072 0.162018 0.007294
0.502686 0.165436 0.008270
0.537781 0.168610 0.009583
0.572021 0.171783 0.011017
0.605530 0.175018 0.012695
0.638031 0.178162 0.014038
0.669952 0.181213 0.015320
0.701263 0.183990 0.016235
0.732208 0.186523 0.016785
0.762756 0.188873 0.016907
0.793091 0.190979 0.016632
0.823242 0.192841 0.015930
0.853302 0.194427 0.014801
0.883301 0.195801 0.013519
0.913269 0.196991 0.011871
0.943573 0.197876 0.010071
0.974152 0.198578 0.008057
0.036682 0.126831 0.024902
0.051575 0.129974 0.025452
0.067871 0.132904 0.026001
0.085297 0.135895 0.026062
0.104553 0.138977 0.025787
0.126038 0.142059 0.024658
0.149963 0.145355 0.022614
0.176392 0.149139 0.019714
0.205566 0.154266 0.016418
0.236664 0.159851 0.013336
0.268738 0.164886 0.010773
0.301788 0.169495 0.009125
0.335571 0.173615 0.008148
0.370239 0.177429 0.007721
0.405640 0.181122 0.007660
0.441345 0.184784 0.007935
0.477020 0.188354 0.008575
0.512177 0.191895 0.009369
0.546692 0.195465 0.010406
0.580261 0.198944 0.011627
0.612976 0.202454 0.012878
0.644714 0.205780 0.014160
0.675873 0.208984 0.015167
0.706696 0.212067 0.016022
0.737091 0.214905 0.016327
0.767181 0.217468 0.016296
0.797028 0.219818 0.015900
0.826782 0.221985 0.015137
0.856476 0.223846 0.013916
0.886078 0.225433 0.012482
0.915802 0.226776 0.010742
0.945831 0.227905 0.008789
0.976227 0.228821 0.006683
0.042755 0.147552 0.028687
0.057922 0.150787 0.029266
0.074738 0.154327 0.029633
0.092712 0.157623 0.029968
0.112579 0.161011 0.029785
0.134583 0.164612 0.028717
0.158752 0.168121 0.026855
0.185364 0.172028 0.024353
0.213959 0.176666 0.020935
0.244568 0.182495 0.017334
0.277008 0.188660 0.014404
0.310516 0.194244 0.012024
0.344879 0.199280 0.010590
0.379944 0.203705 0.009949
0.415497 0.207825 0.009430
0.451202 0.211609 0.009583
0.486511 0.215393 0.010040
0.521088 0.219147 0.010620
0.554901 0.222992 0.011383
0.587738 0.226837 0.012482
0.619720 0.230621 0.013336
0.650787 0.234283 0.014221
0.681335 0.237732 0.014954
0.711517 0.240967 0.015533
0.741455 0.243958 0.015717
0.771118 0.246735 0.015564
0.800598 0.249268 0.015015
0.829926 0.251648 0.014130
0.859314 0.253723 0.012756
0.888702 0.255554 0.011261
0.918182 0.257050 0.009369
0.948029 0.258331 0.007385
0.978241 0.259430 0.005219
0.048401 0.168945 0.032440
0.064728 0.172668 0.032990
0.082184 0.176544 0.033569
0.100891 0.180359 0.033722
0.121277 0.184143 0.033630
0.143890 0.188019 0.033173
0.168640 0.191895 0.031403
0.195404 0.196106 0.029022
0.223846 0.200623 0.025818
0.253906 0.205963 0.022156
0.285919 0.212341 0.018799
0.319550 0.219055 0.015991
0.354095 0.224976 0.013794
0.389282 0.230194 0.012512
0.424866 0.234924 0.011810
0.460327 0.239197 0.011566
0.495209 0.243286 0.011688
0.529236 0.247284 0.012115
0.562347 0.251282 0.012756
0.594482 0.255310 0.013428
0.625732 0.259277 0.014130
0.656158 0.263214 0.014801
0.686157 0.266907 0.015106
0.715759 0.270416 0.015167
0.745178 0.273651 0.014923
0.774475 0.276550 0.014587
0.803619 0.279266 0.013916
0.832733 0.281769 0.012817
0.861786 0.284058 0.011414
0.890961 0.285980 0.009735
0.920380 0.287628 0.007843
0.950165 0.289062 0.005737
0.980316 0.290222 0.003540
0.054810 0.191284 0.036072
0.071899 0.195435 0.036804
0.089966 0.199615 0.037323
0.109467 0.203766 0.037659
0.130554 0.208008 0.037781
0.153870 0.212341 0.037445
0.179260 0.216583 0.036255
0.206299 0.221130 0.034119
0.234985 0.225891 0.031311
0.265045 0.231018 0.027954
0.296417 0.236908 0.024200
0.329529 0.243866 0.020813
0.363922 0.250793 0.017944
0.398834 0.256927 0.016052
0.434021 0.262329 0.014832
0.468994 0.267151 0.014008
0.503265 0.271667 0.013794
0.536652 0.276031 0.013885
0.569000 0.280273 0.014221
0.600403 0.284454 0.014679
0.630890 0.288635 0.015167
0.660736 0.292694 0.015411
0.690216 0.296570 0.015411
0.719391 0.300232 0.015198
0.748352 0.303680 0.014587
0.777222 0.306915 0.013641
0.806061 0.309814 0.012482
0.834930 0.312408 0.011139
0.863922 0.314758 0.009705
0.893036 0.316864 0.007996
0.922394 0.318604 0.006042
0.952209 0.320099 0.003937
0.982422 0.321350 0.001709
0.062164 0.214752 0.040009
0.079742 0.218994 0.040375
0.098602 0.223389 0.040985
0.118713 0.227936 0.041168
0.140778 0.232727 0.041473
0.164886 0.237427 0.041229
0.190735 0.242249 0.040497
0.218231 0.247162 0.038971
0.247070 0.252106 0.036743
0.277313 0.257385 0.033569
0.308868 0.263123 0.030365
0.341400 0.269562 0.026794
0.374939 0.276733 0.023346
0.409180 0.283752 0.020630
0.443604 0.290009 0.018738
0.477570 0.295593 0.017334
0.510925 0.300629 0.016693
0.543365 0.305359 0.016266
0.574982 0.309906 0.016174
0.605530 0.314301 0.016205
0.635284 0.318512 0.016235
0.664581 0.322662 0.016083
0.693604 0.326660 0.015808
0.722351 0.330475 0.015320
0.751007 0.334045 0.014404
0.779510 0.337402 0.013153
0.808136 0.340515 0.011658
0.836823 0.343384 0.009796
0.865723 0.345856 0.007996
0.894867 0.348022 0.006012
0.924347 0.349854 0.003998
0.954224 0.351379 0.001923
0.984528 0.352661 0.000000
0.070312 0.239258 0.043701
0.088745 0.243591 0.044128
0.108307 0.248322 0.044342
0.129150 0.253082 0.044891
0.152100 0.258270 0.045288
0.176697 0.263336 0.045441
0.203094 0.268616 0.045074
0.230927 0.273895 0.044098
0.260132 0.279236 0.042175
0.290833 0.284821 0.039703
0.322571 0.290680 0.036743
0.354919 0.296783 0.033295
0.387787 0.303589 0.029755
0.420929 0.310944 0.026337
0.454010 0.318085 0.023773
0.486664 0.324341 0.021851
0.518616 0.329987 0.020355
0.549927 0.335052 0.019409
0.580505 0.339935 0.018707
0.610199 0.344543 0.018158
0.639252 0.348969 0.017548
0.667969 0.353149 0.016907
0.696472 0.357208 0.016266
0.724854 0.361115 0.015381
0.753113 0.364807 0.014160
0.781464 0.368286 0.012756
0.809845 0.371521 0.010956
0.838379 0.374481 0.009033
0.867218 0.377136 0.006866
0.896484 0.379425 0.004456
0.926117 0.381348 0.002075
0.956207 0.382904 0.000000
0.986694 0.384247 0.000000
0.080017 0.264801 0.047516
0.098938 0.269318 0.047577
0.119049 0.274109 0.047821
0.140839 0.279327 0.048218
0.164246 0.284637 0.048798
0.189392 0.290131 0.049408
0.216217 0.295868 0.049652
0.244507 0.301575 0.049255
0.274231 0.307434 0.047943
0.305206 0.313385 0.046143
0.337158 0.319519 0.043488
0.369629 0.325867 0.040466
0.402130 0.332275 0.037018
0.434357 0.339233 0.033630
0.465729 0.346588 0.030365
0.496643 0.353516 0.027527
0.526978 0.359680 0.025116
0.556793 0.365173 0.023438
0.586060 0.370270 0.021942
0.614655 0.375061 0.020691
0.642944 0.379608 0.019348
0.671021 0.384033 0.018158
0.699005 0.388153 0.016968
0.726990 0.392059 0.015625
0.755005 0.395874 0.014191
0.783020 0.399445 0.012451
0.811279 0.402771 0.010468
0.839752 0.405853 0.008301
0.868530 0.408569 0.006073
0.897736 0.410919 0.003540
0.927460 0.412903 0.000946
0.957825 0.414612 0.000000
0.988647 0.415955 0.000000
0.090729 0.291229 0.050842
0.110260 0.295898 0.050873
0.131042 0.300934 0.051208
0.153412 0.306305 0.051636
0.177307 0.312012 0.052490
0.202972 0.317902 0.053467
0.230164 0.323914 0.054260
0.259003 0.330261 0.054688
0.289093 0.336517 0.054077
0.320404 0.343018 0.052826
0.352478 0.349518 0.050629
0.384827 0.356110 0.048126
0.417175 0.362701 0.045135
0.448700 0.369202 0.041931
0.478912 0.376099 0.038330
0.507874 0.383148 0.034637
0.536346 0.389801 0.031403
0.564270 0.395721 0.028564
0.592041 0.401062 0.026093
0.619385 0.405975 0.023926
0.646698 0.410675 0.021912
0.674011 0.415100 0.019928
0.701416 0.419403 0.018127
0.728943 0.423431 0.016296
0.756592 0.427277 0.014374
0.784393 0.430878 0.012299
0.812500 0.434265 0.010223
0.840881 0.437408 0.007812
0.869659 0.440186 0.005310
0.898865 0.442566 0.002747
0.928680 0.444580 0.000061
0.959106 0.446320 0.000000
0.989990 0.447723 0.000000
0.102631 0.318665 0.054382
0.122711 0.323578 0.054413
0.143951 0.328705 0.054504
0.166779 0.334412 0.055267
0.191345 0.340363 0.056427
0.217316 0.346619 0.057953
0.245056 0.353119 0.059357
0.274078 0.359680 0.060120
0.304504 0.366425 0.060455
0.335907 0.373291 0.059631
0.368042 0.380280 0.058136
0.400421 0.387238 0.056000
0.432281 0.394135 0.053528
0.463226 0.400757 0.050598
0.492645 0.407196 0.047089
0.520386 0.413788 0.043182
0.546814 0.420441 0.038971
0.572876 0.426697 0.035034
0.598633 0.432220 0.031464
0.624573 0.437347 0.028198
0.650726 0.442078 0.025238
0.677124 0.446594 0.022522
0.703827 0.450897 0.019958
0.730835 0.455048 0.017548
0.758087 0.458954 0.015106
0.785675 0.462646 0.012695
0.813568 0.466034 0.010162
0.841827 0.469147 0.007599
0.870636 0.471954 0.004913
0.899872 0.474365 0.002136
0.929718 0.476410 0.000000
0.960175 0.478119 0.000000
0.991150 0.479553 0.000000
0.115417 0.347076 0.057709
0.136017 0.352173 0.057770
0.157959 0.357697 0.058167
0.181183 0.363556 0.059265
0.206116 0.369781 0.060852
0.232666 0.376312 0.062775
0.260498 0.382965 0.064667
0.289673 0.389801 0.066010
0.320099 0.396912 0.066742
0.351501 0.404144 0.066650
0.383636 0.411621 0.065704
0.415771 0.419067 0.064178
0.447235 0.426300 0.062195
0.477509 0.433228 0.059601
0.506165 0.439667 0.056458
0.533142 0.445740 0.052643
0.558319 0.451904 0.047943
0.582275 0.458008 0.042908
0.606293 0.463806 0.038208
0.630554 0.468933 0.033722
0.655396 0.473785 0.029755
0.680756 0.478302 0.025970
0.706635 0.482635 0.022675
0.732941 0.486725 0.019562
0.759705 0.490723 0.016479
0.786926 0.494446 0.013489
0.814636 0.497894 0.010681
0.842743 0.500977 0.007782
0.871460 0.503754 0.004852
0.900757 0.506195 0.001892
0.930634 0.508209 0.000000
0.961060 0.509949 0.000000
0.992096 0.511353 0.000000
0.129242 0.376526 0.061310
0.150269 0.381805 0.061432
0.172760 0.387573 0.062408
0.196442 0.393616 0.063782
0.221680 0.399963 0.065765
0.248383 0.406616 0.068054
0.276276 0.413330 0.070465
0.305389 0.420349 0.072205
0.335724 0.427612 0.073425
0.367065 0.435242 0.073853
0.398956 0.443115 0.073547
0.430695 0.451111 0.072479
0.461578 0.458832 0.070923
0.491180 0.466156 0.068695
0.519135 0.472809 0.065826
0.545349 0.478851 0.062225
0.569763 0.484344 0.057709
0.592682 0.489929 0.052246
0.614990 0.495514 0.046326
0.637634 0.500763 0.040710
0.661011 0.505615 0.035461
0.685059 0.510162 0.030762
0.709900 0.514435 0.026428
0.735413 0.518585 0.022491
0.761597 0.522461 0.018738
0.788391 0.526154 0.015167
0.815704 0.529633 0.011719
0.843628 0.532776 0.008423
0.872284 0.535553 0.005219
0.901489 0.537933 0.002045
0.931305 0.539978 0.000000
0.961792 0.541748 0.000000
0.992767 0.543213 0.000000
0.143738 0.406891 0.065369
0.165253 0.412384 0.065979
0.188019 0.418182 0.067078
0.212158 0.424316 0.068787
0.237518 0.430603 0.071075
0.264099 0.437134 0.073669
0.291931 0.443939 0.076294
0.320984 0.450989 0.078522
0.351227 0.458496 0.080231
0.382294 0.466370 0.080994
0.413757 0.474609 0.081177
0.444916 0.482910 0.080597
0.475220 0.491089 0.079437
0.504181 0.498810 0.077728
0.531494 0.505829 0.075317
0.556885 0.512024 0.071869
0.580658 0.517487 0.067627
0.603210 0.522430 0.062286
0.624634 0.527527 0.055817
0.645752 0.532562 0.049133
0.667572 0.537476 0.042725
0.690277 0.542023 0.036865
0.713928 0.546265 0.031433
0.738464 0.550323 0.026489
0.763916 0.554169 0.021973
0.790070 0.557800 0.017670
0.816986 0.561218 0.013672
0.844635 0.564392 0.009766
0.872986 0.567169 0.006134
0.902130 0.569611 0.002686
0.931854 0.571686 0.000000
0.962250 0.573456 0.000000
0.993225 0.574982 0.000000
0.158783 0.437866 0.070160
0.180695 0.443390 0.070984
0.203674 0.449219 0.072388
0.227814 0.455170 0.074280
0.253174 0.461334 0.076843
0.279755 0.467712 0.079834
0.307526 0.474426 0.082703
0.336426 0.481567 0.085175
0.366333 0.489075 0.087006
0.396973 0.497162 0.088165
0.427795 0.505524 0.088593
0.458344 0.514160 0.088470
0.488037 0.522614 0.087677
0.516327 0.530762 0.086334
0.542877 0.538116 0.084351
0.567719 0.544647 0.081451
0.591034 0.550323 0.077515
0.613129 0.555237 0.072418
0.634277 0.559814 0.066223
0.654694 0.564423 0.058960
0.675140 0.569153 0.051453
0.696472 0.573730 0.044434
0.718811 0.577911 0.037903
0.742310 0.581909 0.031921
0.766785 0.585724 0.026398
0.792206 0.589264 0.021179
0.818604 0.592651 0.016479
0.845825 0.595764 0.012024
0.873840 0.598541 0.007874
0.902679 0.601074 0.003906
0.932312 0.603241 0.000244
0.962585 0.605072 0.000000
0.993469 0.606689 0.000000
0.173950 0.468994 0.075592
0.195984 0.474396 0.076660
0.219055 0.479980 0.078247
0.243286 0.485779 0.080505
0.268646 0.491760 0.083282
0.295197 0.498016 0.086304
0.322784 0.504639 0.089233
0.351410 0.511749 0.091888
0.380920 0.519287 0.093964
0.411011 0.527405 0.095306
0.441223 0.535828 0.095947
0.471039 0.544586 0.096008
0.500061 0.553284 0.095673
0.527557 0.561615 0.094604
0.553528 0.569366 0.092957
0.577881 0.576324 0.090546
0.600708 0.582336 0.087067
0.622467 0.587524 0.082336
0.643311 0.592072 0.076630
0.663574 0.596222 0.069702
0.683350 0.600525 0.061768
0.703461 0.604919 0.053558
0.724518 0.609161 0.045898
0.746887 0.613129 0.038757
0.770386 0.616943 0.032196
0.794983 0.620453 0.026123
0.820587 0.623749 0.020447
0.847229 0.626862 0.015289
0.874878 0.629669 0.010437
0.903381 0.632263 0.006042
0.932648 0.634491 0.001892
0.962738 0.636475 0.000000
0.993317 0.638031 0.000000
0.188599 0.499603 0.081757
0.210785 0.504822 0.083130
0.234070 0.510223 0.084839
0.258331 0.515778 0.087189
0.283722 0.521576 0.090027
0.310089 0.527740 0.092987
0.337494 0.534271 0.096039
0.365814 0.541229 0.098694
0.394836 0.548798 0.100739
0.424408 0.556854 0.102203
0.453918 0.565308 0.103058
0.483093 0.574127 0.103394
0.511230 0.582886 0.103302
0.538025 0.591400 0.102539
0.563416 0.599396 0.101227
0.587250 0.606720 0.099182
0.609772 0.613129 0.096283
0.631134 0.618713 0.092163
0.651703 0.623535 0.086823
0.671814 0.627716 0.080414
0.691498 0.631653 0.072723
0.711060 0.635712 0.064240
0.731140 0.639862 0.055389
0.752319 0.643921 0.047119
0.774750 0.647675 0.039398
0.798340 0.651245 0.032227
0.823151 0.654572 0.025635
0.849121 0.657623 0.019653
0.876190 0.660492 0.014099
0.904144 0.663055 0.009064
0.932983 0.665161 0.005096
0.962433 0.666992 0.001648
0.992493 0.668457 0.000000
0.202789 0.529419 0.088531
0.225159 0.534485 0.089966
0.248505 0.539703 0.091797
0.272888 0.545105 0.094116
0.298187 0.550720 0.096802
0.324432 0.556702 0.099792
0.351685 0.563171 0.102844
0.379669 0.570099 0.105438
0.408234 0.577606 0.107635
0.437225 0.585663 0.109070
0.466034 0.594086 0.110046
0.494263 0.602783 0.110504
0.521637 0.611511 0.110596
0.547821 0.620117 0.110229
0.572632 0.628296 0.109406
0.596039 0.635864 0.107666
0.618134 0.642639 0.105194
0.639282 0.648682 0.101624
0.659546 0.653870 0.096832
0.679413 0.658356 0.090912
0.699066 0.662323 0.083832
0.718628 0.666077 0.075653
0.738251 0.669952 0.066467
0.758514 0.673981 0.056946
0.779846 0.677856 0.048126
0.802460 0.681488 0.039825
0.826385 0.684875 0.032227
0.851471 0.687958 0.025269
0.877808 0.690643 0.019562
0.905090 0.692963 0.014801
0.933167 0.695007 0.010681
0.962036 0.696777 0.007080
0.991486 0.698395 0.003906
0.216187 0.558258 0.095673
0.238739 0.563171 0.097076
0.262238 0.568237 0.098907
0.286682 0.573517 0.101257
0.312012 0.579041 0.103912
0.338226 0.584961 0.106720
0.365173 0.591370 0.109619
0.392853 0.598328 0.112274
0.420959 0.605804 0.114349
0.449310 0.613800 0.115906
0.477417 0.622162 0.116913
0.504883 0.630676 0.117615
0.531555 0.639374 0.117950
0.557068 0.647858 0.117828
0.581268 0.656097 0.117249
0.604218 0.663879 0.115967
0.626007 0.670959 0.113831
0.646820 0.677368 0.110779
0.666840 0.682983 0.106689
0.686523 0.687836 0.101410
0.706055 0.692078 0.094940
0.725616 0.695862 0.087280
0.745239 0.699524 0.078278
0.765106 0.703339 0.068420
0.785614 0.707275 0.058319
0.807373 0.710907 0.049286
0.830475 0.714142 0.041412
0.854706 0.717072 0.034454
0.879974 0.719696 0.028259
0.906250 0.722107 0.022766
0.933533 0.724304 0.018005
0.961578 0.726257 0.013763
0.990509 0.727997 0.009979
0.229126 0.586273 0.103149
0.251892 0.591095 0.104523
0.275635 0.596100 0.106323
0.300140 0.601349 0.108643
0.325531 0.606903 0.111176
0.351654 0.612885 0.114014
0.378510 0.619354 0.116669
0.405823 0.626282 0.119202
0.433411 0.633698 0.121246
0.461121 0.641632 0.122833
0.488495 0.649841 0.124023
0.515320 0.658264 0.124847
0.541229 0.666748 0.125305
0.566040 0.675201 0.125458
0.589630 0.683350 0.125122
0.612061 0.691101 0.124146
0.633423 0.698334 0.122437
0.653900 0.704956 0.119904
0.673706 0.710846 0.116272
0.693207 0.716095 0.111633
0.712616 0.720764 0.105804
0.732086 0.724792 0.098694
0.751953 0.728302 0.090637
0.772003 0.731720 0.081635
0.792328 0.735229 0.071777
0.813385 0.738800 0.062195
0.835419 0.742157 0.053497
0.858490 0.745270 0.045563
0.882660 0.748108 0.038422
0.907806 0.750793 0.032074
0.934052 0.753174 0.026489
0.961334 0.755341 0.021515
0.989532 0.757294 0.017029
0.242249 0.614136 0.111084
0.265289 0.618896 0.112396
0.289215 0.623932 0.114197
0.313843 0.629211 0.116394
0.339203 0.634827 0.118835
0.365234 0.640808 0.121399
0.391785 0.647308 0.124023
0.418701 0.654236 0.126404
0.445831 0.661652 0.128387
0.472900 0.669464 0.130096
0.499573 0.677521 0.131378
0.525635 0.685760 0.132416
0.550720 0.694031 0.133026
0.574890 0.702240 0.133453
0.597809 0.710205 0.133301
0.619690 0.717834 0.132599
0.640625 0.725006 0.131134
0.660706 0.731659 0.128998
0.680450 0.737640 0.126160
0.700012 0.743042 0.122345
0.719482 0.747803 0.117554
0.739075 0.752045 0.111694
0.758820 0.755737 0.104492
0.778809 0.759033 0.096252
0.799011 0.762329 0.086761
