src/assets/luts/ON1 Nature & Wildlife LUTs/CinematicX LUTs - 30 Free Cinematic LUTs - The Resolve Store 2022/Bukana - Rec709.cube
# Copyright: (C) Copyright 2022 The Resolve Store 
# Cannot be resold, shared or otherwise redistributed
TITLE "CinematicX (Rec.709)"
LUT_3D_SIZE 9
0.000000 0.001068 0.001038
0.056702 0.005798 0.004242
0.144257 0.010345 0.005188
0.263489 0.010437 0.000183
0.402527 0.010773 0.000000
0.554901 0.013763 0.008270
0.697723 0.013489 0.016602
0.830017 0.009521 0.017120
0.959045 0.003265 0.012543
0.015381 0.055725 0.011780
0.077545 0.062744 0.012177
0.174896 0.071442 0.007599
0.296539 0.080200 0.002594
0.435822 0.089539 0.004059
0.581482 0.099548 0.011353
0.716034 0.106903 0.017426
0.842712 0.110565 0.016602
0.967560 0.111084 0.011017
0.036682 0.126831 0.024902
0.104553 0.138977 0.025787
0.205566 0.154266 0.016418
0.335571 0.173615 0.008148
0.477020 0.188354 0.008575
0.612976 0.202454 0.012878
0.737091 0.214905 0.016327
0.856476 0.223846 0.013916
0.976227 0.228821 0.006683
0.062164 0.214752 0.040009
0.140778 0.232727 0.041473
0.247070 0.252106 0.036743
0.374939 0.276733 0.023346
0.510925 0.300629 0.016693
0.635284 0.318512 0.016235
0.751007 0.334045 0.014404
0.865723 0.345856 0.007996
0.984528 0.352661 0.000000
0.102631 0.318665 0.054382
0.191345 0.340363 0.056427
0.304504 0.366425 0.060455
0.432281 0.394135 0.053528
0.546814 0.420441 0.038971
0.650726 0.442078 0.025238
0.758087 0.458954 0.015106
0.870636 0.471954 0.004913
0.991150 0.479553 0.000000
0.158783 0.437866 0.070160
0.253174 0.461334 0.076843
0.366333 0.489075 0.087006
0.488037 0.522614 0.087677
0.591034 0.550323 0.077515
0.675140 0.569153 0.051453
0.766785 0.585724 0.026398
0.873840 0.598541 0.007874
0.993469 0.606689 0.000000
0.216187 0.558258 0.095673
0.312012 0.579041 0.103912
0.420959 0.605804 0.114349
0.531555 0.639374 0.117950
0.626007 0.670959 0.113831
0.706055 0.692078 0.094940
0.785614 0.707275 0.058319
0.879974 0.719696 0.028259
0.990509 0.727997 0.009979
0.271149 0.670807 0.128815
0.368134 0.691559 0.135986
0.471497 0.717773 0.144989
0.571075 0.747925 0.151489
0.656586 0.775726 0.152222
0.733002 0.798187 0.142426
0.810394 0.814545 0.116150
0.892792 0.828766 0.076874
0.986938 0.842682 0.048401
0.351715 0.791168 0.178436
0.439240 0.809296 0.186279
0.529053 0.830566 0.195099
0.612854 0.852295 0.200317
0.686462 0.871582 0.198242
0.755615 0.889709 0.189026
0.828003 0.907684 0.169556
0.905182 0.925140 0.143890
0.984833 0.948273 0.140320
0.000000 0.012390 0.041351
0.056946 0.014496 0.049011
0.148315 0.016113 0.058716
0.268799 0.013763 0.063782
0.408691 0.012665 0.071838
0.557678 0.014923 0.089172
0.697571 0.014496 0.104706
0.828735 0.010193 0.113159
0.957703 0.003510 0.116852
0.009308 0.061798 0.055420
0.068970 0.068909 0.062683
0.173370 0.078552 0.073059
0.300781 0.084229 0.074280
0.441589 0.090607 0.080444
0.583313 0.099182 0.095001
0.715149 0.105560 0.108093
0.841522 0.108917 0.115082
0.967072 0.109833 0.117584
0.029541 0.130005 0.074402
0.091309 0.142700 0.080383
0.198944 0.162659 0.085083
0.338837 0.180695 0.086731
0.480316 0.192078 0.092102
0.613434 0.203552 0.102509
0.736511 0.214203 0.112000
0.856476 0.222412 0.116547
0.977051 0.227753 0.116760
0.054291 0.216217 0.092743
0.123962 0.234467 0.096191
0.236877 0.259430 0.099152
0.376923 0.285431 0.097290
0.513519 0.307709 0.103455
0.635925 0.322906 0.110901
0.751312 0.336548 0.115753
0.866669 0.347137 0.116547
0.985657 0.353577 0.114471
0.086548 0.314331 0.108948
0.168976 0.338898 0.110443
0.291046 0.371948 0.119202
0.431732 0.402710 0.121124
0.549377 0.428802 0.119202
0.652161 0.448059 0.120239
0.759064 0.462769 0.119995
0.871674 0.474365 0.117188
0.992188 0.481049 0.112244
0.131805 0.426697 0.127594
0.228363 0.457581 0.131317
0.352631 0.492126 0.146057
0.484924 0.528900 0.153809
0.592407 0.557861 0.149872
0.676483 0.575378 0.136963
0.767517 0.589630 0.128265
0.874573 0.600952 0.120758
0.994171 0.608124 0.113281
0.185760 0.546051 0.157257
0.289581 0.575470 0.163055
0.408752 0.607178 0.177826
0.527527 0.643311 0.187103
0.626007 0.676270 0.185883
0.706665 0.697418 0.172394
0.786133 0.711395 0.148865
0.880493 0.722290 0.134430
0.991119 0.729614 0.125397
0.245789 0.663361 0.195892
0.352417 0.690826 0.201721
0.462830 0.719055 0.213440
0.567261 0.750275 0.224640
0.656433 0.780090 0.228119
0.733246 0.802795 0.219696
0.810547 0.819061 0.197723
0.893097 0.832611 0.169647
0.987488 0.844910 0.155090
0.343384 0.792145 0.247498
0.434753 0.812317 0.254425
0.526001 0.833344 0.265625
0.611267 0.855438 0.275726
0.686920 0.876709 0.277802
0.756195 0.895294 0.269806
0.828156 0.913361 0.251251
0.905579 0.931030 0.230164
0.985657 0.952423 0.240326
0.000000 0.026642 0.087708
0.052826 0.031708 0.096985
0.147491 0.028656 0.119507
0.278473 0.024994 0.135681
0.426544 0.021881 0.153015
0.572266 0.021027 0.177277
0.703918 0.018188 0.198517
0.829712 0.012177 0.213715
0.956085 0.004364 0.224487
0.006500 0.072235 0.102539
0.059021 0.080658 0.113281
0.162170 0.088379 0.142883
0.304504 0.093323 0.157104
0.452942 0.096954 0.169098
0.592072 0.102448 0.188141
0.718262 0.106384 0.205536
0.841156 0.108093 0.218475
0.965576 0.108490 0.228058
0.023407 0.136230 0.125793
0.073547 0.148560 0.136841
0.168518 0.164398 0.150482
0.333099 0.190094 0.180969
0.483032 0.199341 0.192322
0.615875 0.206970 0.204163
0.737122 0.214294 0.216156
0.856415 0.220642 0.225311
0.977203 0.225891 0.231476
0.048096 0.224152 0.159180
0.103088 0.239899 0.166351
0.206879 0.266846 0.179321
0.367981 0.298615 0.195007
0.510315 0.322052 0.210022
0.634216 0.331757 0.218933
0.751129 0.340790 0.226593
0.867706 0.348480 0.231750
0.986938 0.354065 0.234070
0.076538 0.325348 0.187683
0.141510 0.343323 0.188782
0.259216 0.381012 0.199982
0.420959 0.418976 0.213470
0.547485 0.444458 0.221161
0.650452 0.458954 0.228210
0.758820 0.469391 0.232758
0.872742 0.478119 0.234955
0.993774 0.483032 0.234589
0.107910 0.428101 0.211548
0.186768 0.450806 0.209381
0.318542 0.494537 0.222137
0.473145 0.538635 0.240570
0.591980 0.570099 0.244781
0.676514 0.585419 0.239410
0.767273 0.595764 0.238525
0.875183 0.604614 0.237885
0.995331 0.610260 0.235748
0.143707 0.533142 0.240082
0.238678 0.560883 0.238312
0.376343 0.604218 0.251587
0.515747 0.647125 0.271149
0.624176 0.683228 0.277557
0.706940 0.704895 0.267975
0.786133 0.716827 0.251343
0.880707 0.725800 0.245911
0.992188 0.732208 0.243500
0.202332 0.650024 0.277466
0.308929 0.679474 0.277252
0.440521 0.718353 0.288727
0.559998 0.753784 0.307098
0.654755 0.785095 0.318115
0.733276 0.808533 0.313324
0.810455 0.824280 0.293427
0.893280 0.836945 0.271423
0.988495 0.848022 0.265472
0.324249 0.790405 0.328888
0.417816 0.810638 0.329193
0.520203 0.837311 0.341431
0.611786 0.861938 0.357300
0.688080 0.883545 0.366364
0.756836 0.902039 0.364258
0.828247 0.919891 0.349365
0.905792 0.937683 0.330811
0.986816 0.957611 0.343750
0.004272 0.044495 0.139648
0.049072 0.049988 0.150604
0.127380 0.056763 0.164032
0.275665 0.040955 0.210327
0.435303 0.034546 0.235199
0.581879 0.029968 0.266235
0.709778 0.024811 0.295593
0.831573 0.016388 0.318604
0.954926 0.006744 0.336182
0.011261 0.088959 0.154144
0.054199 0.097626 0.167145
0.130890 0.109344 0.183716
0.293427 0.106964 0.238373
0.457123 0.106781 0.258850
0.597992 0.109161 0.282867
0.721802 0.111267 0.307312
0.842010 0.111023 0.327240
0.964691 0.110657 0.343689
0.023590 0.148865 0.178833
0.065460 0.161560 0.193817
0.137878 0.180420 0.215424
0.310333 0.201721 0.272491
0.482239 0.208771 0.298004
0.617981 0.212921 0.311493
0.738098 0.217743 0.327148
0.856232 0.222046 0.340912
0.976868 0.227325 0.352386
0.046265 0.231323 0.218384
0.090607 0.247955 0.232849
0.162964 0.275848 0.256348
0.322815 0.306122 0.279724
0.508301 0.333466 0.320801
0.634827 0.341370 0.337036
0.750336 0.346680 0.347931
0.867676 0.350769 0.354919
0.987488 0.355072 0.359863
0.080444 0.339569 0.269073
0.130524 0.359100 0.280731
0.213409 0.393372 0.300568
0.379364 0.435120 0.325134
0.548889 0.462311 0.343750
0.649292 0.473999 0.353760
0.756195 0.479675 0.359467
0.873199 0.483063 0.362244
0.994934 0.485077 0.363159
0.119141 0.460419 0.321533
0.173584 0.474823 0.324036
0.268829 0.505615 0.332092
0.435577 0.550507 0.352325
0.588165 0.586578 0.369141
0.679626 0.600342 0.369720
0.765137 0.606232 0.365295
0.875732 0.610382 0.364441
0.997192 0.612946 0.363434
0.155090 0.567352 0.360840
0.212921 0.575348 0.354492
0.321594 0.605011 0.355286
0.483276 0.652008 0.374207
0.617004 0.693207 0.394409
0.706787 0.717255 0.394897
0.785583 0.726624 0.379944
0.880829 0.732056 0.370758
0.993774 0.736542 0.368286
0.204132 0.671997 0.391998
0.274811 0.683075 0.384094
0.393585 0.715210 0.384644
0.540161 0.758606 0.403076
0.651306 0.793304 0.424866
0.733459 0.818115 0.431396
0.810486 0.833344 0.416534
0.893463 0.844086 0.394714
0.989899 0.853241 0.386536
0.315552 0.798401 0.433807
0.396759 0.812866 0.428650
0.500580 0.838959 0.432495
0.610046 0.871918 0.451965
0.691681 0.895416 0.468292
0.758789 0.912537 0.473175
0.828918 0.929047 0.465546
0.905945 0.945953 0.450287
0.987640 0.963043 0.450104
0.013367 0.065918 0.196350
0.049561 0.069916 0.204620
0.109314 0.077972 0.217987
0.247253 0.082855 0.242676
0.427948 0.048737 0.313141
0.577515 0.038635 0.347565
0.705231 0.031036 0.386658
0.827393 0.021362 0.420929
0.951447 0.011108 0.449005
0.020142 0.111298 0.210632
0.056580 0.118347 0.221832
0.112457 0.129761 0.239014
0.252869 0.140930 0.265137
0.446716 0.119629 0.341949
0.592163 0.114868 0.369812
0.716278 0.115112 0.402893
0.837341 0.114807 0.433624
0.961884 0.116028 0.461029
0.030090 0.167816 0.234161
0.068390 0.179504 0.248840
0.120605 0.197296 0.271393
0.252563 0.220184 0.299744
0.469025 0.220581 0.391907
0.613342 0.218597 0.412415
0.733276 0.221252 0.433746
0.851715 0.225739 0.455444
0.974701 0.233612 0.475342
0.048798 0.241821 0.271332
0.090424 0.259125 0.289764
0.145447 0.286896 0.319183
0.264496 0.326019 0.361206
0.485870 0.351837 0.426331
0.630219 0.353424 0.455170
0.746521 0.353302 0.469208
0.864502 0.354950 0.478485
0.985992 0.359009 0.486816
0.081818 0.341125 0.324554
0.128632 0.364685 0.346100
0.190643 0.401093 0.379700
0.307098 0.450806 0.424713
0.519348 0.488892 0.453644
0.658051 0.493622 0.476288
0.759430 0.490051 0.485626
0.871857 0.487732 0.490692
0.994476 0.487000 0.492737
0.135773 0.469788 0.399780
0.186005 0.493927 0.418884
0.252167 0.526337 0.444061
0.371429 0.567230 0.472198
0.561310 0.605865 0.497009
0.693970 0.621063 0.504303
0.769684 0.617523 0.497772
0.875488 0.615692 0.495270
0.999115 0.614349 0.493042
0.192322 0.601898 0.473511
0.241913 0.615112 0.479980
0.309235 0.633026 0.485382
0.431824 0.663971 0.495178
0.599365 0.701263 0.516388
0.715668 0.727661 0.527283
0.794159 0.736115 0.519440
0.881042 0.738831 0.502319
0.995758 0.741089 0.495789
0.249054 0.710571 0.519653
0.302856 0.718842 0.516632
0.377625 0.732849 0.511200
0.502716 0.764130 0.515350
0.641815 0.798981 0.535553
0.737579 0.825287 0.551636
0.814026 0.841492 0.548584
0.894104 0.851166 0.529297
0.991302 0.859406 0.510742
0.333801 0.815826 0.552643
0.401306 0.828247 0.549805
0.483643 0.843933 0.544403
0.590485 0.872894 0.551666
0.691315 0.902374 0.569916
0.763245 0.921448 0.581390
0.830811 0.937042 0.582336
0.906281 0.953125 0.572235
0.988434 0.968079 0.558044
0.020477 0.089386 0.253235
0.054077 0.092102 0.259125
0.100311 0.099060 0.271515
0.213989 0.112885 0.290405
0.415131 0.101410 0.334167
0.568817 0.049408 0.426880
0.694214 0.037140 0.470795
0.815735 0.026093 0.516510
0.941620 0.015717 0.558105
0.028229 0.135742 0.268555
0.062256 0.141815 0.277679
0.105743 0.152100 0.293396
0.212799 0.168732 0.317474
0.429504 0.166412 0.360748
0.583954 0.126587 0.455017
0.704987 0.119141 0.492096
0.825470 0.118225 0.533905
0.953369 0.122375 0.575195
0.038696 0.190674 0.291809
0.074402 0.201233 0.305145
0.117279 0.217255 0.325958
0.210510 0.242584 0.360413
0.437164 0.256104 0.402222
0.604187 0.232880 0.508606
0.722565 0.226990 0.535553
0.841034 0.230316 0.565460
0.967896 0.242340 0.596588
0.054871 0.259857 0.326935
0.095032 0.276672 0.345917
0.142365 0.300659 0.373657
0.225250 0.339111 0.420074
0.430206 0.374451 0.460876
0.619537 0.370483 0.562225
0.738129 0.363373 0.587555
0.857025 0.362305 0.600189
0.980988 0.366486 0.613068
0.082947 0.349731 0.377045
0.128387 0.372986 0.401520
0.183350 0.406281 0.436493
0.266602 0.455414 0.489044
0.443665 0.506104 0.540985
0.639740 0.517151 0.588470
0.753021 0.504211 0.609131
0.867279 0.494690 0.617371
0.991638 0.490753 0.621857
0.133514 0.468506 0.451752
0.183380 0.494537 0.476807
0.243286 0.528717 0.509949
0.327728 0.572784 0.552490
0.488800 0.621185 0.596832
0.685791 0.651184 0.617920
0.778992 0.640137 0.623627
0.875244 0.627167 0.623993
0.993347 0.619904 0.623779
0.207947 0.599945 0.537415
0.258972 0.621826 0.556702
0.319519 0.647369 0.578674
0.402039 0.676697 0.601349
0.546509 0.713196 0.627441
0.710205 0.741608 0.645325
0.806976 0.751129 0.646454
0.882843 0.746613 0.631927
0.993317 0.744751 0.626343
0.278107 0.719727 0.609100
0.333466 0.736115 0.620056
0.397949 0.753540 0.628296
0.481842 0.774017 0.632751
0.608154 0.803986 0.644531
0.737305 0.829407 0.661194
0.822876 0.845795 0.666992
0.897491 0.854248 0.657288
0.989319 0.861694 0.636871
0.355957 0.823517 0.657440
0.419525 0.839386 0.663422
0.489441 0.853729 0.662170
0.571564 0.871857 0.658661
0.674774 0.900085 0.666504
0.770081 0.921875 0.680786
0.839600 0.938293 0.690460
0.909576 0.953064 0.689728
0.986786 0.966614 0.675446
0.027039 0.114441 0.312286
0.059875 0.117004 0.316803
0.099243 0.124054 0.328766
0.186523 0.139343 0.352997
0.390289 0.151794 0.372559
0.580048 0.110260 0.442902
0.687775 0.048187 0.559723
0.801178 0.034454 0.610840
0.925537 0.022766 0.661743
0.034943 0.161560 0.329010
0.068939 0.167694 0.337219
0.107208 0.177460 0.351501
0.183838 0.195221 0.378876
0.390442 0.213593 0.404205
0.594391 0.185181 0.474670
0.698700 0.134674 0.588440
0.811310 0.127655 0.634247
0.938599 0.131744 0.684143
0.045654 0.215576 0.351624
0.081726 0.226135 0.364838
0.121277 0.240509 0.383575
0.187378 0.265015 0.417816
0.374634 0.293518 0.456421
0.604767 0.286560 0.527405
0.714203 0.247437 0.640686
0.827393 0.241943 0.674255
0.955353 0.253510 0.712097
0.062714 0.283783 0.386932
0.102783 0.300262 0.406189
0.146271 0.320343 0.430206
0.208160 0.353180 0.471069
0.357391 0.395996 0.527985
0.599884 0.412018 0.587097
0.728638 0.382019 0.697388
0.845154 0.374390 0.717163
0.970367 0.376709 0.734497
0.090912 0.370636 0.437683
0.135956 0.393677 0.462891
0.186066 0.421967 0.493713
0.251678 0.461853 0.537567
0.374908 0.512421 0.597290
0.596771 0.546356 0.638214
0.743134 0.522430 0.717102
0.858093 0.506622 0.738159
0.983521 0.498016 0.748352
0.136871 0.478607 0.506073
0.185516 0.504303 0.532166
0.239197 0.534027 0.562225
0.309296 0.572083 0.600830
0.425385 0.619537 0.652710
0.622192 0.659943 0.693787
0.765228 0.658905 0.727051
0.868042 0.639099 0.743866
0.988403 0.626709 0.750549
0.203125 0.597504 0.583618
0.253235 0.619720 0.605011
0.308929 0.643860 0.628479
0.379700 0.672852 0.656616
0.487946 0.710785 0.694763
0.659943 0.749756 0.730652
0.803619 0.769623 0.743744
0.881592 0.762390 0.750122
0.983826 0.754608 0.752655
0.283508 0.705261 0.653137
0.337189 0.724792 0.671082
0.397980 0.745972 0.690216
0.468872 0.768524 0.708710
0.564484 0.797577 0.729980
0.702301 0.830811 0.754181
0.821716 0.850037 0.766998
0.898895 0.859100 0.769043
0.984222 0.864838 0.759277
0.357574 0.807281 0.714142
0.419586 0.827393 0.731659
0.489044 0.847961 0.746277
0.561096 0.866760 0.753296
0.645599 0.890228 0.759888
0.750244 0.917328 0.771851
0.842499 0.935577 0.785126
0.912445 0.949738 0.792145
0.983368 0.961334 0.787018
0.034332 0.142914 0.376282
0.067719 0.146545 0.381561
0.104462 0.154510 0.393341
0.169403 0.170654 0.419128
0.354523 0.194733 0.449249
0.579620 0.188995 0.482544
0.704376 0.128448 0.595123
0.796692 0.057190 0.718475
0.909821 0.040222 0.765533
0.043396 0.190643 0.393921
0.078125 0.197571 0.402802
0.115295 0.207733 0.416901
0.172089 0.225311 0.443787
0.338470 0.252350 0.483124
0.579376 0.260132 0.523804
0.712982 0.213959 0.630554
0.807159 0.155975 0.745911
0.923187 0.150787 0.790375
0.055054 0.244324 0.416656
0.092102 0.255432 0.430511
0.131042 0.269379 0.448669
0.182892 0.291656 0.479523
0.312683 0.323883 0.529877
0.558472 0.345215 0.577026
0.720642 0.317474 0.678772
0.821136 0.269684 0.785217
0.940033 0.271179 0.821075
0.074249 0.313568 0.453156
0.114929 0.330292 0.472809
0.156738 0.348663 0.494934
0.207672 0.374756 0.527740
0.304504 0.415039 0.584503
0.519531 0.446777 0.635132
0.722137 0.436890 0.724365
0.835754 0.395233 0.824493
0.955261 0.391724 0.846924
0.105927 0.402252 0.507477
0.150726 0.425201 0.532318
0.196777 0.448944 0.558258
0.251221 0.477600 0.589783
0.334503 0.518646 0.640198
0.511017 0.557922 0.695953
0.722382 0.564301 0.752136
0.846924 0.524536 0.843567
0.968781 0.511505 0.865326
0.149994 0.503296 0.570679
0.197571 0.527832 0.595520
0.247131 0.552612 0.620728
0.307159 0.580383 0.649231
0.390778 0.616913 0.691254
0.547729 0.659698 0.745270
0.737518 0.682831 0.774475
0.856567 0.654724 0.845337
0.976013 0.639618 0.867554
0.205872 0.606720 0.634583
0.254883 0.627563 0.655121
0.305634 0.647858 0.675385
0.367340 0.670898 0.698364
0.451202 0.701904 0.732666
0.595947 0.744171 0.782166
0.764252 0.773132 0.809387
0.869141 0.774353 0.841675
0.976562 0.764130 0.864349
0.272644 0.701599 0.692230
0.324280 0.719971 0.709869
0.379242 0.738373 0.727814
0.442657 0.757660 0.746674
0.521790 0.782684 0.772095
0.645996 0.820068 0.811951
0.791656 0.849945 0.837891
0.890045 0.863068 0.845428
0.973053 0.870026 0.862274
0.350311 0.788055 0.743652
0.407379 0.807190 0.762726
0.472595 0.827759 0.782745
0.541809 0.847198 0.800079
0.612946 0.868622 0.817169
0.709839 0.899567 0.841949
0.821411 0.928497 0.863617
0.908051 0.943542 0.872192
0.978638 0.955780 0.876404
0.045258 0.177521 0.449005
0.079895 0.182220 0.455658
0.116516 0.190216 0.467285
0.167938 0.205627 0.490967
0.311737 0.236206 0.535950
0.554016 0.263672 0.578461
0.712433 0.239532 0.656586
0.809753 0.160919 0.776550
0.906921 0.075592 0.875702
0.055328 0.225922 0.468811
0.091125 0.233246 0.478699
0.128754 0.243500 0.492889
0.176392 0.259644 0.516541
0.289581 0.288605 0.562408
0.524384 0.319122 0.612823
0.711365 0.310150 0.689026
0.817596 0.250946 0.802887
0.918701 0.185577 0.898773
0.068420 0.280121 0.491425
0.106201 0.291168 0.505981
0.145630 0.305145 0.524658
0.192200 0.325195 0.551788
0.275391 0.354828 0.597900
0.471161 0.384583 0.653168
0.694458 0.390930 0.724304
0.823364 0.349884 0.832153
0.931305 0.299164 0.924835
0.089935 0.350403 0.527283
0.130890 0.367188 0.547180
0.172424 0.384613 0.568604
0.219086 0.405975 0.595367
0.288727 0.439880 0.640747
0.431854 0.471436 0.698761
0.665039 0.487549 0.758057
0.825409 0.458984 0.858734
0.942780 0.413971 0.948761
0.124786 0.440796 0.583282
0.169525 0.462738 0.606628
0.213928 0.482666 0.628082
0.261932 0.502747 0.650269
0.328003 0.533173 0.686798
0.442169 0.570435 0.745056
0.652344 0.593262 0.789185
0.827820 0.574677 0.874542
0.953827 0.531647 0.966522
0.168884 0.536835 0.643036
0.216064 0.558685 0.664734
0.263306 0.578491 0.684479
0.316345 0.597687 0.703796
0.382294 0.622681 0.732788
0.489532 0.660553 0.786743
0.678833 0.690033 0.827698
0.835541 0.689087 0.875702
0.959900 0.656982 0.964508
0.216217 0.625275 0.692902
0.264893 0.644073 0.711212
0.313446 0.661102 0.728271
0.369019 0.678528 0.745941
0.437714 0.700806 0.771240
0.545135 0.738007 0.820343
0.718842 0.773315 0.861298
0.851685 0.787476 0.877289
0.963562 0.775421 0.953278
0.270355 0.705994 0.736694
0.320801 0.723145 0.753265
0.371460 0.738647 0.768616
0.427338 0.753723 0.783783
0.495148 0.772797 0.804260
0.597137 0.807312 0.847382
0.752808 0.844391 0.887695
0.872620 0.865051 0.901276
0.965027 0.877380 0.941284
0.334961 0.783051 0.777954
0.390167 0.801605 0.795807
0.450165 0.819092 0.812988
0.513000 0.833466 0.827698
0.576538 0.849945 0.844849
0.662231 0.878479 0.877228
0.786530 0.913086 0.915070
0.892059 0.937469 0.930420
0.967194 0.953400 0.937469
