src/assets/luts/ON1 Nature & Wildlife LUTs/CinematicX LUTs - 30 Free Cinematic LUTs - The Resolve Store 2022/Bukana - Rec709.cube
# Copyright: (C) Copyright 2022 The Resolve Store 
# Cannot be resold, shared or otherwise redistributed
TITLE "CinematicX (Rec.709)"
LUT_3D_SIZE 5
0.000000 0.001068 0.001038
0.144257 0.010345 0.005188
0.402527 0.010773 0.000000
0.697723 0.013489 0.016602
0.959045 0.003265 0.012543
0.036682 0.126831 0.024902
0.205566 0.154266 0.016418
0.477020 0.188354 0.008575
0.737091 0.214905 0.016327
0.976227 0.228821 0.006683
0.102631 0.318665 0.054382
0.304504 0.366425 0.060455
0.546814 0.420441 0.038971
0.758087 0.458954 0.015106
0.991150 0.479553 0.000000
0.216187 0.558258 0.095673
0.420959 0.605804 0.114349
0.626007 0.670959 0.113831
0.785614 0.707275 0.058319
0.990509 0.727997 0.009979
0.351715 0.791168 0.178436
0.529053 0.830566 0.195099
0.686462 0.871582 0.198242
0.828003 0.907684 0.169556
0.984833 0.948273 0.140320
0.000000 0.026642 0.087708
0.147491 0.028656 0.119507
0.426544 0.021881 0.153015
0.703918 0.018188 0.198517
0.956085 0.004364 0.224487
0.023407 0.136230 0.125793
0.168518 0.164398 0.150482
0.483032 0.199341 0.192322
0.737122 0.214294 0.216156
0.977203 0.225891 0.231476
0.076538 0.325348 0.187683
0.259216 0.381012 0.199982
0.547485 0.444458 0.221161
0.758820 0.469391 0.232758
0.993774 0.483032 0.234589
0.143707 0.533142 0.240082
0.376343 0.604218 0.251587
0.624176 0.683228 0.277557
0.786133 0.716827 0.251343
0.992188 0.732208 0.243500
0.324249 0.790405 0.328888
0.520203 0.837311 0.341431
0.688080 0.883545 0.366364
0.828247 0.919891 0.349365
0.986816 0.957611 0.343750
0.013367 0.065918 0.196350
0.109314 0.077972 0.217987
0.427948 0.048737 0.313141
0.705231 0.031036 0.386658
0.951447 0.011108 0.449005
0.030090 0.167816 0.234161
0.120605 0.197296 0.271393
0.469025 0.220581 0.391907
0.733276 0.221252 0.433746
0.974701 0.233612 0.475342
0.081818 0.341125 0.324554
0.190643 0.401093 0.379700
0.519348 0.488892 0.453644
0.759430 0.490051 0.485626
0.994476 0.487000 0.492737
0.192322 0.601898 0.473511
0.309235 0.633026 0.485382
0.599365 0.701263 0.516388
0.794159 0.736115 0.519440
0.995758 0.741089 0.495789
0.333801 0.815826 0.552643
0.483643 0.843933 0.544403
0.691315 0.902374 0.569916
0.830811 0.937042 0.582336
0.988434 0.968079 0.558044
0.027039 0.114441 0.312286
0.099243 0.124054 0.328766
0.390289 0.151794 0.372559
0.687775 0.048187 0.559723
0.925537 0.022766 0.661743
0.045654 0.215576 0.351624
0.121277 0.240509 0.383575
0.374634 0.293518 0.456421
0.714203 0.247437 0.640686
0.955353 0.253510 0.712097
0.090912 0.370636 0.437683
0.186066 0.421967 0.493713
0.374908 0.512421 0.597290
0.743134 0.522430 0.717102
0.983521 0.498016 0.748352
0.203125 0.597504 0.583618
0.308929 0.643860 0.628479
0.487946 0.710785 0.694763
0.803619 0.769623 0.743744
0.983826 0.754608 0.752655
0.357574 0.807281 0.714142
0.489044 0.847961 0.746277
0.645599 0.890228 0.759888
0.842499 0.935577 0.785126
0.983368 0.961334 0.787018
0.045258 0.177521 0.449005
0.116516 0.190216 0.467285
0.311737 0.236206 0.535950
0.712433 0.239532 0.656586
0.906921 0.075592 0.875702
0.068420 0.280121 0.491425
0.145630 0.305145 0.524658
0.275391 0.354828 0.597900
0.694458 0.390930 0.724304
0.931305 0.299164 0.924835
0.124786 0.440796 0.583282
0.213928 0.482666 0.628082
0.328003 0.533173 0.686798
0.652344 0.593262 0.789185
0.953827 0.531647 0.966522
0.216217 0.625275 0.692902
0.313446 0.661102 0.728271
0.437714 0.700806 0.771240
0.718842 0.773315 0.861298
0.963562 0.775421 0.953278
0.334961 0.783051 0.777954
0.450165 0.819092 0.812988
0.576538 0.849945 0.844849
0.786530 0.913086 0.915070
0.967194 0.953400 0.937469
