src/assets/luts/ON1 Nature & Wildlife LUTs/CinematicX LUTs - 30 Free Cinematic LUTs - The Resolve Store 2022/Camuy - Rec709.cube
# Copyright: (C) Copyright 2022 The Resolve Store 
# Cannot be resold, shared or otherwise redistributed
TITLE "CinematicX (Rec.709)"
LUT_3D_SIZE 5
0.000793 0.000793 0.000793
0.145569 0.027191 0.036469
0.353699 0.061859 0.046234
0.587830 0.101654 0.042938
0.834961 0.150177 0.048492
0.012421 0.056915 0.021973
0.172241 0.119263 0.012848
0.415009 0.198151 0.028900
0.640411 0.242981 0.035675
0.876434 0.290344 0.041748
0.067383 0.221375 0.124359
0.296539 0.307037 0.157196
0.435760 0.349915 0.121033
0.691650 0.464661 0.051483
0.940002 0.492462 0.035614
0.402161 0.508087 0.352295
0.491058 0.528656 0.365906
0.569550 0.530273 0.356201
0.674927 0.560333 0.233917
0.970825 0.714905 0.071472
0.378662 0.592957 0.444214
0.491852 0.677185 0.467621
0.658234 0.721191 0.498993
0.785797 0.752228 0.491669
0.926758 0.826050 0.629303
0.012939 0.020111 0.055481
0.132538 0.031036 0.097809
0.325531 0.033752 0.145508
0.556702 0.029877 0.176849
0.812286 0.042053 0.188477
0.003479 0.108734 0.114960
0.096619 0.155548 0.162506
0.430908 0.190643 0.193176
0.645966 0.211639 0.195343
0.877380 0.235779 0.184235
0.011963 0.192444 0.149475
0.052948 0.246918 0.183044
0.450836 0.375427 0.224060
0.708893 0.461304 0.190033
0.952728 0.480225 0.179016
0.086884 0.330139 0.248108
0.311859 0.474182 0.346649
0.560608 0.549133 0.373657
0.670074 0.559418 0.261230
0.978546 0.715271 0.174927
0.258301 0.509857 0.399078
0.416626 0.621307 0.480072
0.624054 0.728546 0.530182
0.784210 0.767365 0.525787
0.920624 0.839935 0.698578
0.026978 0.079559 0.161011
0.041199 0.090485 0.209869
0.277435 0.060760 0.194885
0.443878 0.058044 0.274170
0.708008 0.069061 0.387787
0.019806 0.174469 0.231079
0.030090 0.200012 0.274780
0.370667 0.163391 0.287292
0.553284 0.147919 0.354614
0.796906 0.260132 0.449829
0.011597 0.275970 0.271118
0.024811 0.289337 0.283295
0.375092 0.458405 0.451599
0.693573 0.471802 0.486359
0.911011 0.472046 0.465179
0.032074 0.314880 0.281616
0.073761 0.343262 0.303680
0.428040 0.564911 0.506714
0.725006 0.635590 0.527039
0.969696 0.708282 0.464569
0.108917 0.412994 0.341919
0.211578 0.489075 0.408386
0.489288 0.673553 0.570282
0.768921 0.794464 0.621887
0.935883 0.867554 0.738770
0.030670 0.147034 0.254974
0.035065 0.177216 0.306793
0.112335 0.145386 0.335938
0.409271 0.110870 0.296326
0.572205 0.147675 0.404480
0.026703 0.226227 0.304596
0.032898 0.250427 0.342194
0.132690 0.281342 0.395844
0.484924 0.197052 0.370514
0.657715 0.300995 0.501709
0.046143 0.336151 0.371887
0.066895 0.353271 0.400574
0.175537 0.403229 0.450104
0.629456 0.497528 0.566864
0.784760 0.520813 0.649902
0.053162 0.361115 0.351837
0.056305 0.364227 0.355011
0.180054 0.446259 0.436249
0.632080 0.661407 0.654053
0.918915 0.672485 0.684418
0.094208 0.427185 0.392303
0.162567 0.477081 0.437897
0.340210 0.610260 0.565094
0.654022 0.785217 0.720093
0.924774 0.865143 0.804260
0.037140 0.231903 0.346436
0.045441 0.257019 0.379089
0.110809 0.290436 0.430054
0.439484 0.329712 0.509705
0.570526 0.270660 0.451630
0.042053 0.287598 0.378632
0.051819 0.305145 0.402435
0.123749 0.342590 0.452454
0.411774 0.409668 0.552032
0.631042 0.381165 0.529114
0.082092 0.375061 0.436676
0.090363 0.383301 0.448273
0.155365 0.416077 0.489807
0.388794 0.516113 0.566528
0.724304 0.544739 0.641693
0.104675 0.424255 0.452057
0.116730 0.436127 0.470795
0.230316 0.506256 0.553375
0.459381 0.630005 0.670990
0.813995 0.681854 0.763702
0.099182 0.500916 0.495270
0.170380 0.534973 0.528839
0.309387 0.633087 0.625427
0.546722 0.773102 0.764709
0.857605 0.864746 0.853821
