src/assets/luts/ON1 Nature & Wildlife LUTs/CinematicX LUTs - 30 Free Cinematic LUTs - The Resolve Store 2022/Camuy - Rec709.cube
# Copyright: (C) Copyright 2022 The Resolve Store 
# Cannot be resold, shared or otherwise redistributed
TITLE "CinematicX (Rec.709)"
LUT_3D_SIZE 9
0.000793 0.000793 0.000793
0.048981 0.009003 0.015228
0.145569 0.027191 0.036469
0.247131 0.045013 0.045746
0.353699 0.061859 0.046234
0.468079 0.080566 0.043945
0.587830 0.101654 0.042938
0.710693 0.126282 0.044983
0.834961 0.150177 0.048492
0.020630 0.023560 0.012756
0.071930 0.032257 0.020233
0.174316 0.068115 0.031189
0.275269 0.087311 0.035126
0.380615 0.109009 0.035583
0.491699 0.133240 0.036835
0.607971 0.159454 0.039337
0.727875 0.187256 0.042542
0.850311 0.212646 0.045959
0.012421 0.056915 0.021973
0.072998 0.081085 0.009613
0.172241 0.119263 0.012848
0.302734 0.176910 0.022675
0.415009 0.198151 0.028900
0.526367 0.219269 0.032288
0.640411 0.242981 0.035675
0.757416 0.267059 0.038879
0.876434 0.290344 0.041748
0.019623 0.120270 0.061127
0.054169 0.147614 0.037476
0.206635 0.182861 0.053864
0.306091 0.235352 0.049713
0.436249 0.304504 0.038300
0.557587 0.334045 0.034149
0.673889 0.348846 0.033997
0.791779 0.365112 0.034088
0.910736 0.382263 0.034698
0.067383 0.221375 0.124359
0.152618 0.273804 0.137543
0.296539 0.307037 0.157196
0.361237 0.307465 0.156494
0.435760 0.349915 0.121033
0.559052 0.421844 0.075714
0.691650 0.464661 0.051483
0.816772 0.481598 0.041077
0.940002 0.492462 0.035614
0.246765 0.391754 0.238617
0.308685 0.408752 0.255737
0.395691 0.426422 0.265259
0.448669 0.429413 0.266357
0.487030 0.418945 0.246552
0.549927 0.452606 0.184052
0.678406 0.531189 0.109375
0.825012 0.588409 0.066101
0.960724 0.615082 0.038757
0.402161 0.508087 0.352295
0.437012 0.517090 0.360962
0.491058 0.528656 0.365906
0.535828 0.535095 0.360596
0.569550 0.530273 0.356201
0.601013 0.519836 0.317169
0.674927 0.560333 0.233917
0.818481 0.649689 0.143860
0.970825 0.714905 0.071472
0.416840 0.580170 0.413239
0.455933 0.593872 0.421692
0.528717 0.612152 0.437988
0.586456 0.623260 0.436432
0.630066 0.629303 0.422607
0.669098 0.627869 0.414856
0.722260 0.630920 0.382812
0.830231 0.688019 0.295013
0.969147 0.782990 0.213776
0.378662 0.592957 0.444214
0.424347 0.637512 0.455963
0.491852 0.677185 0.467621
0.585968 0.704071 0.494263
0.658234 0.721191 0.498993
0.719666 0.735809 0.489990
0.785797 0.752228 0.491669
0.883392 0.778412 0.495880
0.926758 0.826050 0.629303
0.002655 0.003937 0.010773
0.048401 0.013245 0.041351
0.139404 0.024658 0.065948
0.247131 0.028259 0.083801
0.349152 0.026123 0.088104
0.458771 0.026245 0.086365
0.578400 0.043335 0.089233
0.710480 0.095306 0.101410
0.837128 0.128784 0.108704
0.008545 0.028748 0.039154
0.060394 0.054596 0.072357
0.182312 0.073669 0.087036
0.284515 0.082306 0.090576
0.386444 0.088959 0.089661
0.493713 0.096588 0.085480
0.612274 0.125824 0.089325
0.734589 0.158752 0.095062
0.856140 0.192535 0.102570
0.001068 0.060242 0.047363
0.013611 0.079865 0.056946
0.174713 0.125641 0.054077
0.315918 0.177673 0.078156
0.426941 0.190155 0.076141
0.535889 0.208557 0.083954
0.648346 0.231140 0.091187
0.764740 0.254669 0.098358
0.882843 0.278534 0.104706
0.002930 0.106140 0.063324
0.014099 0.119965 0.071045
0.177795 0.187714 0.058868
0.300629 0.232178 0.059082
0.446564 0.306976 0.067017
0.564972 0.329987 0.086334
0.679810 0.344025 0.096710
0.796173 0.360657 0.102264
0.913727 0.378418 0.105957
0.024200 0.180939 0.117462
0.038147 0.199951 0.121307
0.242920 0.304810 0.162109
0.355194 0.314911 0.165771
0.431854 0.347382 0.125580
0.565308 0.424530 0.094788
0.698547 0.463806 0.096039
0.821381 0.477905 0.100922
0.943604 0.488739 0.104553
0.105438 0.303253 0.204102
0.212769 0.367310 0.246277
0.353516 0.424072 0.268372
0.440979 0.435547 0.268738
0.485779 0.423431 0.256317
0.547089 0.450867 0.188904
0.683105 0.533508 0.121857
0.830292 0.588654 0.108612
0.964233 0.612366 0.107117
0.326843 0.483124 0.341248
0.365326 0.500916 0.346527
0.459564 0.526001 0.368195
0.527649 0.538605 0.366577
0.568268 0.537140 0.363647
0.601288 0.524261 0.328949
0.673553 0.560364 0.245148
0.821747 0.651428 0.161987
0.973969 0.715485 0.121918
0.378632 0.553070 0.416473
0.413055 0.581390 0.417358
0.490204 0.606842 0.436493
0.574615 0.626434 0.448334
0.627716 0.635223 0.436157
0.670868 0.635956 0.428650
0.723572 0.636139 0.400269
0.831116 0.689056 0.310486
0.968872 0.783966 0.245636
0.335571 0.558929 0.431458
0.401978 0.611145 0.463043
0.460999 0.667816 0.472870
0.559662 0.703125 0.499542
0.650696 0.726715 0.515686
0.718384 0.742767 0.509186
0.786499 0.759369 0.506927
0.883850 0.783264 0.515076
0.922272 0.832214 0.665558
0.012939 0.020111 0.055481
0.028259 0.034729 0.101196
0.132538 0.031036 0.097809
0.223846 0.035919 0.119629
0.325531 0.033752 0.145508
0.436157 0.030029 0.163696
0.556702 0.029877 0.176849
0.687256 0.034973 0.185455
0.812286 0.042053 0.188477
0.016754 0.058716 0.094269
0.025452 0.072144 0.117065
0.163818 0.065521 0.132416
0.272369 0.061615 0.145660
0.368164 0.063690 0.159058
0.470032 0.067017 0.168701
0.580750 0.069000 0.175842
0.704132 0.077759 0.181702
0.831879 0.123688 0.192505
0.003479 0.108734 0.114960
0.007874 0.117462 0.123840
0.096619 0.155548 0.162506
0.325531 0.183197 0.193726
0.430908 0.190643 0.193176
0.535187 0.200867 0.195160
0.645966 0.211639 0.195343
0.762848 0.222015 0.191528
0.877380 0.235779 0.184235
0.002167 0.151825 0.132233
0.009155 0.155273 0.132660
0.033478 0.184021 0.148712
0.333557 0.271515 0.190857
0.460236 0.316132 0.202057
0.571259 0.326324 0.200714
0.685883 0.337402 0.194641
0.805389 0.347076 0.184357
0.922821 0.358978 0.172699
0.011963 0.192444 0.149475
0.019623 0.199768 0.153595
0.052948 0.246918 0.183044
0.363342 0.369568 0.243073
0.450836 0.375427 0.224060
0.577942 0.433990 0.207001
0.708893 0.461304 0.190033
0.831726 0.469971 0.171112
0.952728 0.480225 0.179016
0.031464 0.236908 0.172974
0.041290 0.248688 0.180084
0.160645 0.343567 0.244720
0.417053 0.458069 0.308807
0.494110 0.452789 0.304474
0.552826 0.461426 0.241211
0.694122 0.540710 0.197998
0.843628 0.588593 0.154053
0.973419 0.605957 0.175110
0.086884 0.330139 0.248108
0.136414 0.358948 0.267822
0.311859 0.474182 0.346649
0.483917 0.539246 0.379517
0.560608 0.549133 0.373657
0.601013 0.534058 0.350891
0.670074 0.559418 0.261230
0.829742 0.655548 0.181152
0.978546 0.715271 0.174927
0.225616 0.448700 0.350281
0.290588 0.491272 0.382812
0.395172 0.567841 0.427551
0.516632 0.620728 0.452240
0.614075 0.641602 0.457123
0.669006 0.647430 0.446625
0.722931 0.644379 0.423737
0.830414 0.690186 0.332825
0.968536 0.785461 0.280151
0.258301 0.509857 0.399078
0.323151 0.552795 0.434174
0.416626 0.621307 0.480072
0.497437 0.690765 0.494995
0.624054 0.728546 0.530182
0.709778 0.749054 0.532623
0.784210 0.767365 0.525787
0.879608 0.789154 0.543884
0.920624 0.839935 0.698578
0.020111 0.046387 0.106476
0.026917 0.064880 0.152588
0.063751 0.060913 0.186646
0.209656 0.047668 0.149567
0.295227 0.047333 0.177368
0.390686 0.043549 0.214050
0.505188 0.040405 0.252106
0.638428 0.041382 0.281738
0.774231 0.048340 0.302917
0.022125 0.084442 0.136475
0.025238 0.098541 0.167694
0.057587 0.099182 0.196136
0.239868 0.065247 0.175507
0.321594 0.050049 0.193329
0.416595 0.050232 0.226135
0.530823 0.057556 0.258881
0.662415 0.070648 0.284424
0.803436 0.134613 0.318207
0.013611 0.148132 0.179688
0.018646 0.159515 0.200989
0.040405 0.173340 0.222656
0.293304 0.164337 0.244263
0.410797 0.158142 0.268707
0.511261 0.169037 0.291077
0.618561 0.188354 0.306244
0.732605 0.203857 0.315918
0.844421 0.250641 0.336334
0.001129 0.202057 0.202759
0.001404 0.206543 0.207184
0.027985 0.227234 0.227448
0.199097 0.303864 0.300903
0.477631 0.331848 0.346924
0.571442 0.333435 0.341064
0.674835 0.340149 0.336365
0.785889 0.348389 0.333405
0.893646 0.363281 0.336365
0.006744 0.240601 0.220520
0.011169 0.242737 0.220490
0.028748 0.258301 0.231323
0.191589 0.353577 0.312805
0.490601 0.435333 0.365875
0.595154 0.450439 0.348816
0.705109 0.458374 0.337128
0.822571 0.467316 0.330353
0.940735 0.473480 0.323181
0.022919 0.264954 0.226959
0.028412 0.269073 0.228729
0.050995 0.298889 0.251587
0.252930 0.422821 0.355469
0.512848 0.515320 0.406982
0.595551 0.514008 0.386322
0.705719 0.554169 0.346008
0.843140 0.586792 0.329041
0.968872 0.596039 0.320587
0.046875 0.302582 0.249481
0.049316 0.304596 0.250031
0.117828 0.361450 0.298218
0.334564 0.498199 0.410950
0.545166 0.586365 0.456848
0.632233 0.589600 0.458221
0.698151 0.595551 0.396576
0.837860 0.664917 0.349152
0.978424 0.712158 0.315277
0.085907 0.359711 0.288391
0.097809 0.368164 0.294037
0.209137 0.444794 0.359497
0.397522 0.568115 0.457764
0.560730 0.649933 0.495667
0.667694 0.670929 0.494324
0.736053 0.674255 0.493500
0.838196 0.705170 0.425690
0.965302 0.789368 0.395508
0.155731 0.438873 0.344543
0.207550 0.475006 0.375336
0.301819 0.541748 0.433258
0.436584 0.636444 0.500427
0.558563 0.718140 0.528351
0.690521 0.752991 0.556000
0.777771 0.774994 0.547882
0.872894 0.795898 0.573303
0.924316 0.848846 0.720276
0.026978 0.079559 0.161011
0.029327 0.090149 0.186920
0.041199 0.090485 0.209869
0.113007 0.073395 0.233246
0.277435 0.060760 0.194885
0.353546 0.060486 0.227905
0.443878 0.058044 0.274170
0.565735 0.060272 0.332367
0.708008 0.069061 0.387787
0.025604 0.111176 0.183685
0.027130 0.120941 0.204315
0.037811 0.131561 0.241272
0.096405 0.114655 0.263062
0.294250 0.065430 0.208466
0.370728 0.062531 0.239960
0.463806 0.061951 0.286743
0.587769 0.073517 0.344177
0.743408 0.146057 0.413971
0.019806 0.174469 0.231079
0.020721 0.182129 0.241821
0.030090 0.200012 0.274780
0.088409 0.205261 0.292633
0.370667 0.163391 0.287292
0.459625 0.153534 0.316376
0.553284 0.147919 0.354614
0.658478 0.139313 0.386444
0.796906 0.260132 0.449829
0.014771 0.239624 0.263580
0.016785 0.246826 0.274750
0.048676 0.271698 0.307220
0.099213 0.294495 0.331604
0.439056 0.344971 0.404266
0.551361 0.326019 0.429260
0.646149 0.327454 0.447601
0.750153 0.340088 0.458710
0.849182 0.375977 0.475128
0.011597 0.275970 0.271118
0.012115 0.278076 0.273071
0.024811 0.289337 0.283295
0.090729 0.323639 0.316772
0.375092 0.458405 0.451599
0.599731 0.472290 0.482483
0.693573 0.471802 0.486359
0.795593 0.473907 0.479279
0.911011 0.472046 0.465179
0.017090 0.298340 0.278931
0.017303 0.297791 0.277588
0.048401 0.313995 0.290222
0.126648 0.364044 0.336609
0.387695 0.513885 0.478455
0.611115 0.562958 0.510071
0.717285 0.573090 0.485870
0.833099 0.582733 0.470367
0.961823 0.580811 0.446472
0.032074 0.314880 0.281616
0.033386 0.314911 0.280762
0.073761 0.343262 0.303680
0.180023 0.416992 0.371277
0.428040 0.564911 0.506714
0.630066 0.629730 0.536896
0.725006 0.635590 0.527039
0.839661 0.675690 0.483643
0.969696 0.708282 0.464569
0.065338 0.352661 0.302856
0.069672 0.357330 0.305786
0.132477 0.402130 0.343658
0.247955 0.484955 0.419678
0.462097 0.615540 0.533569
0.639404 0.691895 0.570221
0.747070 0.707550 0.580658
0.849426 0.730804 0.549377
0.950836 0.794617 0.532867
0.108917 0.412994 0.341919
0.148071 0.443176 0.368225
0.211578 0.489075 0.408386
0.319153 0.565887 0.478119
0.489288 0.673553 0.570282
0.627991 0.759094 0.600098
0.768921 0.794464 0.621887
0.864349 0.817963 0.682434
0.935883 0.867554 0.738770
0.029327 0.110260 0.207062
0.030365 0.120026 0.227356
0.033569 0.138336 0.270660
0.077423 0.118073 0.292664
0.263214 0.087891 0.252930
0.338806 0.077515 0.240234
0.411438 0.081329 0.277344
0.504913 0.088043 0.335815
0.627777 0.102661 0.410553
0.027496 0.140289 0.228058
0.028992 0.149323 0.244568
0.032471 0.170776 0.287079
0.073395 0.162140 0.305939
0.256256 0.137177 0.309418
0.353119 0.083130 0.252258
0.426819 0.086487 0.289276
0.521484 0.093384 0.348175
0.662140 0.165039 0.443115
0.022308 0.198273 0.265228
0.023773 0.205444 0.277100
0.028687 0.225555 0.311676
0.075256 0.244110 0.349030
0.160736 0.236603 0.372345
0.432953 0.178101 0.330078
0.499084 0.159241 0.352539
0.572235 0.125336 0.387878
0.723938 0.278687 0.505127
0.025513 0.270386 0.322571
0.027466 0.276062 0.331818
0.033234 0.287140 0.344849
0.085846 0.314270 0.374451
0.180450 0.336670 0.390350
0.524261 0.349731 0.449951
0.595795 0.331696 0.471710
0.688263 0.330505 0.512207
0.784943 0.394318 0.565643
0.026276 0.306427 0.317932
0.028168 0.310364 0.323639
0.047119 0.326050 0.344330
0.120300 0.361267 0.384857
0.214081 0.408081 0.429901
0.547485 0.490356 0.525726
0.667328 0.480194 0.561188
0.759369 0.478912 0.589539
0.857422 0.494324 0.601959
0.030853 0.326660 0.318390
0.031494 0.327820 0.319580
0.033051 0.330658 0.322418
0.082153 0.354370 0.345276
0.210571 0.434662 0.425110
0.516724 0.573151 0.565125
0.700012 0.590759 0.597321
0.804657 0.592224 0.606506
0.930359 0.568237 0.575592
0.041779 0.338135 0.319855
0.042084 0.338013 0.319244
0.065216 0.349243 0.328430
0.128784 0.394775 0.371002
0.284760 0.500244 0.473999
0.533813 0.624054 0.592651
0.709961 0.664337 0.621613
0.835388 0.686707 0.605713
0.955414 0.691193 0.581848
0.059143 0.359680 0.327026
0.064606 0.362854 0.329041
0.103546 0.389984 0.352417
0.187714 0.455017 0.412750
0.339081 0.558472 0.512573
0.556915 0.671204 0.617096
0.723969 0.727509 0.638672
0.834717 0.750916 0.661407
0.945526 0.789886 0.624084
0.096649 0.415955 0.363678
0.126373 0.435791 0.380951
0.179688 0.476959 0.418182
0.263489 0.540649 0.477905
0.394440 0.629578 0.561401
0.580414 0.729858 0.651764
0.722595 0.801605 0.674042
0.854340 0.828796 0.719116
0.932434 0.866669 0.770996
0.030670 0.147034 0.254974
0.032013 0.156372 0.270782
0.035065 0.177216 0.306793
0.054016 0.183746 0.338593
0.112335 0.145386 0.335938
0.353333 0.118347 0.302277
0.409271 0.110870 0.296326
0.482697 0.125854 0.339569
0.572205 0.147675 0.404480
0.029480 0.173462 0.271362
0.030151 0.181793 0.284332
0.034058 0.202545 0.318329
0.054596 0.220551 0.359009
0.119537 0.200409 0.377319
0.374268 0.147186 0.331390
0.423737 0.121063 0.309143
0.495972 0.135010 0.351013
0.593109 0.185944 0.427002
0.026703 0.226227 0.304596
0.028320 0.233398 0.315552
0.032898 0.250427 0.342194
0.054840 0.274475 0.380554
0.132690 0.281342 0.395844
0.409332 0.301025 0.458588
0.484924 0.197052 0.370514
0.526947 0.160278 0.378906
0.657715 0.300995 0.501709
0.031860 0.289551 0.348999
0.033325 0.293579 0.353943
0.038269 0.304443 0.369232
0.062286 0.324646 0.399109
0.149353 0.350037 0.423218
0.355682 0.409424 0.502777
0.577026 0.364471 0.487976
0.632996 0.347748 0.506805
0.715515 0.412048 0.578217
0.046143 0.336151 0.371887
0.049316 0.340149 0.378601
0.066895 0.353271 0.400574
0.120239 0.377472 0.427673
0.175537 0.403229 0.450104
0.342255 0.475800 0.508453
0.629456 0.497528 0.566864
0.705078 0.486084 0.597778
0.784760 0.520813 0.649902
0.049835 0.353882 0.358215
0.051788 0.356293 0.361694
0.056885 0.362671 0.371124
0.114166 0.391266 0.403870
0.223022 0.456146 0.470306
0.368134 0.536102 0.546875
0.640778 0.595703 0.619354
0.755585 0.597198 0.663269
0.873413 0.593536 0.699982
0.053162 0.361115 0.351837
0.054230 0.362061 0.352783
0.056305 0.364227 0.355011
0.078888 0.376984 0.367462
0.180054 0.446259 0.436249
0.379639 0.571625 0.561615
0.632080 0.661407 0.654053
0.806061 0.686218 0.693909
0.918915 0.672485 0.684418
0.068481 0.382690 0.364319
0.073120 0.384705 0.365967
0.083008 0.389984 0.370148
0.148865 0.437714 0.415222
0.269196 0.526825 0.501556
0.447266 0.635651 0.608917
0.648773 0.716339 0.684845
0.809143 0.758148 0.716553
0.934143 0.784332 0.709076
0.094208 0.427185 0.392303
0.119690 0.443329 0.406677
0.162567 0.477081 0.437897
0.228912 0.530212 0.488434
0.340210 0.610260 0.565094
0.490265 0.701294 0.653900
0.654022 0.785217 0.720093
0.824921 0.836853 0.740997
0.924774 0.865143 0.804260
0.032837 0.187775 0.300476
0.033813 0.195801 0.312073
0.038483 0.216644 0.342560
0.050018 0.247955 0.389679
0.107758 0.239136 0.402405
0.193115 0.198639 0.416168
0.448425 0.188446 0.379120
0.495422 0.183014 0.373566
0.555939 0.203461 0.412537
0.032288 0.211670 0.316132
0.033630 0.218475 0.325378
0.038116 0.236267 0.351013
0.052338 0.268738 0.398590
0.114349 0.271912 0.416809
0.186249 0.249084 0.430054
0.468475 0.215607 0.405579
0.508026 0.197418 0.386658
0.571838 0.233582 0.431274
0.032410 0.257111 0.343903
0.034058 0.262329 0.351013
0.040131 0.276947 0.371735
0.057098 0.304657 0.413025
0.125031 0.321808 0.437683
0.209351 0.321136 0.462402
0.531433 0.338440 0.496613
0.537628 0.233612 0.418671
0.624115 0.329468 0.496796
0.040497 0.309601 0.375000
0.043335 0.313873 0.381195
0.050049 0.323547 0.395691
0.066864 0.342407 0.426392
0.136566 0.367554 0.455688
0.240448 0.391876 0.472992
0.559296 0.452698 0.571747
0.622009 0.388428 0.525787
0.678314 0.428680 0.567139
0.069916 0.361115 0.418671
0.071899 0.363342 0.421570
0.076996 0.369293 0.429199
0.086853 0.379730 0.443756
0.155426 0.407562 0.473175
0.254333 0.447571 0.499512
0.527252 0.533752 0.602478
0.679840 0.506897 0.598816
0.736969 0.526550 0.635437
0.079559 0.385223 0.413940
0.082336 0.388153 0.418732
0.089508 0.395538 0.431000
0.140564 0.420441 0.462006
0.212128 0.459534 0.500977
0.286713 0.503571 0.538879
0.512238 0.592621 0.623993
0.712524 0.604156 0.662903
0.801270 0.606537 0.703033
0.072754 0.388550 0.390686
0.075043 0.390625 0.393555
0.080078 0.395905 0.401215
0.106415 0.413696 0.423615
0.208771 0.480804 0.493561
0.368286 0.579529 0.592834
0.537476 0.650269 0.667358
0.730804 0.676178 0.705780
0.850128 0.683350 0.752319
0.077301 0.409882 0.401947
0.082489 0.412659 0.404785
0.089294 0.417725 0.409882
0.098602 0.425629 0.417938
0.187622 0.487762 0.478638
0.345306 0.596344 0.585815
0.547272 0.698120 0.689453
0.735352 0.749359 0.739288
0.899658 0.779419 0.783356
0.094238 0.462006 0.442810
0.105774 0.466370 0.446808
0.147583 0.489288 0.468567
0.210236 0.535583 0.512970
0.301514 0.602509 0.577881
0.431396 0.685608 0.658630
0.583893 0.763580 0.734558
0.746765 0.827789 0.786377
0.911652 0.868744 0.837585
0.037140 0.231903 0.346436
0.039398 0.239410 0.356354
0.045441 0.257019 0.379089
0.056580 0.279633 0.410278
0.110809 0.290436 0.430054
0.171906 0.287384 0.448822
0.439484 0.329712 0.509705
0.543671 0.289825 0.465363
0.570526 0.270660 0.451630
0.038300 0.250610 0.357452
0.040588 0.257294 0.366058
0.046936 0.273254 0.386749
0.059570 0.295502 0.417877
0.115173 0.309479 0.438263
0.181610 0.310699 0.455261
0.433380 0.360413 0.530945
0.558228 0.313080 0.481567
0.593628 0.312714 0.480804
0.042053 0.287598 0.378632
0.044128 0.292084 0.384430
0.051819 0.305145 0.402435
0.068176 0.325958 0.433258
0.123749 0.342590 0.452454
0.201935 0.354553 0.462646
0.411774 0.409668 0.552032
0.602570 0.393555 0.536835
0.631042 0.381165 0.529114
0.054749 0.331512 0.404480
0.057556 0.334869 0.409332
0.066162 0.344482 0.423889
0.082611 0.360229 0.449554
0.136444 0.379791 0.470764
0.217194 0.402008 0.484192
0.385620 0.460419 0.556793
0.638428 0.481354 0.592926
0.678894 0.462677 0.583954
0.082092 0.375061 0.436676
0.084625 0.377594 0.440186
0.090363 0.383301 0.448273
0.102997 0.395020 0.467438
0.155365 0.416077 0.489807
0.234955 0.449005 0.511688
0.388794 0.516113 0.566528
0.657166 0.564575 0.644928
0.724304 0.544739 0.641693
0.111267 0.413910 0.467590
0.114410 0.416656 0.472656
0.120697 0.422272 0.482574
0.152771 0.436493 0.496460
0.188049 0.455566 0.512817
0.263947 0.497253 0.549377
0.409393 0.566162 0.608490
0.662567 0.630371 0.692047
0.769440 0.616821 0.704041
0.104675 0.424255 0.452057
0.108521 0.427704 0.457397
0.116730 0.436127 0.470795
0.139893 0.454041 0.497711
0.230316 0.506256 0.553375
0.352051 0.576630 0.620148
0.459381 0.630005 0.670990
0.664856 0.685059 0.732269
0.813995 0.681854 0.763702
0.096375 0.448029 0.457458
0.103210 0.452118 0.462372
0.112335 0.459839 0.472229
0.125641 0.473114 0.489532
0.218781 0.533508 0.553436
0.357300 0.624847 0.646362
0.529938 0.711212 0.736267
0.671539 0.753754 0.788513
0.836670 0.761597 0.808075
0.099182 0.500916 0.495270
0.132141 0.514160 0.508423
0.170380 0.534973 0.528839
0.225128 0.572968 0.566101
0.309387 0.633087 0.625427
0.415558 0.700714 0.692352
0.546722 0.773102 0.764709
0.647461 0.830658 0.821686
0.857605 0.864746 0.853821
