src/assets/luts/ON1 Nature & Wildlife LUTs/CinematicX LUTs - 30 Free Cinematic LUTs - The Resolve Store 2022/Camuy - Rec709.cube
# Copyright: (C) Copyright 2022 The Resolve Store 
# Cannot be resold, shared or otherwise redistributed
TITLE "CinematicX (Rec.709)"
LUT_3D_SIZE 33
0.000793 0.000793 0.000793
0.008698 0.001617 0.002991
0.018280 0.003448 0.006134
0.032043 0.006134 0.010559
0.048981 0.009003 0.015228
0.069519 0.012268 0.020264
0.092865 0.016815 0.025909
0.118134 0.021637 0.031006
0.145569 0.027191 0.036469
0.172638 0.032440 0.041107
0.197662 0.037201 0.043701
0.221924 0.041290 0.044952
0.247131 0.045013 0.045746
0.272980 0.049316 0.046448
0.299103 0.053711 0.046631
0.326263 0.057465 0.046356
0.353699 0.061859 0.046234
0.381775 0.066254 0.045746
0.410248 0.071045 0.045105
0.439087 0.075562 0.044678
0.468079 0.080566 0.043945
0.497559 0.085419 0.043335
0.527466 0.090851 0.043091
0.557678 0.096222 0.042786
0.587830 0.101654 0.042938
0.618164 0.107239 0.043121
0.648865 0.113403 0.043671
0.679749 0.119904 0.044495
0.710693 0.126282 0.044983
0.741577 0.132538 0.045990
0.772705 0.138580 0.046814
0.803864 0.144348 0.047760
0.834961 0.150177 0.048492
0.003601 0.003876 0.003571
0.013885 0.005768 0.005951
0.025787 0.008759 0.009186
0.040192 0.012024 0.013062
0.058807 0.015717 0.018372
0.079681 0.019623 0.023285
0.102356 0.024780 0.028259
0.126556 0.030029 0.033051
0.153473 0.035980 0.038452
0.178497 0.041595 0.041962
0.202667 0.045990 0.043457
0.226837 0.050354 0.044220
0.252380 0.054199 0.044769
0.278870 0.058289 0.044830
0.305176 0.062012 0.044586
0.332031 0.066376 0.044525
0.359650 0.070831 0.043854
0.387726 0.075348 0.043091
0.416260 0.079865 0.042206
0.444824 0.084930 0.041473
0.473969 0.089844 0.040985
0.503296 0.095520 0.040771
0.532684 0.101440 0.040924
0.562195 0.107849 0.041260
0.592133 0.113922 0.041473
0.622375 0.119995 0.042114
0.652893 0.126617 0.042816
0.683502 0.133484 0.043610
0.714111 0.140350 0.044434
0.744843 0.147034 0.045166
0.776093 0.152863 0.046143
0.807037 0.159058 0.047028
0.838409 0.164429 0.048065
0.007355 0.008087 0.006592
0.019867 0.011444 0.010101
0.029572 0.014008 0.012421
0.045532 0.018127 0.016174
0.064972 0.023102 0.020844
0.086243 0.028198 0.025360
0.109558 0.034088 0.030029
0.134155 0.039734 0.034119
0.159851 0.045593 0.038300
0.184204 0.050903 0.040710
0.208282 0.055115 0.041931
0.233154 0.059143 0.042267
0.258636 0.063263 0.042267
0.285034 0.067383 0.042145
0.311890 0.071228 0.041565
0.338837 0.075409 0.041382
0.366425 0.079956 0.040588
0.394287 0.085052 0.039764
0.422302 0.090424 0.039307
0.450775 0.095490 0.039368
0.479370 0.101410 0.039093
0.508209 0.107849 0.039368
0.537445 0.114227 0.039673
0.566742 0.120972 0.040192
0.596436 0.127411 0.040741
0.626648 0.133881 0.041412
0.656891 0.140869 0.042328
0.687286 0.148010 0.043121
0.717834 0.154846 0.043793
0.748718 0.161469 0.044739
0.779968 0.167145 0.045593
0.810608 0.173767 0.046509
0.841309 0.180267 0.047363
0.014587 0.015778 0.010315
0.026001 0.017914 0.012543
0.035614 0.018951 0.013824
0.049957 0.022034 0.017792
0.069244 0.028625 0.022430
0.091553 0.036804 0.026154
0.116760 0.043976 0.029633
0.142212 0.050415 0.033112
0.167419 0.056061 0.035645
0.191498 0.060669 0.037170
0.215637 0.064758 0.037933
0.240723 0.069153 0.038452
0.266724 0.073578 0.038544
0.292999 0.077911 0.038330
0.319580 0.082550 0.038025
0.346405 0.087189 0.037781
0.373566 0.092377 0.037506
0.400879 0.098175 0.037384
0.428772 0.103729 0.037476
0.456970 0.109528 0.037750
0.485016 0.116150 0.037842
0.513794 0.122742 0.038361
0.542633 0.129669 0.038788
0.571960 0.136139 0.039368
0.601776 0.142517 0.039978
0.631775 0.149048 0.040802
0.661774 0.156342 0.041534
0.691895 0.163757 0.042480
0.722351 0.170563 0.043182
0.753387 0.176575 0.044128
0.784210 0.182953 0.045105
0.814636 0.189636 0.045837
0.845490 0.195801 0.046753
0.020630 0.023560 0.012756
0.029144 0.023041 0.011322
0.040192 0.024139 0.012939
0.054382 0.026001 0.015472
0.071930 0.032257 0.020233
0.093597 0.042542 0.023743
0.121399 0.053802 0.026428
0.148651 0.061951 0.029022
0.174316 0.068115 0.031189
0.199005 0.073059 0.032898
0.223938 0.077667 0.033722
0.249451 0.082611 0.034271
0.275269 0.087311 0.035126
0.301208 0.092316 0.035034
0.327423 0.097565 0.035400
0.353760 0.103149 0.035461
0.380615 0.109009 0.035583
0.407806 0.114655 0.035950
0.435730 0.120331 0.036224
0.463623 0.126587 0.036560
0.491699 0.133240 0.036835
0.520233 0.139740 0.037170
0.548981 0.146576 0.037933
0.578217 0.153107 0.038513
0.607971 0.159454 0.039337
0.637573 0.166534 0.040192
0.667542 0.173431 0.040863
0.697693 0.180237 0.041626
0.727875 0.187256 0.042542
0.758636 0.193481 0.043427
0.788940 0.200165 0.044312
0.819824 0.205963 0.045227
0.850311 0.212646 0.045959
0.017700 0.028748 0.011841
0.026123 0.027710 0.007843
0.037628 0.029907 0.008209
0.053528 0.032959 0.009583
0.074066 0.038757 0.013977
0.094940 0.047821 0.018402
0.122131 0.062775 0.022614
0.151215 0.074921 0.025116
0.177887 0.083893 0.026886
0.204254 0.090332 0.028564
0.230011 0.095551 0.029938
0.256348 0.100677 0.031311
0.282654 0.105621 0.031860
0.309082 0.110687 0.032562
0.335205 0.116211 0.033081
0.362122 0.121613 0.033356
0.389130 0.127075 0.033844
0.416473 0.132751 0.034119
0.443939 0.139008 0.034698
0.471405 0.145752 0.035126
0.499207 0.152435 0.035583
0.527466 0.158997 0.036072
0.556366 0.165222 0.036896
0.585480 0.171753 0.037659
0.614929 0.178253 0.038483
0.644409 0.185272 0.039062
0.674164 0.192108 0.040070
0.703766 0.199219 0.040771
0.734497 0.204956 0.041962
0.764893 0.211243 0.042694
0.795013 0.217957 0.043488
0.825134 0.224609 0.044220
0.855743 0.230621 0.045166
0.015137 0.035217 0.013000
0.023895 0.038971 0.010376
0.034485 0.040771 0.007751
0.052185 0.045013 0.006348
0.073669 0.050232 0.007080
0.094055 0.056702 0.009827
0.119110 0.069702 0.014618
0.148590 0.086334 0.018585
0.178528 0.099609 0.021973
0.207611 0.109314 0.024597
0.235748 0.116455 0.026855
0.263062 0.122040 0.028290
0.289764 0.127289 0.028992
0.316742 0.132477 0.029877
0.343628 0.137665 0.030701
0.370667 0.142792 0.031128
0.398071 0.147949 0.031799
0.425262 0.153778 0.032318
0.452606 0.160095 0.033051
0.480164 0.166290 0.033630
0.507996 0.172729 0.034241
0.536224 0.179047 0.035095
0.564941 0.185181 0.035797
0.593781 0.191833 0.036591
0.622803 0.198578 0.037506
0.651733 0.205688 0.038177
0.681427 0.212158 0.039185
0.711304 0.218475 0.039978
0.741638 0.224365 0.040863
0.771545 0.230927 0.041840
0.801483 0.237427 0.042542
0.831512 0.243774 0.043365
0.861877 0.249786 0.044067
0.011292 0.045532 0.018219
0.019684 0.048645 0.013336
0.030396 0.052490 0.008850
0.050049 0.057617 0.006378
0.075256 0.065491 0.007263
0.097046 0.071136 0.008453
0.118744 0.078705 0.009338
0.144318 0.093475 0.011963
0.175995 0.112061 0.016113
0.208496 0.126770 0.018646
0.239349 0.137634 0.022339
0.268738 0.145569 0.024323
0.296936 0.151733 0.025848
0.324615 0.156860 0.027313
0.351868 0.161804 0.028381
0.379303 0.166656 0.029419
0.406586 0.171906 0.030060
0.433899 0.177612 0.030914
0.461487 0.183350 0.031494
0.489319 0.189026 0.032593
0.517334 0.194794 0.033173
0.545593 0.200836 0.034210
0.573944 0.206970 0.034760
0.602570 0.213562 0.035706
0.631409 0.220123 0.036407
0.660400 0.226715 0.037415
0.689789 0.233063 0.038239
0.719543 0.239105 0.039215
0.749268 0.245209 0.039948
0.778687 0.251831 0.040771
0.808441 0.258026 0.041443
0.838715 0.263763 0.042236
0.869110 0.269379 0.042969
0.012421 0.056915 0.021973
0.017853 0.062195 0.018372
0.024841 0.065460 0.013306
0.044403 0.071106 0.008698
0.072998 0.081085 0.009613
0.099579 0.087341 0.010498
0.121277 0.092316 0.010071
0.143066 0.101135 0.011017
0.172241 0.119263 0.012848
0.206604 0.139771 0.015381
0.240967 0.156097 0.018646
0.272644 0.167938 0.020599
0.302734 0.176910 0.022675
0.331787 0.183563 0.024139
0.359741 0.188599 0.025848
0.387451 0.193329 0.027466
0.415009 0.198151 0.028900
0.442566 0.203217 0.029938
0.470398 0.208466 0.030701
0.498383 0.213745 0.031647
0.526367 0.219269 0.032288
0.554657 0.224823 0.033051
0.582947 0.230835 0.033875
0.611450 0.237000 0.034882
0.640411 0.242981 0.035675
0.669495 0.248962 0.036621
0.698853 0.254883 0.037537
0.728394 0.260681 0.038239
0.757416 0.267059 0.038879
0.786713 0.273315 0.039703
0.816498 0.279083 0.040314
0.846313 0.284790 0.041077
0.876434 0.290344 0.041748
0.011353 0.070221 0.029327
0.015106 0.074768 0.025024
0.019745 0.079987 0.020477
0.038116 0.087006 0.017639
0.066376 0.095703 0.012360
0.099487 0.103699 0.012695
0.125336 0.108856 0.013733
0.147095 0.114075 0.013794
0.171509 0.125488 0.015320
0.203613 0.147034 0.017670
0.239319 0.169434 0.019562
0.274139 0.186737 0.020294
0.306427 0.199371 0.021149
0.337036 0.208984 0.022491
0.366699 0.216553 0.024170
0.395050 0.222076 0.025909
0.422882 0.226868 0.027466
0.450562 0.231384 0.028870
0.478485 0.235992 0.029877
0.506805 0.240692 0.030762
0.535156 0.245544 0.031677
0.563538 0.250702 0.032654
0.592010 0.256134 0.033447
0.620880 0.261505 0.034180
0.649658 0.267090 0.034912
0.678772 0.272644 0.035858
0.707947 0.278198 0.036560
0.736816 0.284119 0.037109
0.766083 0.289825 0.037750
0.795593 0.295288 0.038696
0.825226 0.300781 0.039215
0.854889 0.306335 0.039886
0.884979 0.311401 0.040314
0.014343 0.087738 0.040863
0.016724 0.090393 0.038177
0.021484 0.094910 0.033356
0.030396 0.101624 0.022949
0.057678 0.110992 0.017242
0.098389 0.120880 0.016876
0.131378 0.127563 0.017242
0.155334 0.131989 0.019073
0.177734 0.138367 0.022186
0.203827 0.152618 0.023834
0.236938 0.175873 0.024658
0.272827 0.199036 0.024872
0.307739 0.217346 0.024872
0.340271 0.230927 0.024506
0.370972 0.241425 0.025482
0.400787 0.249634 0.026215
0.430145 0.256195 0.027557
0.458588 0.261169 0.028076
0.486572 0.265198 0.028961
0.514709 0.269348 0.030304
0.543213 0.273651 0.031189
0.571869 0.278259 0.031952
0.600525 0.283112 0.032684
0.629364 0.288025 0.033661
0.658417 0.292877 0.034515
0.687622 0.297882 0.035187
0.716705 0.303070 0.035767
0.745697 0.308380 0.036377
0.775085 0.313507 0.036896
0.804443 0.318695 0.037354
0.834198 0.323669 0.037842
0.863770 0.328888 0.038330
0.893555 0.333984 0.038727
0.016327 0.103882 0.051636
0.018433 0.106140 0.048340
0.022064 0.109955 0.043640
0.027527 0.116730 0.034729
0.052368 0.128204 0.024536
0.097168 0.140289 0.023712
0.139435 0.149323 0.026581
0.167816 0.154541 0.031311
0.190063 0.158295 0.034210
0.212341 0.165466 0.035187
0.238892 0.181702 0.035950
0.271423 0.205505 0.035156
0.306702 0.229065 0.033752
0.341003 0.247986 0.032532
0.373260 0.262390 0.031403
0.403870 0.273529 0.030914
0.434326 0.282471 0.031097
0.464478 0.289764 0.030762
0.493713 0.295349 0.030853
0.522125 0.299713 0.031311
0.550568 0.303589 0.031647
0.579254 0.307556 0.031830
0.608154 0.311707 0.032623
0.637329 0.315948 0.033508
0.666443 0.320343 0.033844
0.695831 0.324677 0.034180
0.725006 0.329224 0.034821
0.754333 0.333832 0.035126
0.783813 0.338501 0.035431
0.813354 0.343201 0.035553
0.842987 0.347900 0.035889
0.872528 0.352814 0.036438
0.901978 0.357819 0.036621
0.019623 0.120270 0.061127
0.021271 0.122345 0.058777
0.024475 0.126251 0.055420
0.032043 0.134888 0.048889
0.054169 0.147614 0.037476
0.099670 0.162781 0.037567
0.150085 0.174255 0.044586
0.183319 0.179932 0.050110
0.206635 0.182861 0.053864
0.227875 0.186066 0.054871
0.249115 0.194244 0.054535
0.274689 0.211578 0.052460
0.306091 0.235352 0.049713
0.340027 0.258575 0.046722
0.373199 0.277527 0.042755
0.405273 0.292480 0.039459
0.436249 0.304504 0.038300
0.467102 0.314453 0.037231
0.497864 0.322662 0.035828
0.528198 0.329254 0.034607
0.557587 0.334045 0.034149
0.586395 0.337891 0.033936
0.615479 0.341370 0.033783
0.644623 0.345062 0.034027
0.673889 0.348846 0.033997
0.703217 0.352753 0.034027
0.732697 0.356720 0.034241
0.762085 0.360962 0.034302
0.791779 0.365112 0.034088
0.821594 0.369171 0.034027
0.851379 0.373444 0.034332
0.881012 0.377838 0.034668
0.910736 0.382263 0.034698
0.023895 0.138397 0.071564
0.025177 0.140930 0.070007
0.027161 0.145447 0.067169
0.036255 0.156860 0.060791
0.058258 0.172546 0.055267
0.108734 0.189301 0.058899
0.169373 0.202606 0.072510
0.202728 0.208923 0.075867
0.226746 0.211853 0.079956
0.247559 0.213409 0.081146
0.266266 0.215973 0.079559
0.285980 0.224640 0.076355
0.310608 0.242157 0.071808
0.340210 0.264771 0.066833
0.372284 0.287231 0.061829
0.404205 0.306091 0.055969
0.436401 0.321991 0.050720
0.467773 0.335083 0.046844
0.499084 0.345917 0.043304
0.530518 0.354858 0.040802
0.561707 0.362244 0.039185
0.592285 0.367737 0.037720
0.622070 0.372070 0.036652
0.651154 0.375305 0.036194
0.680298 0.378693 0.035553
0.709839 0.382050 0.035156
0.739349 0.385590 0.035034
0.769196 0.389130 0.034973
0.799194 0.392700 0.034668
0.829132 0.396454 0.034546
0.859070 0.400269 0.034210
0.888977 0.404175 0.033905
0.919006 0.407990 0.033569
0.029205 0.159454 0.083374
0.032837 0.164093 0.083008
0.042450 0.173187 0.083008
0.055206 0.184265 0.083435
0.079285 0.201843 0.079742
0.130066 0.218872 0.087158
0.189240 0.232727 0.099182
0.224670 0.239471 0.102295
0.249207 0.243256 0.104523
0.269775 0.243988 0.107422
0.287445 0.244202 0.106232
0.303986 0.246063 0.103668
0.322510 0.255157 0.099152
0.345551 0.271912 0.092834
0.373199 0.293304 0.085358
0.403503 0.315063 0.077820
0.434753 0.334320 0.069855
0.466980 0.350922 0.062347
0.498718 0.364777 0.056458
0.530579 0.376465 0.051605
0.562714 0.386292 0.047913
0.594696 0.394348 0.044617
0.626160 0.400848 0.042175
0.656708 0.405640 0.040405
0.686340 0.409058 0.039062
0.716034 0.412018 0.038147
0.745758 0.415100 0.037415
0.775726 0.418213 0.036987
0.805725 0.421478 0.036499
0.835876 0.424866 0.035919
0.866028 0.428284 0.035248
0.896027 0.431915 0.034698
0.926208 0.435425 0.034119
0.038849 0.186920 0.099640
0.044098 0.191711 0.100647
0.060913 0.202942 0.105255
0.081238 0.216675 0.110260
0.117126 0.235504 0.112213
0.165222 0.253021 0.117828
0.211609 0.263947 0.126434
0.246674 0.270874 0.129517
0.272278 0.274902 0.131439
0.292267 0.276520 0.133514
0.310059 0.276215 0.134369
0.325684 0.275604 0.131927
0.340118 0.277130 0.127625
0.357788 0.286621 0.121094
0.379364 0.302338 0.112396
0.404907 0.321838 0.102997
0.434082 0.342804 0.093781
0.464508 0.361786 0.083618
0.496765 0.378967 0.074036
0.529083 0.393646 0.066345
0.561615 0.406281 0.059937
0.594208 0.417053 0.054840
0.626678 0.425903 0.050568
0.658997 0.433136 0.046875
0.690613 0.438782 0.044067
0.721405 0.442657 0.042053
0.751343 0.445435 0.040771
0.781403 0.448303 0.039490
0.811554 0.451294 0.038391
0.841827 0.454254 0.037445
0.872070 0.457458 0.036621
0.902588 0.460510 0.035736
0.933136 0.463654 0.034851
0.067383 0.221375 0.124359
0.076324 0.227814 0.127869
0.092194 0.238922 0.131775
0.115601 0.254272 0.134186
0.152618 0.273804 0.137543
0.196747 0.286530 0.146942
0.240204 0.296722 0.154816
0.272369 0.302948 0.157501
0.296539 0.307037 0.157196
0.315735 0.309509 0.159821
0.332550 0.309723 0.161560
0.347839 0.308380 0.160492
0.361237 0.307465 0.156494
0.374573 0.308868 0.150635
0.390717 0.317017 0.142120
0.411163 0.331573 0.131927
0.435760 0.349915 0.121033
0.463837 0.369751 0.109802
0.493805 0.388641 0.098083
0.525970 0.406128 0.085968
0.559052 0.421844 0.075714
0.592041 0.435364 0.067719
0.625366 0.446960 0.061340
0.658600 0.456696 0.056030
0.691650 0.464661 0.051483
0.724304 0.471100 0.047668
0.755920 0.475739 0.044708
0.786560 0.478851 0.042664
0.816772 0.481598 0.041077
0.847260 0.484344 0.039520
0.878021 0.487030 0.038116
0.908813 0.489807 0.036896
0.940002 0.492462 0.035614
0.106018 0.262238 0.155823
0.121002 0.271027 0.160309
0.140503 0.282745 0.163330
0.163452 0.296356 0.164276
0.188080 0.308716 0.166290
0.228088 0.319366 0.175110
0.268921 0.329041 0.182617
0.299072 0.334991 0.185272
0.320465 0.338684 0.185181
0.338959 0.341187 0.185638
0.355225 0.342224 0.187744
0.370178 0.341003 0.188934
0.382843 0.339294 0.186066
0.395020 0.338165 0.180939
0.407532 0.339447 0.173340
0.422241 0.346039 0.163055
0.441742 0.359467 0.151093
0.465302 0.376648 0.138275
0.492493 0.395905 0.125702
0.522156 0.414795 0.111572
0.554565 0.432892 0.096893
0.588409 0.449432 0.084167
0.622253 0.463867 0.075073
0.656433 0.476379 0.068054
0.690491 0.486969 0.061554
0.724335 0.495697 0.055878
0.757446 0.502899 0.050934
0.789917 0.508484 0.047028
0.821472 0.512207 0.044098
0.852448 0.514832 0.041931
0.883545 0.517334 0.039886
0.914795 0.519836 0.037903
0.945984 0.522430 0.036316
0.161591 0.310669 0.186829
0.170715 0.317688 0.188019
0.182098 0.325226 0.188629
0.203400 0.334869 0.190918
0.231598 0.344116 0.197205
0.264465 0.353088 0.204651
0.298950 0.361206 0.210968
0.323456 0.365692 0.212677
0.345612 0.369141 0.212494
0.362823 0.371368 0.211090
0.377594 0.372711 0.212860
0.391907 0.372314 0.214844
0.404755 0.370667 0.215057
0.415985 0.367950 0.210449
0.426758 0.366608 0.203766
0.438202 0.367798 0.194672
0.451965 0.373627 0.182678
0.470795 0.386414 0.168732
0.493439 0.402649 0.154053
0.520264 0.421387 0.139587
0.550110 0.440430 0.124084
0.583008 0.459167 0.107117
0.617767 0.476593 0.092438
0.652466 0.491974 0.082520
0.687469 0.505493 0.074554
0.722321 0.516968 0.066803
0.756592 0.526581 0.059967
0.790741 0.534454 0.053833
0.824219 0.540863 0.048828
0.856781 0.545227 0.044891
0.888702 0.548096 0.041809
0.920135 0.550446 0.039337
0.951508 0.552887 0.036896
0.203644 0.354126 0.211029
0.210388 0.359344 0.210785
0.222961 0.363892 0.213409
0.244934 0.370087 0.219360
0.272400 0.377716 0.227020
0.298523 0.384338 0.232697
0.324951 0.390594 0.237457
0.350830 0.395233 0.239258
0.370575 0.398376 0.239258
0.385803 0.400543 0.238220
0.401031 0.401459 0.237183
0.413849 0.401794 0.239532
0.426208 0.400635 0.240723
0.437500 0.398407 0.239441
0.447327 0.394928 0.233765
0.457062 0.393555 0.225403
0.467896 0.394897 0.214691
0.480621 0.399902 0.201080
0.498962 0.411987 0.185669
0.521515 0.427856 0.169250
0.548462 0.446503 0.153076
0.578491 0.465729 0.135803
0.611786 0.485016 0.117188
0.647644 0.503510 0.101196
0.683197 0.520050 0.090118
0.719086 0.534607 0.080719
0.754974 0.546967 0.071686
0.790314 0.557343 0.063385
0.825104 0.565887 0.056183
0.859406 0.572906 0.049805
0.892609 0.578369 0.044373
0.924774 0.581573 0.040771
0.956543 0.583771 0.037842
0.246765 0.391754 0.238617
0.255798 0.394409 0.241272
0.263733 0.396851 0.243652
0.288025 0.403137 0.250061
0.308685 0.408752 0.255737
0.330505 0.414062 0.259979
0.355743 0.419525 0.263580
0.377014 0.423737 0.265594
0.395691 0.426422 0.265259
0.410522 0.428436 0.264374
0.424500 0.429871 0.262512
0.437164 0.430176 0.264069
0.448669 0.429413 0.266357
0.459686 0.427307 0.266724
0.469421 0.424408 0.263184
0.478088 0.420441 0.256744
0.487030 0.418945 0.246552
0.497284 0.420441 0.234467
0.509705 0.425293 0.219513
0.527466 0.436829 0.202240
0.549927 0.452606 0.184052
0.576874 0.471436 0.165955
0.607330 0.491241 0.146820
0.641449 0.511444 0.126068
0.678406 0.531189 0.109375
0.715424 0.548889 0.097321
0.752350 0.564209 0.086212
0.788940 0.577332 0.075684
0.825012 0.588409 0.066101
0.860077 0.597656 0.057709
0.894501 0.605164 0.049957
0.928070 0.611145 0.043579
0.960724 0.615082 0.038757
0.292786 0.424805 0.269867
0.300812 0.427094 0.272217
0.307922 0.429199 0.274353
0.325256 0.433563 0.278809
0.342987 0.438171 0.283325
0.364258 0.443024 0.287079
0.385620 0.447540 0.289948
0.405334 0.451416 0.291901
0.419952 0.453827 0.291992
0.435944 0.455811 0.290955
0.449127 0.456970 0.288971
0.461151 0.457581 0.289032
0.472137 0.457245 0.291840
0.482574 0.455780 0.293213
0.492157 0.452637 0.291656
0.500549 0.449066 0.286285
0.508331 0.445312 0.278290
0.516724 0.444122 0.266846
0.526611 0.445892 0.253204
0.538818 0.451141 0.236420
0.556335 0.462555 0.217651
0.578949 0.478485 0.197449
0.606537 0.497742 0.177399
0.638062 0.518097 0.156067
0.673370 0.539062 0.134277
0.711121 0.559631 0.117920
0.749298 0.578125 0.104309
0.786926 0.594238 0.091278
0.824066 0.608063 0.079376
0.860382 0.619751 0.068390
0.895660 0.629364 0.058350
0.930023 0.637207 0.049652
0.963593 0.643524 0.042328
0.333344 0.454773 0.298981
0.340271 0.456665 0.300934
0.347748 0.458710 0.303009
0.362488 0.462341 0.306824
0.377838 0.466370 0.310760
0.396301 0.470520 0.313995
0.412872 0.474030 0.316254
0.431610 0.477539 0.318024
0.446106 0.479797 0.317780
0.460480 0.481873 0.317108
0.472992 0.483368 0.315582
0.485046 0.484314 0.314026
0.495697 0.484222 0.316406
0.505676 0.483398 0.318329
0.514832 0.481140 0.317719
0.523071 0.478027 0.314758
0.530487 0.474304 0.307281
0.537476 0.470764 0.297729
0.545380 0.469757 0.284851
0.555237 0.471802 0.269440
0.567596 0.476959 0.251678
0.585785 0.488678 0.231476
0.609375 0.504913 0.210175
0.638000 0.524597 0.188049
0.670898 0.545654 0.164551
0.706940 0.567444 0.143311
0.745422 0.588776 0.126526
0.784454 0.608154 0.110565
0.822571 0.624908 0.096161
0.859985 0.639191 0.082581
0.896332 0.651184 0.069885
0.931519 0.661133 0.058685
0.965729 0.669312 0.048553
0.372650 0.483154 0.327484
0.376160 0.484192 0.328522
0.382477 0.485931 0.330353
0.393768 0.488800 0.333282
0.409119 0.492554 0.336914
0.425354 0.495972 0.339355
0.438995 0.498901 0.341217
0.455750 0.502289 0.342834
0.470276 0.504578 0.342590
0.484222 0.506897 0.341919
0.496643 0.508484 0.340424
0.507477 0.510040 0.339539
0.517670 0.510620 0.339355
0.527008 0.510162 0.340881
0.535736 0.508820 0.341095
0.543610 0.506012 0.338104
0.550995 0.502991 0.334351
0.557678 0.498993 0.325348
0.564819 0.495575 0.315094
0.573120 0.494720 0.301361
0.583649 0.497040 0.285248
0.596893 0.502563 0.266571
0.616455 0.515106 0.245270
0.641083 0.531982 0.222382
0.671326 0.552429 0.197418
0.705170 0.574158 0.172852
0.741943 0.596893 0.153046
0.780914 0.618896 0.135284
0.820953 0.638916 0.116699
0.859406 0.655975 0.100555
0.896790 0.670471 0.085114
0.932800 0.682678 0.070923
0.968323 0.693054 0.057831
0.402161 0.508087 0.352295
0.407196 0.509491 0.353699
0.412933 0.511017 0.355194
0.422058 0.513428 0.357574
0.437012 0.517090 0.360962
0.447235 0.519714 0.362915
0.463257 0.522858 0.364349
0.478088 0.526062 0.365845
0.491058 0.528656 0.365906
0.503448 0.530884 0.365143
0.515442 0.532776 0.363342
0.526672 0.534180 0.361206
0.535828 0.535095 0.360596
0.545288 0.535278 0.360016
0.553833 0.534241 0.360046
0.562012 0.532837 0.359283
0.569550 0.530273 0.356201
0.576843 0.527069 0.351196
0.583984 0.523346 0.342224
0.591797 0.519928 0.331451
0.601013 0.519836 0.317169
0.612366 0.522522 0.300323
0.627075 0.529083 0.280914
0.648224 0.542419 0.258484
0.674927 0.560333 0.233917
0.706360 0.581299 0.207123
0.741150 0.603973 0.183807
0.778656 0.627167 0.164093
0.818481 0.649689 0.143860
0.859131 0.670105 0.123413
0.897369 0.687347 0.104858
0.934174 0.702057 0.087341
0.970825 0.714905 0.071472
0.418304 0.530853 0.373230
0.423431 0.532166 0.374481
0.428497 0.533508 0.375763
0.436066 0.535461 0.377625
0.452179 0.539307 0.381226
0.462646 0.542053 0.383392
0.478821 0.545654 0.385712
0.492493 0.548401 0.386536
0.506470 0.551117 0.386810
0.519684 0.553589 0.386322
0.530914 0.555573 0.384979
0.541809 0.556946 0.382111
0.551971 0.557983 0.379639
0.561218 0.558807 0.378876
0.570374 0.558960 0.378174
0.578979 0.558014 0.377716
0.586792 0.556244 0.375458
0.594543 0.554016 0.371857
0.602264 0.551056 0.366638
0.610077 0.548004 0.357697
0.618805 0.545135 0.346954
0.629272 0.545807 0.332550
0.642334 0.549072 0.315430
0.659271 0.556854 0.295624
0.682220 0.571167 0.272308
0.710510 0.589874 0.244720
0.743042 0.611603 0.218079
0.778809 0.635071 0.196136
0.817474 0.658844 0.175568
0.857727 0.681519 0.152435
0.897888 0.701935 0.129669
0.936249 0.719391 0.108459
0.972870 0.734863 0.091248
0.423767 0.550415 0.389008
0.429810 0.551910 0.390656
0.436584 0.553650 0.392517
0.444519 0.555756 0.394684
0.461304 0.559784 0.398712
0.472351 0.562561 0.401093
0.487335 0.565887 0.403168
0.502167 0.569275 0.405151
0.517487 0.572449 0.406311
0.530396 0.574768 0.405579
0.544067 0.577179 0.404572
0.555023 0.578979 0.402466
0.565857 0.580414 0.399231
0.575745 0.581757 0.395874
0.585083 0.582214 0.394684
0.594147 0.582275 0.393951
0.602692 0.581482 0.392487
0.610992 0.580048 0.389954
0.619080 0.578064 0.386047
0.627350 0.575623 0.380585
0.636414 0.573273 0.372589
0.646729 0.571350 0.362457
0.658844 0.572479 0.348480
0.673920 0.576813 0.331329
0.693207 0.586243 0.310547
