src/assets/luts/ON1 Nature & Wildlife LUTs/CinematicX LUTs - 30 Free Cinematic LUTs - The Resolve Store 2022/Colorado - Rec709.cube
# Copyright: (C) Copyright 2022 The Resolve Store 
# Cannot be resold, shared or otherwise redistributed
TITLE "CinematicX (Rec.709)"
LUT_3D_SIZE 9
0.000000 0.000000 0.000000
0.052032 0.004456 0.002380
0.192291 0.014282 0.002106
0.325317 0.019470 0.001862
0.442932 0.019867 0.001617
0.545258 0.026642 0.002930
0.645172 0.044434 0.003601
0.744354 0.065399 0.005157
0.840027 0.089264 0.007599
0.008850 0.063873 0.010468
0.103760 0.077789 0.006226
0.242523 0.105835 0.000000
0.365875 0.113007 0.000000
0.474609 0.117279 0.000092
0.577606 0.114471 0.001068
0.675537 0.117859 0.002045
0.770050 0.136993 0.004486
0.863434 0.170990 0.008270
0.096436 0.167786 0.012238
0.165131 0.175751 0.010834
0.265259 0.216095 0.003052
0.391754 0.243744 0.000000
0.502960 0.249359 0.000244
0.604126 0.253723 0.001923
0.700836 0.263123 0.004578
0.796356 0.275940 0.007782
0.884216 0.294220 0.012970
0.213043 0.267853 0.017609
0.251801 0.274994 0.015533
0.312897 0.310150 0.009979
0.414093 0.354950 0.004913
0.518188 0.379395 0.003021
0.615814 0.386108 0.004333
0.715149 0.390442 0.007141
0.813019 0.396912 0.010986
0.898773 0.405457 0.018066
0.313934 0.367615 0.047516
0.348999 0.374573 0.033905
0.395111 0.394470 0.025269
0.452576 0.451385 0.017120
0.537750 0.475494 0.014252
0.630096 0.498688 0.011169
0.722198 0.508057 0.010529
0.821442 0.512787 0.013336
0.909058 0.514984 0.020264
0.407135 0.458923 0.156311
0.437592 0.465515 0.131714
0.477509 0.478699 0.081207
0.514313 0.519104 0.039917
0.567535 0.567139 0.032379
0.647797 0.583588 0.031036
0.737793 0.607910 0.022461
0.830872 0.621033 0.017029
0.917664 0.622498 0.021515
0.486115 0.541992 0.268127
0.513580 0.548218 0.250519
0.548187 0.558228 0.223541
0.581055 0.584564 0.166779
0.614410 0.631500 0.067169
0.669525 0.673981 0.049835
0.754608 0.689301 0.045715
0.847748 0.716522 0.031616
0.927612 0.725677 0.023682
0.553131 0.623779 0.380402
0.578094 0.630402 0.368469
0.609985 0.640442 0.351196
0.644775 0.656860 0.320709
0.673096 0.691345 0.254608
0.705933 0.742401 0.129883
0.768829 0.784424 0.060760
0.862396 0.804474 0.079468
0.933289 0.823120 0.069855
0.613495 0.714752 0.492401
0.637360 0.723419 0.485565
0.665009 0.736023 0.474121
0.697449 0.752594 0.455902
0.731140 0.777252 0.416016
0.759216 0.819733 0.323547
0.793579 0.868652 0.175262
0.851013 0.900665 0.071747
0.927124 0.905121 0.266541
0.001923 0.001923 0.001923
0.032135 0.008240 0.018433
0.190521 0.004913 0.019958
0.331024 0.000000 0.017212
0.441772 0.000000 0.020599
0.544098 0.002441 0.019745
0.647217 0.012848 0.022064
0.748505 0.038239 0.034576
0.843811 0.069275 0.051147
0.004089 0.076416 0.060425
0.062988 0.092102 0.060730
0.251312 0.094482 0.049164
0.386108 0.048859 0.018799
0.489532 0.020996 0.010925
0.582794 0.036163 0.013733
0.680054 0.069153 0.022583
0.774292 0.102264 0.035431
0.866638 0.136932 0.051483
0.004272 0.174652 0.057648
0.100586 0.183777 0.037811
0.256561 0.219391 0.035858
0.400299 0.241608 0.047546
0.517487 0.233002 0.028107
0.619019 0.226562 0.026367
0.713531 0.231598 0.032654
0.805237 0.249115 0.046539
0.887390 0.279449 0.075684
0.159729 0.266113 0.027161
0.216034 0.274567 0.020111
0.297211 0.300323 0.009308
0.410156 0.356873 0.008118
0.522797 0.379089 0.028778
0.622559 0.381317 0.051392
0.722534 0.383179 0.062164
0.819427 0.388733 0.071869
0.900513 0.399780 0.096924
0.285706 0.364227 0.075928
0.324097 0.372375 0.059784
0.383423 0.389221 0.029144
0.445221 0.447632 0.017181
0.535400 0.476959 0.025330
0.631531 0.498962 0.046509
0.725159 0.506287 0.071869
0.825500 0.509644 0.085297
0.910400 0.512207 0.106750
0.387787 0.456421 0.179962
0.420532 0.463776 0.163544
0.465820 0.476196 0.130493
0.509552 0.512726 0.062042
0.562866 0.566437 0.037201
0.645172 0.584442 0.054047
0.737885 0.608490 0.069489
0.832275 0.620300 0.087463
0.918884 0.621033 0.105255
0.471710 0.540253 0.284119
0.500153 0.547028 0.270447
0.537994 0.557129 0.249146
0.576447 0.579437 0.210419
0.611145 0.626923 0.138489
0.665009 0.673553 0.067993
0.751831 0.689911 0.083618
0.847015 0.717102 0.100464
0.928101 0.725311 0.103333
0.542175 0.622711 0.391510
0.568390 0.629669 0.381622
0.601196 0.639893 0.366547
0.639832 0.654572 0.343140
0.672211 0.686798 0.291992
0.704163 0.738647 0.206177
0.764648 0.784088 0.100098
0.860443 0.804810 0.146271
0.932953 0.823425 0.146698
0.604034 0.713257 0.502563
0.629669 0.722473 0.497162
0.658936 0.735443 0.487091
0.692596 0.752441 0.470673
0.729431 0.775391 0.439972
0.760406 0.816193 0.366547
0.793549 0.866455 0.254333
0.847931 0.900330 0.161621
0.926056 0.906158 0.323730
0.007538 0.012085 0.028015
0.012848 0.021271 0.115997
0.157104 0.027313 0.112122
0.295807 0.013275 0.118195
0.423584 0.003876 0.129425
0.529938 0.004913 0.136475
0.629883 0.009552 0.140808
0.727203 0.017242 0.141632
0.820160 0.027405 0.140503
0.011383 0.093201 0.128113
0.012451 0.107025 0.154205
0.197479 0.112244 0.167908
0.350922 0.048523 0.148071
0.466766 0.003998 0.134644
0.560730 0.010529 0.135284
0.653168 0.020721 0.137268
0.746887 0.036255 0.139069
0.843781 0.062988 0.144226
0.003235 0.199005 0.184601
0.000000 0.210114 0.193329
0.209442 0.227905 0.212219
0.394867 0.240356 0.217438
0.516632 0.226807 0.199219
0.621307 0.202271 0.181335
0.716797 0.174805 0.165588
0.807373 0.174316 0.154419
0.889038 0.211792 0.159790
0.013977 0.277863 0.174805
0.048859 0.287964 0.168976
0.239166 0.303131 0.171387
0.394135 0.360870 0.207397
0.515991 0.384216 0.232208
0.622772 0.381439 0.222870
0.727753 0.375702 0.200714
0.828491 0.373535 0.181946
0.905182 0.385651 0.191101
0.199768 0.362518 0.162079
0.249237 0.370361 0.158630
0.345245 0.392487 0.157928
0.425385 0.434021 0.161682
0.524231 0.481079 0.197662
0.627594 0.503662 0.224060
0.728882 0.504913 0.201965
0.832367 0.504669 0.192078
0.914246 0.507233 0.210175
0.326630 0.445496 0.205688
0.367737 0.454224 0.199432
0.435150 0.472778 0.185059
0.495636 0.500000 0.161713
0.551697 0.562134 0.134247
0.639862 0.587036 0.130127
0.737854 0.610535 0.177917
0.836884 0.618805 0.179626
0.922180 0.618317 0.208191
0.432251 0.531647 0.299561
0.466461 0.540558 0.292877
0.511749 0.553314 0.278534
0.563873 0.571442 0.253815
0.604950 0.617279 0.209229
0.657745 0.672424 0.151062
0.747681 0.691223 0.141968
0.847931 0.718201 0.170959
0.929596 0.724487 0.193665
0.514404 0.617401 0.402161
0.545441 0.625641 0.396362
0.582184 0.636993 0.385620
0.626160 0.651947 0.368011
0.668243 0.679443 0.333557
0.700806 0.731384 0.270874
0.758301 0.782745 0.198059
0.857513 0.805389 0.205048
0.932587 0.824036 0.213959
0.585999 0.709686 0.511078
0.612732 0.718781 0.507446
0.645447 0.732361 0.500092
0.681824 0.750275 0.486755
0.723328 0.772797 0.464783
0.760315 0.809845 0.410919
0.793488 0.862000 0.324097
0.844513 0.899170 0.257416
0.925079 0.908386 0.377991
0.012360 0.035492 0.131622
0.026794 0.047791 0.171509
0.128632 0.059113 0.194000
0.254028 0.080902 0.199829
0.377411 0.064423 0.214355
0.496338 0.016693 0.221497
0.599060 0.016571 0.234070
0.700409 0.022644 0.241638
0.800323 0.031525 0.246643
0.024902 0.110687 0.172455
0.028046 0.120850 0.199890
0.131073 0.136536 0.238342
0.282867 0.128815 0.234863
0.401398 0.094421 0.231720
0.519867 0.021240 0.230591
0.621246 0.019592 0.237335
0.722046 0.031464 0.243805
0.826172 0.055359 0.256409
0.016205 0.217712 0.255219
0.016571 0.225677 0.273315
0.038849 0.246002 0.305542
0.343079 0.253937 0.320038
0.483154 0.221527 0.306305
0.603455 0.171478 0.292175
0.703613 0.118652 0.279510
0.793060 0.116119 0.271759
0.878601 0.168091 0.282654
0.007172 0.321320 0.307159
0.001221 0.327667 0.312897
0.023560 0.349548 0.334229
0.355652 0.369751 0.366852
0.514587 0.384674 0.376770
0.624298 0.377075 0.362366
0.724731 0.369110 0.347412
0.825165 0.361572 0.328583
0.900299 0.372253 0.327515
0.031403 0.390839 0.307373
0.043762 0.395355 0.306519
0.205353 0.402466 0.309937
0.366119 0.421783 0.328430
0.507141 0.481689 0.370728
0.619598 0.507568 0.385284
0.722015 0.507568 0.376068
0.829590 0.504456 0.356049
0.912292 0.503448 0.347260
0.202606 0.457672 0.319153
0.252686 0.462646 0.319061
0.352264 0.478668 0.324432
0.448212 0.499420 0.334320
0.527496 0.542542 0.344879
0.622711 0.587677 0.363617
0.727020 0.616241 0.378906
0.833344 0.619965 0.361847
0.920990 0.616516 0.351013
0.348053 0.533508 0.361694
0.387848 0.539581 0.360687
0.460480 0.556213 0.360840
0.528107 0.574005 0.360168
0.586151 0.598572 0.354462
0.643707 0.661011 0.347107
0.734741 0.692810 0.345673
0.842224 0.720459 0.361023
0.928284 0.723663 0.336914
0.462341 0.614563 0.426544
0.495483 0.620697 0.423248
0.546387 0.634521 0.420532
0.599792 0.651733 0.415100
0.652863 0.671661 0.404022
0.695892 0.717743 0.374725
0.750427 0.777344 0.338043
0.852020 0.805695 0.319122
0.931274 0.824554 0.339050
0.554749 0.705414 0.519592
0.582855 0.712921 0.517883
0.620178 0.726898 0.514221
0.663300 0.746582 0.505981
0.709930 0.770599 0.491852
0.757385 0.801971 0.457703
0.793610 0.855042 0.393982
0.840271 0.897034 0.338409
0.923309 0.909271 0.477081
0.027985 0.068604 0.200012
0.053802 0.079315 0.214050
0.105896 0.091461 0.241486
0.235107 0.111237 0.265198
0.341919 0.131531 0.274353
0.444977 0.130554 0.294464
0.553833 0.093811 0.306763
0.661591 0.037567 0.316559
0.764313 0.039978 0.326538
0.041199 0.131470 0.224823
0.045044 0.141357 0.249054
0.088409 0.153656 0.281158
0.258148 0.176758 0.308563
0.356476 0.158478 0.293335
0.459259 0.155029 0.308502
0.570496 0.116638 0.317932
0.679626 0.045349 0.325226
0.791321 0.047577 0.335022
0.049866 0.228119 0.300232
0.051819 0.236847 0.312073
0.057373 0.251556 0.337494
0.282257 0.284668 0.384918
0.425049 0.269501 0.380402
0.525360 0.244598 0.375336
0.629517 0.184662 0.361145
0.727692 0.062256 0.341278
0.860443 0.143463 0.366913
0.015106 0.344757 0.377655
0.012024 0.351532 0.388062
0.012817 0.378052 0.426208
0.272003 0.392639 0.450836
0.476410 0.409668 0.472504
0.592041 0.389343 0.462708
0.706329 0.359985 0.449188
0.815643 0.339050 0.426361
0.892792 0.357605 0.426117
0.012573 0.446655 0.433929
0.005615 0.452942 0.440002
0.020630 0.466492 0.454407
0.289062 0.478424 0.475220
0.478943 0.495605 0.503265
0.612366 0.510834 0.515076
0.719879 0.505737 0.502960
0.826233 0.497650 0.478790
0.904877 0.499237 0.469269
0.133881 0.512421 0.449982
0.156525 0.510834 0.446655
0.253510 0.514771 0.449158
0.356689 0.516693 0.455261
0.478149 0.531006 0.473511
0.602631 0.585114 0.509766
0.716827 0.618805 0.520782
0.828369 0.620331 0.500519
0.916046 0.616699 0.484924
0.271271 0.560303 0.455505
0.299194 0.561279 0.454163
0.367981 0.567505 0.456055
0.449707 0.578369 0.466125
0.535217 0.596100 0.481873
0.619324 0.640228 0.493835
0.716400 0.689423 0.506134
0.834229 0.721985 0.505096
0.924072 0.724091 0.486725
0.394470 0.629852 0.490723
0.427002 0.633331 0.490570
0.482544 0.642303 0.492950
0.544403 0.655701 0.499481
0.611725 0.675171 0.507233
0.676025 0.703644 0.507629
0.739380 0.766174 0.497620
0.840515 0.802124 0.488464
0.926880 0.823700 0.495972
0.509705 0.717896 0.557159
0.539825 0.724152 0.557739
0.580170 0.734375 0.557770
0.627045 0.750854 0.557861
0.680969 0.773773 0.557739
0.741760 0.801300 0.550110
0.794983 0.843933 0.525146
0.841278 0.891022 0.501068
0.923004 0.914062 0.541748
0.060516 0.104797 0.247131
0.084900 0.114441 0.259247
0.122009 0.130096 0.282410
0.219757 0.151733 0.321747
0.332031 0.160675 0.328461
0.418671 0.176270 0.341370
0.509338 0.184021 0.365601
0.610809 0.182770 0.386230
0.722687 0.163483 0.403931
0.060730 0.159363 0.281433
0.072144 0.168335 0.296906
0.108307 0.183105 0.319855
0.222168 0.213684 0.360779
0.361176 0.217072 0.371613
0.430573 0.200012 0.356720
0.521454 0.206177 0.378937
0.623138 0.203125 0.397095
0.742889 0.194855 0.418121
0.076324 0.247467 0.338501
0.078857 0.255280 0.350525
0.084473 0.268829 0.373810
0.193207 0.291229 0.414917
0.403992 0.327637 0.454346
0.492950 0.294098 0.433899
0.566742 0.263947 0.425415
0.652344 0.231628 0.419220
0.792816 0.264465 0.453552
0.063446 0.356781 0.427917
0.064484 0.363190 0.438416
0.064056 0.374786 0.455688
0.209961 0.403351 0.493683
0.428558 0.433777 0.523895
0.544220 0.428040 0.526611
0.636383 0.412720 0.525665
0.743561 0.384888 0.512543
0.854767 0.385162 0.510345
0.013458 0.466797 0.496063
0.007324 0.473022 0.503845
0.001617 0.487518 0.523926
0.291412 0.507965 0.560150
0.429047 0.518982 0.574310
0.579376 0.535980 0.594391
0.676697 0.525208 0.591766
0.795319 0.500153 0.570190
0.889618 0.497559 0.556732
0.126251 0.559357 0.552368
0.153992 0.560822 0.555084
0.182159 0.565033 0.560394
0.309601 0.580963 0.581360
0.437378 0.584198 0.590759
0.576233 0.598450 0.615295
0.698242 0.619995 0.634460
0.817139 0.617096 0.614502
0.906677 0.613037 0.595764
0.256897 0.617462 0.570251
0.272766 0.617279 0.568817
0.329407 0.620483 0.571381
0.398712 0.621002 0.574615
0.482025 0.621521 0.581482
0.578674 0.632477 0.596649
0.691071 0.683624 0.632324
0.822418 0.721985 0.631958
0.918579 0.724365 0.612671
0.360046 0.665802 0.578796
0.380493 0.666168 0.577545
0.423370 0.669556 0.579468
0.475769 0.674133 0.585724
0.547760 0.683105 0.598572
0.625732 0.701111 0.614441
0.712372 0.746643 0.629913
0.821472 0.797211 0.626892
0.921478 0.822571 0.621094
0.468262 0.742188 0.618408
0.491638 0.745667 0.619476
0.528076 0.752838 0.622894
0.574799 0.764038 0.629639
0.633514 0.781342 0.640350
0.699524 0.805695 0.651825
0.775238 0.837158 0.649445
0.838196 0.883392 0.630463
0.918701 0.910950 0.644897
0.096954 0.141510 0.292938
0.119232 0.150818 0.304138
0.148102 0.168121 0.325623
0.195587 0.193024 0.363007
0.345184 0.217041 0.407257
0.422058 0.214691 0.397736
0.494049 0.226898 0.411194
0.579803 0.242126 0.439880
0.671448 0.253906 0.464874
0.089294 0.192505 0.331726
0.107971 0.199280 0.340302
0.141785 0.214203 0.359375
0.190277 0.241302 0.395233
0.364838 0.281342 0.449371
0.441345 0.252136 0.425751
0.506104 0.250549 0.426636
0.590546 0.263733 0.452667
0.684692 0.279327 0.478729
0.099213 0.270142 0.381897
0.102020 0.278473 0.393829
0.112579 0.292389 0.413208
0.163330 0.308960 0.441345
0.377197 0.364166 0.503632
0.492401 0.366516 0.511871
0.548615 0.316711 0.479523
0.612000 0.293427 0.475800
0.724640 0.338593 0.515747
0.097931 0.373260 0.467529
0.099121 0.379852 0.475616
0.102509 0.391479 0.490265
0.141174 0.408142 0.514832
0.373810 0.439545 0.556335
0.520996 0.466187 0.581360
0.604187 0.452332 0.575134
0.681976 0.439880 0.578064
0.776825 0.446136 0.578674
0.062927 0.478119 0.543121
0.062408 0.483795 0.551239
0.066376 0.497345 0.571899
0.282288 0.514404 0.603271
0.395081 0.529968 0.619049
0.544739 0.553345 0.638641
0.637146 0.553833 0.644135
0.719757 0.542694 0.640808
0.821045 0.535980 0.631073
0.113068 0.580139 0.611511
0.143860 0.581665 0.615723
0.173706 0.586578 0.624603
0.300415 0.605347 0.653107
0.442719 0.617493 0.671783
0.548187 0.624451 0.680969
0.663605 0.637421 0.695190
0.758179 0.633331 0.690155
0.868988 0.624786 0.678772
0.253601 0.655243 0.653290
0.270599 0.657776 0.656555
0.290527 0.661957 0.661987
0.334259 0.671783 0.674225
0.456268 0.683258 0.691803
0.553040 0.682495 0.696991
0.659515 0.692780 0.716339
0.792755 0.718994 0.730042
0.903839 0.721710 0.716309
0.351898 0.719177 0.680450
0.367065 0.720215 0.680573
0.396027 0.723267 0.682709
0.457672 0.729034 0.691376
0.521301 0.729950 0.696930
0.592682 0.730591 0.702972
0.676910 0.742645 0.716888
0.794403 0.790100 0.739258
0.914581 0.822723 0.734375
0.445526 0.780518 0.697968
0.464813 0.783203 0.699921
0.499176 0.790375 0.706696
0.539642 0.797882 0.715149
0.591461 0.806458 0.725525
0.656128 0.818939 0.738861
0.733124 0.839294 0.752899
0.820984 0.874176 0.748596
0.910034 0.906097 0.747620
0.134064 0.181763 0.340912
0.152039 0.189667 0.349823
0.176727 0.205139 0.368042
0.210693 0.231018 0.399841
0.337067 0.276947 0.464447
0.445709 0.276855 0.478790
0.509430 0.281158 0.475891
0.571838 0.290161 0.487549
0.644836 0.306580 0.513702
0.129669 0.225983 0.375031
0.148651 0.233124 0.383575
0.173950 0.247681 0.400818
0.210785 0.272400 0.430450
0.337738 0.323334 0.491302
0.466766 0.338715 0.520508
0.525299 0.312958 0.498901
0.583740 0.315369 0.503540
0.656494 0.332611 0.529510
0.125183 0.301392 0.429565
0.133942 0.306824 0.436646
0.158356 0.316315 0.450836
0.200470 0.336700 0.478485
0.333771 0.379364 0.532776
0.484009 0.412628 0.571106
0.565094 0.406891 0.566315
0.607330 0.357422 0.535278
0.688293 0.389069 0.568237
0.127808 0.393433 0.502899
0.131744 0.402924 0.513519
0.149811 0.412415 0.526550
0.200867 0.423859 0.546570
0.332428 0.452759 0.588013
0.498077 0.489502 0.623413
0.592560 0.494507 0.630005
0.658539 0.479797 0.622192
0.731079 0.486633 0.629730
0.114075 0.496063 0.591644
0.121490 0.504456 0.602295
0.162689 0.507019 0.611053
0.217926 0.515564 0.625275
0.357788 0.537872 0.652527
0.503662 0.557831 0.670990
0.617798 0.579010 0.688110
0.687775 0.571320 0.684784
0.764038 0.571381 0.683960
0.155304 0.590637 0.658600
0.177490 0.592926 0.663666
0.204865 0.597839 0.673340
0.302673 0.612305 0.697174
0.438141 0.625275 0.715393
0.523956 0.637207 0.725800
0.639221 0.653320 0.737030
0.717682 0.654968 0.738434
0.800110 0.652802 0.733276
0.260376 0.673828 0.708008
0.274872 0.676788 0.712250
0.291840 0.681763 0.719452
0.323303 0.691376 0.733124
0.450134 0.709015 0.757294
0.561829 0.715912 0.769196
0.650391 0.720978 0.774719
0.748138 0.728210 0.776215
0.844055 0.732697 0.775238
0.355286 0.751343 0.748169
0.369324 0.754242 0.751038
0.385590 0.758942 0.755676
0.405334 0.765442 0.762177
0.489441 0.778931 0.778290
0.581848 0.786285 0.793365
0.664062 0.787445 0.800385
0.758636 0.790527 0.804718
0.896820 0.819366 0.818665
0.438599 0.828796 0.782349
0.454071 0.831085 0.783752
0.477295 0.836090 0.786926
0.522552 0.842804 0.793427
0.580109 0.847870 0.801422
0.644897 0.853699 0.811951
0.713348 0.859894 0.823273
0.797241 0.869202 0.823944
0.898468 0.900330 0.830688
0.169800 0.221283 0.386597
0.185760 0.229095 0.395508
0.207977 0.244019 0.412811
0.237946 0.264984 0.438110
0.302277 0.296265 0.480743
0.452606 0.335632 0.538269
0.528931 0.340729 0.543488
0.583527 0.346985 0.546478
0.636444 0.354553 0.557861
0.170135 0.262024 0.419434
0.186523 0.268707 0.426575
0.208649 0.281799 0.441437
0.240753 0.302795 0.466461
0.300079 0.335175 0.506958
0.461945 0.380920 0.565643
0.545776 0.388794 0.576141
0.598663 0.378418 0.567780
0.651459 0.385254 0.578278
0.165619 0.330048 0.470734
0.181244 0.334412 0.477173
0.204956 0.345337 0.491364
0.240448 0.363617 0.515564
0.305420 0.388977 0.552277
0.473572 0.441345 0.605621
0.564087 0.451294 0.621185
0.628296 0.450439 0.618622
0.679230 0.439728 0.615906
0.168152 0.421448 0.545532
0.185760 0.423157 0.550110
0.214478 0.430389 0.561951
0.253448 0.443665 0.580841
0.318115 0.463715 0.611877
0.478241 0.502106 0.650543
0.582336 0.522552 0.672302
0.652710 0.524719 0.672821
0.712524 0.519928 0.668274
0.181091 0.512146 0.628143
0.203644 0.514282 0.632599
0.232513 0.519623 0.641022
0.269775 0.528931 0.654144
0.335083 0.543976 0.676666
0.484314 0.567413 0.701416
0.600159 0.593628 0.721161
0.675690 0.600647 0.727814
0.741119 0.596161 0.719513
0.221252 0.599579 0.697113
0.240082 0.602356 0.702393
0.265259 0.606812 0.711304
0.330017 0.617004 0.727509
0.416229 0.631042 0.743774
0.510223 0.644196 0.754791
0.617676 0.658203 0.762177
0.705597 0.673981 0.772339
0.772339 0.671570 0.765411
0.285645 0.684387 0.749878
0.300140 0.687164 0.754242
0.317291 0.691925 0.761993
0.340942 0.699188 0.774353
0.452301 0.715363 0.793701
0.567993 0.723389 0.804810
0.644257 0.733978 0.810364
0.734070 0.742920 0.811951
0.809479 0.746521 0.810364
0.367676 0.768982 0.796448
0.381714 0.772186 0.799927
0.396881 0.777283 0.805786
0.414154 0.784912 0.814545
0.482849 0.800446 0.831940
0.582123 0.809784 0.845673
0.680695 0.816162 0.860931
0.764008 0.816864 0.860596
0.850769 0.820679 0.857422
0.439697 0.853790 0.839508
0.458008 0.857544 0.842865
0.476471 0.863037 0.847778
0.499329 0.870300 0.854553
0.554810 0.879150 0.863556
0.625793 0.885956 0.873108
0.703308 0.891235 0.882721
0.784424 0.893677 0.890533
0.872986 0.896210 0.891113
