src/assets/luts/ON1 Nature & Wildlife LUTs/CinematicX LUTs - 30 Free Cinematic LUTs - The Resolve Store 2022/Colorado - Rec709.cube
# Copyright: (C) Copyright 2022 The Resolve Store 
# Cannot be resold, shared or otherwise redistributed
TITLE "CinematicX (Rec.709)"
LUT_3D_SIZE 5
0.000000 0.000000 0.000000
0.192291 0.014282 0.002106
0.442932 0.019867 0.001617
0.645172 0.044434 0.003601
0.840027 0.089264 0.007599
0.096436 0.167786 0.012238
0.265259 0.216095 0.003052
0.502960 0.249359 0.000244
0.700836 0.263123 0.004578
0.884216 0.294220 0.012970
0.313934 0.367615 0.047516
0.395111 0.394470 0.025269
0.537750 0.475494 0.014252
0.722198 0.508057 0.010529
0.909058 0.514984 0.020264
0.486115 0.541992 0.268127
0.548187 0.558228 0.223541
0.614410 0.631500 0.067169
0.754608 0.689301 0.045715
0.927612 0.725677 0.023682
0.613495 0.714752 0.492401
0.665009 0.736023 0.474121
0.731140 0.777252 0.416016
0.793579 0.868652 0.175262
0.927124 0.905121 0.266541
0.007538 0.012085 0.028015
0.157104 0.027313 0.112122
0.423584 0.003876 0.129425
0.629883 0.009552 0.140808
0.820160 0.027405 0.140503
0.003235 0.199005 0.184601
0.209442 0.227905 0.212219
0.516632 0.226807 0.199219
0.716797 0.174805 0.165588
0.889038 0.211792 0.159790
0.199768 0.362518 0.162079
0.345245 0.392487 0.157928
0.524231 0.481079 0.197662
0.728882 0.504913 0.201965
0.914246 0.507233 0.210175
0.432251 0.531647 0.299561
0.511749 0.553314 0.278534
0.604950 0.617279 0.209229
0.747681 0.691223 0.141968
0.929596 0.724487 0.193665
0.585999 0.709686 0.511078
0.645447 0.732361 0.500092
0.723328 0.772797 0.464783
0.793488 0.862000 0.324097
0.925079 0.908386 0.377991
0.027985 0.068604 0.200012
0.105896 0.091461 0.241486
0.341919 0.131531 0.274353
0.553833 0.093811 0.306763
0.764313 0.039978 0.326538
0.049866 0.228119 0.300232
0.057373 0.251556 0.337494
0.425049 0.269501 0.380402
0.629517 0.184662 0.361145
0.860443 0.143463 0.366913
0.012573 0.446655 0.433929
0.020630 0.466492 0.454407
0.478943 0.495605 0.503265
0.719879 0.505737 0.502960
0.904877 0.499237 0.469269
0.271271 0.560303 0.455505
0.367981 0.567505 0.456055
0.535217 0.596100 0.481873
0.716400 0.689423 0.506134
0.924072 0.724091 0.486725
0.509705 0.717896 0.557159
0.580170 0.734375 0.557770
0.680969 0.773773 0.557739
0.794983 0.843933 0.525146
0.923004 0.914062 0.541748
0.096954 0.141510 0.292938
0.148102 0.168121 0.325623
0.345184 0.217041 0.407257
0.494049 0.226898 0.411194
0.671448 0.253906 0.464874
0.099213 0.270142 0.381897
0.112579 0.292389 0.413208
0.377197 0.364166 0.503632
0.548615 0.316711 0.479523
0.724640 0.338593 0.515747
0.062927 0.478119 0.543121
0.066376 0.497345 0.571899
0.395081 0.529968 0.619049
0.637146 0.553833 0.644135
0.821045 0.535980 0.631073
0.253601 0.655243 0.653290
0.290527 0.661957 0.661987
0.456268 0.683258 0.691803
0.659515 0.692780 0.716339
0.903839 0.721710 0.716309
0.445526 0.780518 0.697968
0.499176 0.790375 0.706696
0.591461 0.806458 0.725525
0.733124 0.839294 0.752899
0.910034 0.906097 0.747620
0.169800 0.221283 0.386597
0.207977 0.244019 0.412811
0.302277 0.296265 0.480743
0.528931 0.340729 0.543488
0.636444 0.354553 0.557861
0.165619 0.330048 0.470734
0.204956 0.345337 0.491364
0.305420 0.388977 0.552277
0.564087 0.451294 0.621185
0.679230 0.439728 0.615906
0.181091 0.512146 0.628143
0.232513 0.519623 0.641022
0.335083 0.543976 0.676666
0.600159 0.593628 0.721161
0.741119 0.596161 0.719513
0.285645 0.684387 0.749878
0.317291 0.691925 0.761993
0.452301 0.715363 0.793701
0.644257 0.733978 0.810364
0.809479 0.746521 0.810364
0.439697 0.853790 0.839508
0.476471 0.863037 0.847778
0.554810 0.879150 0.863556
0.703308 0.891235 0.882721
0.872986 0.896210 0.891113
