src/assets/luts/ON1 Nature & Wildlife LUTs/CinematicX LUTs - 30 Free Cinematic LUTs - The Resolve Store 2022/Colorado - Rec709.cube
# Copyright: (C) Copyright 2022 The Resolve Store 
# Cannot be resold, shared or otherwise redistributed
TITLE "CinematicX (Rec.709)"
LUT_3D_SIZE 33
0.000000 0.000000 0.000000
0.002075 0.000916 0.000885
0.008423 0.001801 0.001587
0.023865 0.002747 0.001801
0.052032 0.004456 0.002380
0.087616 0.006531 0.002716
0.121552 0.008820 0.003052
0.157074 0.011047 0.002319
0.192291 0.014282 0.002106
0.226227 0.016296 0.002045
0.259644 0.018646 0.001984
0.293304 0.018829 0.001923
0.325317 0.019470 0.001862
0.356354 0.019989 0.001801
0.386444 0.019714 0.001740
0.415466 0.019287 0.001678
0.442932 0.019867 0.001617
0.469666 0.020538 0.002197
0.495605 0.021240 0.002258
0.519867 0.023682 0.002441
0.545258 0.026642 0.002930
0.570404 0.030487 0.002838
0.595245 0.034515 0.002991
0.620087 0.038940 0.003510
0.645172 0.044434 0.003601
0.670166 0.049286 0.003876
0.694946 0.054779 0.004150
0.719727 0.060059 0.004578
0.744354 0.065399 0.005157
0.768677 0.070587 0.005676
0.792603 0.076935 0.006470
0.816315 0.083191 0.007324
0.840027 0.089264 0.007599
0.002472 0.003387 0.002502
0.004669 0.005829 0.001740
0.014862 0.007568 0.002472
0.039917 0.010498 0.002380
0.073273 0.013580 0.002350
0.108307 0.016968 0.002167
0.141968 0.019592 0.001892
0.176025 0.023285 0.001312
0.208496 0.026794 0.001251
0.240326 0.029785 0.001190
0.272552 0.031738 0.001129
0.304260 0.033173 0.001099
0.334717 0.034576 0.001038
0.364929 0.034790 0.000977
0.394592 0.033783 0.001129
0.423279 0.032776 0.001495
0.450806 0.032593 0.001495
0.477448 0.032562 0.001526
0.503143 0.031494 0.001556
0.528137 0.032440 0.002167
0.552948 0.035736 0.002106
0.578094 0.040710 0.002228
0.602692 0.046021 0.002655
0.627441 0.050110 0.002777
0.652222 0.055023 0.003326
0.676758 0.060455 0.003357
0.701080 0.066223 0.003693
0.725647 0.072174 0.004242
0.749847 0.077972 0.005127
0.773865 0.083649 0.005341
0.797638 0.090363 0.006287
0.821411 0.096893 0.006989
0.845123 0.103027 0.007629
0.003662 0.015808 0.004517
0.007355 0.017578 0.003479
0.019196 0.020447 0.003662
0.048157 0.024353 0.003326
0.084869 0.029419 0.002380
0.121277 0.034973 0.001770
0.156342 0.039825 0.000854
0.189850 0.044037 0.000397
0.221405 0.047852 0.000366
0.252960 0.051086 0.000336
0.284149 0.053467 0.000275
0.314484 0.054657 0.000732
0.344635 0.056305 0.000732
0.374084 0.057220 0.000732
0.402924 0.056213 0.000732
0.431030 0.054840 0.000732
0.458588 0.054230 0.000793
0.485016 0.053802 0.000793
0.510986 0.053223 0.001526
0.536407 0.051453 0.001465
0.561127 0.053253 0.001587
0.586151 0.057587 0.001923
0.610840 0.061798 0.002106
0.635529 0.065308 0.002533
0.659546 0.069214 0.002777
0.683685 0.074402 0.003082
0.707733 0.080200 0.003357
0.731781 0.086212 0.004211
0.755768 0.092407 0.004608
0.779480 0.099091 0.005249
0.803314 0.105652 0.006012
0.827148 0.112244 0.006439
0.850555 0.119019 0.007629
0.005707 0.035706 0.008209
0.011292 0.038483 0.005920
0.027466 0.041809 0.005127
0.056793 0.045044 0.005829
0.093719 0.051788 0.003815
0.130768 0.059601 0.002136
0.166901 0.066864 0.000793
0.200623 0.071808 0.000000
0.233093 0.075745 0.000000
0.264648 0.078857 0.000000
0.295319 0.080475 0.000000
0.325409 0.082611 0.000061
0.355011 0.083679 0.000092
0.383575 0.084503 0.000061
0.411682 0.084808 0.000092
0.439392 0.084625 0.000488
0.466492 0.084229 0.000702
0.492706 0.084198 0.000793
0.518555 0.083435 0.000793
0.544342 0.080750 0.000854
0.569489 0.080750 0.001373
0.594238 0.082550 0.001587
0.618927 0.083496 0.001740
0.643402 0.086151 0.001984
0.667480 0.089600 0.002197
0.691467 0.093384 0.002563
0.715118 0.098511 0.003143
0.738861 0.104004 0.003815
0.762512 0.110413 0.004395
0.786377 0.116943 0.005188
0.810364 0.124115 0.005493
0.833893 0.132477 0.006653
0.857056 0.141113 0.007660
0.008850 0.063873 0.010468
0.016907 0.067841 0.008026
0.038605 0.069153 0.007111
0.071320 0.072266 0.007507
0.103760 0.077789 0.006226
0.137787 0.085846 0.003662
0.173828 0.094666 0.001282
0.208588 0.101257 0.000458
0.242523 0.105835 0.000000
0.275208 0.108887 0.000000
0.305939 0.110901 0.000000
0.336639 0.112030 0.000000
0.365875 0.113007 0.000000
0.393677 0.114655 0.000000
0.420959 0.116211 0.000092
0.447906 0.117065 0.000092
0.474609 0.117279 0.000092
0.500580 0.117889 0.000732
0.526306 0.117645 0.000916
0.552124 0.115753 0.000916
0.577606 0.114471 0.001068
0.602264 0.115417 0.001251
0.626801 0.115112 0.001740
0.651215 0.116028 0.001892
0.675537 0.117859 0.002045
0.699310 0.121124 0.002747
0.722931 0.125397 0.003113
0.746490 0.130310 0.003632
0.770050 0.136993 0.004486
0.793762 0.142975 0.005280
0.817505 0.151611 0.005737
0.841095 0.160583 0.006714
0.863434 0.170990 0.008270
0.012543 0.092621 0.011505
0.026306 0.094971 0.008484
0.053345 0.096466 0.008636
0.087311 0.099152 0.008514
0.117493 0.104919 0.007294
0.146271 0.111786 0.005463
0.179382 0.120667 0.002838
0.214355 0.129425 0.001099
0.248932 0.135742 0.000000
0.282349 0.139557 0.000000
0.314362 0.142578 0.000000
0.344818 0.144012 0.000000
0.374512 0.145264 0.000000
0.402740 0.146088 0.000000
0.430176 0.147247 0.000000
0.456726 0.148438 0.000000
0.482941 0.149414 0.000305
0.508911 0.150116 0.000336
0.534576 0.150330 0.001099
0.560028 0.149719 0.001251
0.585358 0.149628 0.001282
0.609985 0.151306 0.001495
0.634308 0.152374 0.002197
0.658966 0.152832 0.002411
0.683228 0.153809 0.002808
0.706909 0.157684 0.003540
0.730499 0.161743 0.003601
0.754120 0.165955 0.004822
0.777557 0.171387 0.005310
0.801361 0.177155 0.006378
0.824768 0.185272 0.007385
0.847900 0.194855 0.008331
0.869476 0.204407 0.009888
0.021576 0.119537 0.009735
0.046021 0.119934 0.008728
0.076935 0.120758 0.009094
0.107117 0.123871 0.009399
0.132263 0.129730 0.008087
0.156769 0.137848 0.006287
0.186279 0.146454 0.004517
0.219482 0.155151 0.002014
0.253906 0.163727 0.000519
0.287384 0.170074 0.000122
0.319824 0.174286 0.000000
0.351349 0.176575 0.000000
0.381409 0.177856 0.000000
0.410278 0.178925 0.000000
0.438141 0.179657 0.000092
0.464752 0.180908 0.000092
0.490967 0.181885 0.000580
0.516754 0.182587 0.000885
0.542236 0.183197 0.001038
0.567627 0.183533 0.001648
0.592743 0.184235 0.001709
0.617157 0.186157 0.001862
0.641357 0.188812 0.002625
0.665619 0.190674 0.002777
0.689789 0.192535 0.003540
0.713562 0.196655 0.003998
0.737518 0.200500 0.004486
0.761139 0.204285 0.005280
0.784546 0.209045 0.006287
0.808075 0.214081 0.006958
0.831390 0.220917 0.007965
0.854004 0.228699 0.008972
0.874817 0.236816 0.010895
0.053223 0.144012 0.009033
0.080933 0.144043 0.010620
0.105255 0.145050 0.011078
0.127441 0.147552 0.010529
0.148010 0.152679 0.009583
0.169128 0.161652 0.007294
0.195557 0.171753 0.005371
0.225922 0.180969 0.004181
0.259277 0.189850 0.002289
0.292999 0.198334 0.001160
0.325165 0.204651 0.000305
0.356537 0.208679 0.000000
0.386719 0.211243 0.000000
0.415955 0.212677 0.000000
0.444336 0.213440 0.000000
0.471558 0.214233 0.000092
0.497681 0.215179 0.000244
0.523407 0.216156 0.000916
0.548767 0.216919 0.001160
0.574158 0.217865 0.001617
0.599152 0.218750 0.001862
0.623627 0.220703 0.002045
0.647491 0.223694 0.002869
0.671478 0.226501 0.003754
0.695496 0.229279 0.004181
0.719391 0.232666 0.004669
0.743256 0.236359 0.005432
0.767151 0.240173 0.006378
0.790771 0.244019 0.006653
0.814209 0.248566 0.007629
0.837341 0.254089 0.008850
0.859589 0.259613 0.010101
0.879547 0.265991 0.011810
0.096436 0.167786 0.012238
0.114960 0.168457 0.012146
0.131805 0.169617 0.012115
0.148285 0.171661 0.012054
0.165131 0.175751 0.010834
0.184082 0.183929 0.009003
0.206848 0.195648 0.006866
0.233917 0.206665 0.005096
0.265259 0.216095 0.003052
0.298706 0.224945 0.002045
0.331268 0.233429 0.000793
0.361938 0.239594 0.000305
0.391754 0.243744 0.000000
0.420868 0.246338 0.000092
0.449188 0.247620 0.000214
0.476624 0.248535 0.000214
0.502960 0.249359 0.000244
0.528687 0.250580 0.000641
0.553955 0.251709 0.001068
0.579163 0.252563 0.001709
0.604126 0.253723 0.001923
0.628662 0.255402 0.002869
0.652893 0.257660 0.003082
0.676849 0.260559 0.003845
0.700836 0.263123 0.004578
0.724915 0.265625 0.005585
0.748840 0.268829 0.005951
0.772614 0.272400 0.006927
0.796356 0.275940 0.007782
0.820038 0.279541 0.008789
0.843201 0.284119 0.009766
0.864899 0.288757 0.010986
0.884216 0.294220 0.012970
0.130585 0.192352 0.014221
0.143829 0.193115 0.013977
0.156677 0.194336 0.013519
0.170227 0.196564 0.012970
0.184540 0.199921 0.012512
0.201416 0.206329 0.010742
0.221039 0.217407 0.008545
0.244415 0.230774 0.006500
0.272369 0.242584 0.004578
0.304443 0.251068 0.002869
0.337158 0.260437 0.001465
0.368164 0.268677 0.000549
0.397461 0.274628 0.000275
0.425720 0.278748 0.000122
0.453339 0.281311 0.000183
0.480286 0.282928 0.000458
0.506775 0.284119 0.000488
0.532410 0.285156 0.000916
0.557678 0.286194 0.001343
0.582916 0.287109 0.002075
0.608093 0.288055 0.002228
0.632629 0.289337 0.003204
0.657196 0.291260 0.003571
0.681549 0.293457 0.004486
0.705658 0.295746 0.005463
0.729706 0.297913 0.006165
0.753662 0.300446 0.007294
0.777496 0.303436 0.008118
0.801300 0.306396 0.008698
0.825043 0.309540 0.009705
0.848602 0.313080 0.010681
0.869720 0.317169 0.011902
0.888519 0.321869 0.013947
0.160553 0.217072 0.015564
0.170624 0.218445 0.015564
0.181030 0.219757 0.015289
0.192566 0.221924 0.014526
0.205658 0.224823 0.013519
0.220642 0.229706 0.011780
0.238007 0.238892 0.010101
0.258209 0.252136 0.007660
0.282501 0.267059 0.005524
0.311157 0.278717 0.003937
0.342468 0.286652 0.002930
0.373627 0.295319 0.001801
0.403229 0.303040 0.001373
0.431183 0.309082 0.001160
0.457916 0.313141 0.001038
0.484009 0.315948 0.001282
0.509644 0.317749 0.001282
0.535217 0.319061 0.001862
0.560791 0.319946 0.002197
0.585999 0.320709 0.002930
0.611115 0.321442 0.003082
0.635956 0.322449 0.003998
0.660706 0.323975 0.004364
0.685272 0.325745 0.005127
0.709595 0.327606 0.005951
0.733948 0.329590 0.006409
0.757996 0.331696 0.007355
0.781982 0.333984 0.008331
0.805847 0.336609 0.009277
0.829651 0.339447 0.010437
0.853241 0.342560 0.011414
0.873962 0.345703 0.012817
0.891907 0.349548 0.015686
0.187592 0.242645 0.016510
0.195923 0.243744 0.016296
0.205048 0.245270 0.015778
0.215576 0.247192 0.015564
0.228119 0.249786 0.014709
0.242004 0.253754 0.013367
0.257721 0.261139 0.011536
0.275299 0.273315 0.009247
0.296112 0.289246 0.007538
0.320923 0.304169 0.005463
0.348969 0.313538 0.004364
0.378876 0.321350 0.003876
0.408844 0.329437 0.002777
0.437134 0.336945 0.001953
0.463623 0.342743 0.001923
0.488739 0.346802 0.001892
0.513580 0.349640 0.001862
0.538239 0.351624 0.001862
0.563354 0.352814 0.002625
0.588562 0.353516 0.003571
0.613739 0.354218 0.003723
0.638550 0.355072 0.004547
0.663483 0.356293 0.004791
0.688232 0.357697 0.005646
0.712708 0.359314 0.006317
0.737274 0.360962 0.007111
0.761597 0.362671 0.008057
0.785797 0.364532 0.009033
0.809814 0.366760 0.010010
0.833679 0.369171 0.010986
0.857452 0.371948 0.011963
0.877960 0.374268 0.013367
0.895538 0.377533 0.016632
0.213043 0.267853 0.017609
0.220795 0.269012 0.017059
0.229401 0.270447 0.016846
0.239929 0.272552 0.016327
0.251801 0.274994 0.015533
0.265137 0.278534 0.014496
0.279541 0.284546 0.012909
0.295197 0.295044 0.011475
0.312897 0.310150 0.009979
0.333923 0.326996 0.008057
0.358368 0.339691 0.006470
0.385345 0.347839 0.005737
0.414093 0.354950 0.004913
0.442566 0.362518 0.004181
0.469330 0.369751 0.003754
0.494263 0.375244 0.003387
0.518188 0.379395 0.003021
0.542114 0.382385 0.002960
0.566284 0.384277 0.003387
0.591003 0.385345 0.003601
0.615814 0.386108 0.004333
0.640717 0.386932 0.005188
0.665619 0.388000 0.005463
0.690369 0.389130 0.006470
0.715149 0.390442 0.007141
0.739838 0.391693 0.008087
0.764435 0.393219 0.009033
0.788727 0.395050 0.010010
0.813019 0.396912 0.010986
0.837158 0.398956 0.012146
0.861176 0.401184 0.013092
0.881256 0.402832 0.014832
0.898773 0.405457 0.018066
0.238281 0.293030 0.019440
0.245605 0.294281 0.019196
0.254333 0.295807 0.018402
0.264374 0.297852 0.018372
0.275726 0.300385 0.017639
0.288788 0.303741 0.016846
0.302490 0.308777 0.015778
0.316467 0.317444 0.014404
0.331787 0.330750 0.013123
0.349701 0.347412 0.010834
0.370575 0.363159 0.009064
0.394073 0.374298 0.008026
0.420013 0.380981 0.006744
0.447418 0.386780 0.006500
0.474396 0.394165 0.005798
0.499786 0.401031 0.005585
0.523773 0.406464 0.004761
0.547089 0.410645 0.004089
0.570251 0.413849 0.004578
0.593933 0.415924 0.004578
0.617981 0.417145 0.005402
0.642609 0.418091 0.006226
0.667389 0.418884 0.006317
0.692169 0.419861 0.006866
0.716888 0.420959 0.007599
0.741760 0.422089 0.008575
0.766418 0.423431 0.009674
0.791046 0.424927 0.010559
0.815826 0.426453 0.011566
0.840302 0.428223 0.012543
0.864532 0.430176 0.013458
0.884155 0.431244 0.015472
0.901398 0.433197 0.019043
0.263702 0.318298 0.023895
0.271057 0.319580 0.023590
0.279694 0.321198 0.022858
0.289459 0.323212 0.022705
0.300476 0.325684 0.022003
0.312744 0.328796 0.021301
0.325928 0.333191 0.020020
0.338989 0.340332 0.018524
0.352539 0.351837 0.016815
0.367584 0.367035 0.014557
0.385193 0.383392 0.012604
0.405884 0.397644 0.010864
0.428772 0.407501 0.009857
0.453278 0.412781 0.009064
0.479034 0.417755 0.008911
0.504517 0.424225 0.008118
0.528839 0.430695 0.007385
0.552338 0.436279 0.006805
0.575195 0.440826 0.006287
0.597961 0.444275 0.005920
0.621124 0.446625 0.006500
0.644867 0.448029 0.006714
0.669189 0.448975 0.007233
0.693848 0.449860 0.008087
0.718597 0.450806 0.008698
0.743469 0.451813 0.009583
0.768280 0.452942 0.010651
0.793091 0.454224 0.011139
0.818024 0.455536 0.012299
0.842957 0.457031 0.013031
0.867554 0.458771 0.014404
0.887054 0.459473 0.016174
0.904510 0.460999 0.019348
0.289001 0.343170 0.032776
0.296295 0.344513 0.031036
0.304779 0.346191 0.028778
0.314209 0.348175 0.027374
0.324890 0.350464 0.026642
0.336761 0.353333 0.025330
0.349121 0.357025 0.023499
0.361511 0.363068 0.022186
0.373688 0.372833 0.021149
0.386719 0.386719 0.018585
0.401886 0.402466 0.016357
0.419678 0.418030 0.014648
0.439850 0.430817 0.012756
0.461731 0.438660 0.012329
0.484985 0.442810 0.011658
0.509125 0.447388 0.011292
0.533447 0.453217 0.010376
0.557007 0.459351 0.009766
0.580170 0.465363 0.009430
0.602753 0.470093 0.008057
0.625244 0.473724 0.008453
0.648010 0.476288 0.008331
0.671600 0.477814 0.008606
0.695709 0.478943 0.009338
0.720276 0.479889 0.009888
0.744995 0.480896 0.010040
0.769836 0.482025 0.011261
0.794739 0.483124 0.011780
0.819855 0.484344 0.012848
0.844910 0.485687 0.013916
0.869720 0.487244 0.014984
0.889191 0.487366 0.016815
0.907013 0.488159 0.020111
0.313934 0.367615 0.047516
0.321045 0.368896 0.044434
0.329285 0.370453 0.040375
0.338531 0.372345 0.037292
0.348999 0.374573 0.033905
0.360291 0.377136 0.031311
0.372131 0.380615 0.028748
0.383759 0.385956 0.026733
0.395111 0.394470 0.025269
0.406952 0.406647 0.023163
0.420013 0.421356 0.021118
0.435242 0.436951 0.018951
0.452576 0.451385 0.017120
0.472107 0.462219 0.015442
0.492706 0.467957 0.015289
0.514771 0.471466 0.015106
0.537750 0.475494 0.014252
0.561401 0.480927 0.014465
0.584717 0.487701 0.013397
0.607635 0.493774 0.011932
0.630096 0.498688 0.011169
0.652313 0.502350 0.010895
0.674927 0.505035 0.010437
0.698212 0.506714 0.010498
0.722198 0.508057 0.010529
0.746674 0.509338 0.011078
0.771393 0.510468 0.011871
0.796326 0.511597 0.012695
0.821442 0.512787 0.013336
0.846527 0.514099 0.014435
0.871429 0.515411 0.015289
0.891083 0.515106 0.017303
0.909058 0.514984 0.020264
0.338226 0.391357 0.068085
0.345428 0.392700 0.063263
0.353516 0.394196 0.058136
0.362610 0.395996 0.052612
0.372437 0.398132 0.046875
0.383301 0.400665 0.041382
0.394714 0.403992 0.036133
0.406036 0.408905 0.032410
0.416901 0.416382 0.030182
0.427582 0.426849 0.028229
0.439026 0.440186 0.026337
0.452026 0.455078 0.024109
0.466797 0.469818 0.021667
0.483673 0.482666 0.020081
0.502075 0.491425 0.018494
0.521851 0.496094 0.019104
0.543182 0.498901 0.018494
0.565674 0.502655 0.018799
0.589142 0.508728 0.017914
0.612152 0.515472 0.016815
0.634796 0.521606 0.015411
0.657135 0.526520 0.013641
0.679169 0.530304 0.013214
0.701538 0.533142 0.012970
0.724823 0.535156 0.012299
0.748749 0.536804 0.012543
0.773102 0.538330 0.013214
0.797852 0.539581 0.013245
0.822968 0.540802 0.014008
0.848145 0.542145 0.015045
0.873138 0.543365 0.015656
0.893127 0.542725 0.018188
0.911407 0.542206 0.020782
0.361816 0.414429 0.096069
0.368958 0.415710 0.090546
0.376862 0.417267 0.084045
0.385803 0.419098 0.076752
0.395386 0.421143 0.068115
0.405762 0.423553 0.059296
0.416870 0.426788 0.050262
0.427795 0.431183 0.042725
0.438324 0.437836 0.037689
0.448273 0.446991 0.034302
0.458374 0.458771 0.031708
0.469543 0.472504 0.028839
0.482086 0.486847 0.026428
0.496429 0.500458 0.025391
0.512695 0.511597 0.023224
0.530518 0.519318 0.022491
0.550049 0.523590 0.022797
0.570923 0.526062 0.022614
0.593384 0.529816 0.022308
0.616608 0.535828 0.021301
0.639313 0.542572 0.020325
0.661743 0.548798 0.018677
0.684052 0.553955 0.016357
0.706055 0.557922 0.015900
0.728638 0.561035 0.014771
0.751831 0.563446 0.014771
0.775574 0.565338 0.014618
0.800079 0.566895 0.014221
0.825043 0.568329 0.014801
0.850250 0.569672 0.015808
0.875183 0.570770 0.016235
0.894806 0.570068 0.018036
0.913300 0.569214 0.020813
0.385010 0.437012 0.126801
0.391724 0.438324 0.121277
0.399139 0.439758 0.115387
0.407715 0.441559 0.107422
0.416870 0.443726 0.098816
0.426819 0.445953 0.088898
0.437317 0.448639 0.076691
0.448181 0.452667 0.064941
0.458405 0.458344 0.054291
0.468109 0.466461 0.046326
0.477539 0.477051 0.039459
0.487122 0.489471 0.035461
0.497925 0.503143 0.032623
0.510223 0.516815 0.030365
0.524475 0.529358 0.028778
0.540466 0.539520 0.027588
0.558197 0.546539 0.027100
0.577515 0.550507 0.026550
0.598480 0.553070 0.026947
0.620789 0.556885 0.026642
0.643585 0.562683 0.025513
0.666199 0.569305 0.023773
0.688446 0.575684 0.021729
0.710724 0.580994 0.019897
0.733185 0.585297 0.017914
0.755859 0.588654 0.017059
0.779022 0.591187 0.016815
0.802979 0.593231 0.016144
0.827728 0.594971 0.016052
0.852936 0.596497 0.016296
0.877686 0.597717 0.016541
0.897156 0.596985 0.019012
0.915253 0.595917 0.021088
0.407135 0.458923 0.156311
0.413788 0.460266 0.151489
0.420685 0.461700 0.145905
0.428986 0.463593 0.139282
0.437592 0.465515 0.131714
0.446991 0.467651 0.122498
0.456970 0.470184 0.110992
0.467041 0.473541 0.097198
0.477509 0.478699 0.081207
0.487030 0.485779 0.066101
0.496094 0.494965 0.054260
0.504913 0.506287 0.045685
0.514313 0.519104 0.039917
0.524994 0.532654 0.036255
0.537384 0.545776 0.034637
0.551544 0.557617 0.032898
0.567535 0.567139 0.032379
0.585327 0.573517 0.031281
0.604797 0.576965 0.031494
0.625793 0.579559 0.031281
0.647797 0.583588 0.031036
0.670288 0.589172 0.030273
0.692749 0.595825 0.028046
0.714966 0.602386 0.024841
0.737793 0.607910 0.022461
0.760468 0.612488 0.019867
0.783234 0.616028 0.018524
0.806610 0.618835 0.017517
0.830872 0.621033 0.017029
0.855774 0.622925 0.017334
0.880310 0.624329 0.017609
0.899597 0.623566 0.018799
0.917664 0.622498 0.021515
0.428192 0.480255 0.185028
0.434692 0.481567 0.180389
0.441589 0.483002 0.175293
0.449371 0.484802 0.169678
0.457672 0.486786 0.163116
0.466736 0.488922 0.155243
0.476227 0.491333 0.145874
0.485840 0.494354 0.134094
0.495300 0.498535 0.119263
0.504913 0.504791 0.100494
0.513947 0.513153 0.080933
0.522522 0.523376 0.064453
0.531158 0.535187 0.052429
0.540619 0.548218 0.044830
0.551453 0.561523 0.040741
0.563904 0.574249 0.038727
0.578125 0.585571 0.037231
0.594177 0.594391 0.037048
0.612000 0.599915 0.036102
0.631470 0.603149 0.036133
0.652344 0.605988 0.035950
0.674316 0.609863 0.035675
0.696777 0.615448 0.034241
0.719208 0.622345 0.031342
0.742188 0.628967 0.027588
0.765045 0.634735 0.024231
0.787872 0.639526 0.021942
0.810944 0.643433 0.019836
0.834625 0.646423 0.018616
0.859161 0.648895 0.018066
0.883301 0.650574 0.018433
0.901917 0.649841 0.019958
0.920013 0.648804 0.021027
0.448181 0.501221 0.213165
0.454559 0.502502 0.208862
0.461456 0.503937 0.204132
0.469025 0.505615 0.198669
0.477081 0.507599 0.192688
0.485779 0.509705 0.185913
0.494812 0.511993 0.178162
0.504333 0.514862 0.168488
0.513550 0.518616 0.156525
0.522461 0.523956 0.141205
0.531158 0.531250 0.122131
0.539612 0.540649 0.100128
0.548035 0.551605 0.078827
0.556732 0.563812 0.061951
0.566254 0.576782 0.050873
0.577087 0.589752 0.045776
0.589600 0.602081 0.042847
0.603821 0.612793 0.041992
0.619965 0.620941 0.041840
0.637817 0.626160 0.040741
0.657532 0.629486 0.041412
0.678528 0.632172 0.040863
0.700684 0.636017 0.039703
0.723419 0.641907 0.037933
0.746674 0.648773 0.034027
0.769501 0.655609 0.029846
0.792480 0.661652 0.026031
0.815704 0.666748 0.023041
0.839081 0.670990 0.020660
0.863129 0.674316 0.019684
0.886627 0.676392 0.019653
0.904633 0.675812 0.020172
0.922302 0.674744 0.022186
0.467560 0.521790 0.240936
0.473724 0.523071 0.236969
0.480438 0.524445 0.232544
0.487671 0.526154 0.227417
0.495575 0.528015 0.221771
0.504120 0.530029 0.215607
0.512787 0.532227 0.208740
0.522095 0.534943 0.200714
0.531311 0.538483 0.190765
0.540161 0.543335 0.178284
0.548584 0.549896 0.162262
0.556610 0.558075 0.143738
0.564606 0.568054 0.122009
0.572571 0.579285 0.097839
0.581207 0.591614 0.074463
0.590851 0.604370 0.057312
0.601837 0.617157 0.049164
0.614166 0.629150 0.047211
0.628540 0.639496 0.046539
0.644867 0.647400 0.045685
0.663330 0.652649 0.045837
0.683319 0.655884 0.045013
0.704742 0.658630 0.044983
0.727356 0.662567 0.042999
0.750916 0.668396 0.040863
0.774017 0.675262 0.036987
0.796906 0.682373 0.031555
0.820038 0.688812 0.027740
0.843750 0.694244 0.024384
0.867401 0.698822 0.022339
0.890228 0.701630 0.020569
0.907654 0.701385 0.020935
0.925293 0.700562 0.022064
0.486115 0.541992 0.268127
0.492310 0.543335 0.264404
0.498810 0.544647 0.260223
0.505829 0.546356 0.255676
0.513580 0.548218 0.250519
0.521454 0.550110 0.245026
0.530243 0.552429 0.238800
0.539185 0.555054 0.231934
0.548187 0.558228 0.223541
0.557007 0.562531 0.213470
0.565338 0.568329 0.200592
0.573364 0.575745 0.185181
0.581055 0.584564 0.166779
0.588593 0.594971 0.144409
0.596375 0.606354 0.119049
0.604645 0.618591 0.091522
0.614410 0.631500 0.067169
0.625488 0.644287 0.054871
0.638092 0.656128 0.050873
0.652771 0.666260 0.050140
0.669525 0.673981 0.049835
0.688324 0.679169 0.049866
0.708862 0.682404 0.048767
0.731049 0.685242 0.047943
0.754608 0.689301 0.045715
0.778015 0.695129 0.043915
0.801147 0.702148 0.040771
0.824310 0.709595 0.035858
0.847748 0.716522 0.031616
0.871490 0.722260 0.027161
0.893372 0.725861 0.024048
0.909973 0.726105 0.023346
0.927612 0.725677 0.023682
0.503815 0.562134 0.295807
0.509827 0.563507 0.292297
0.516174 0.564880 0.288483
0.522888 0.566467 0.284332
0.530548 0.568451 0.279663
0.538147 0.570374 0.274628
0.546631 0.572601 0.268982
0.555328 0.575104 0.262817
0.564240 0.578033 0.255585
0.573090 0.581940 0.246918
0.581390 0.586945 0.236389
0.589508 0.593445 0.223297
0.597321 0.601410 0.207642
0.604736 0.610840 0.189178
0.612000 0.621521 0.167206
0.619507 0.633240 0.140533
0.627594 0.645752 0.109924
0.637299 0.658722 0.081116
0.648682 0.671539 0.062897
0.661774 0.683197 0.055328
0.676849 0.693085 0.052734
0.694000 0.700745 0.053040
0.713379 0.705872 0.052124
0.734863 0.709045 0.050934
0.758057 0.712128 0.049927
0.781647 0.716553 0.049713
0.805145 0.722687 0.049988
0.828308 0.730011 0.049042
0.851440 0.737793 0.045593
0.874786 0.744843 0.039520
0.896118 0.749390 0.032837
0.912689 0.750366 0.028595
0.929749 0.750397 0.026886
0.520630 0.582458 0.323853
0.526489 0.583771 0.320557
0.532745 0.585236 0.317078
0.539368 0.586823 0.313202
0.546875 0.588776 0.308990
0.554260 0.590698 0.304382
0.562439 0.593018 0.299316
0.570923 0.595459 0.293732
0.579712 0.598206 0.287415
0.588562 0.601654 0.279907
0.597137 0.606079 0.270691
0.605408 0.611755 0.259521
0.613220 0.618805 0.245911
0.620697 0.627258 0.229889
0.627869 0.637177 0.211060
0.635101 0.648438 0.189087
0.642242 0.660492 0.162506
0.650269 0.673157 0.130096
0.660034 0.686127 0.096405
0.671844 0.698822 0.072998
0.685394 0.710388 0.060760
0.700989 0.720123 0.056366
0.718811 0.727631 0.055359
0.738983 0.732819 0.054199
0.761414 0.736511 0.053009
