src/assets/luts/ON1 Nature & Wildlife LUTs/CinematicX LUTs - 30 Free Cinematic LUTs - The Resolve Store 2022/Cruz - Rec709.cube
# Copyright: (C) Copyright 2022 The Resolve Store 
# Cannot be resold, shared or otherwise redistributed
TITLE "CinematicX (Rec.709)"
LUT_3D_SIZE 5
0.000000 0.000000 0.000000
0.177765 0.017914 0.001038
0.428284 0.016113 0.001190
0.688416 0.017487 0.001740
0.965515 0.016998 0.001984
0.068573 0.150330 0.006165
0.225586 0.185120 0.004059
0.468933 0.223389 0.004333
0.722076 0.232208 0.003693
0.982697 0.246429 0.001343
0.234680 0.329865 0.032745
0.320282 0.357391 0.015839
0.481232 0.447754 0.013062
0.738831 0.494690 0.004395
0.992615 0.499603 0.000580
0.399780 0.534729 0.199371
0.476532 0.554321 0.165192
0.570648 0.628265 0.075867
0.745880 0.725403 0.024780
0.997406 0.751709 0.000580
0.545990 0.787842 0.409760
0.621887 0.815277 0.398071
0.721924 0.865570 0.347809
0.822449 0.974396 0.130585
0.996796 0.996552 0.000885
0.002197 0.023956 0.057434
0.160522 0.031677 0.103699
0.420563 0.011169 0.133575
0.686188 0.007660 0.169830
0.961914 0.008698 0.205780
0.006775 0.172211 0.142792
0.175079 0.196381 0.153748
0.473206 0.213470 0.184021
0.729218 0.212158 0.196381
0.991669 0.212830 0.180450
0.124420 0.334900 0.143707
0.262421 0.360443 0.135284
0.474915 0.448486 0.164459
0.741913 0.494324 0.229462
0.996399 0.496735 0.214417
0.354248 0.534119 0.242798
0.449036 0.557220 0.225311
0.567383 0.622772 0.173492
0.747620 0.728485 0.167297
0.998627 0.751434 0.232269
0.524536 0.791077 0.454407
0.604889 0.818237 0.444153
0.717834 0.867462 0.406586
0.826538 0.972260 0.212677
0.999420 0.999176 0.050049
0.017731 0.071045 0.159332
0.138489 0.086273 0.227997
0.351685 0.096344 0.245789
0.637360 0.044983 0.328430
0.938293 0.014435 0.404572
0.000000 0.205994 0.260803
0.090973 0.234467 0.299133
0.408295 0.241272 0.328735
0.695435 0.213989 0.382904
0.986237 0.201660 0.431702
0.018219 0.402985 0.368073
0.137665 0.421570 0.382935
0.436249 0.454895 0.401367
0.735199 0.491455 0.463684
1.000000 0.491302 0.476501
0.217010 0.566345 0.398743
0.321686 0.580566 0.398895
0.500763 0.613098 0.400330
0.734253 0.719086 0.440277
1.000000 0.750580 0.493408
0.454773 0.801941 0.526154
0.542053 0.826233 0.522369
0.670929 0.871338 0.497986
0.817413 0.965118 0.323242
1.000000 0.999756 0.431030
0.063202 0.121796 0.248779
0.139587 0.144714 0.328308
0.342957 0.166321 0.369690
0.540802 0.183197 0.392700
0.849854 0.131531 0.530182
0.008209 0.242828 0.348846
0.090271 0.270996 0.384033
0.363434 0.306671 0.457794
0.592621 0.296844 0.460663
0.894104 0.296753 0.581268
0.000000 0.452667 0.509491
0.095886 0.477966 0.538300
0.376648 0.506500 0.561951
0.664764 0.518646 0.587891
0.976227 0.498749 0.666168
0.185822 0.665314 0.626526
0.261505 0.678986 0.637421
0.439056 0.690796 0.643951
0.695160 0.723938 0.661652
1.000000 0.755646 0.721313
0.384796 0.873047 0.700134
0.443512 0.892517 0.704834
0.514069 0.926758 0.690918
0.749084 0.968567 0.693237
1.000000 0.999786 0.746613
0.111023 0.180115 0.339783
0.179443 0.212585 0.393829
0.351349 0.245575 0.490479
0.547791 0.277527 0.516571
0.720062 0.298157 0.548889
0.088013 0.291687 0.433289
0.155823 0.319855 0.466492
0.344543 0.366089 0.542999
0.582245 0.388489 0.585693
0.765045 0.411011 0.608673
0.055725 0.485168 0.599274
0.153961 0.504333 0.621094
0.342529 0.536865 0.653229
0.612457 0.569336 0.699768
0.844330 0.575714 0.723114
0.195801 0.711456 0.764557
0.258942 0.730469 0.785553
0.421387 0.756195 0.809204
0.623962 0.782684 0.835693
0.909271 0.795563 0.857910
0.190125 0.976166 0.930328
0.254852 0.994446 0.948730
0.449402 0.999329 0.967438
0.698578 0.999969 0.981201
0.978424 1.000000 1.000000
