src/assets/luts/ON1 Nature & Wildlife LUTs/CinematicX LUTs - 30 Free Cinematic LUTs - The Resolve Store 2022/Cruz - Rec709.cube
# Copyright: (C) Copyright 2022 The Resolve Store 
# Cannot be resold, shared or otherwise redistributed
TITLE "CinematicX (Rec.709)"
LUT_3D_SIZE 33
0.000000 0.000000 0.000000
0.012421 0.002136 0.000061
0.027222 0.004761 0.000092
0.045868 0.006683 0.000122
0.068390 0.009247 0.000153
0.093109 0.012024 0.000183
0.119781 0.014038 0.000244
0.147736 0.016296 0.000580
0.177765 0.017914 0.001038
0.209015 0.018707 0.001007
0.239594 0.019196 0.001038
0.270935 0.018829 0.001068
0.302399 0.018372 0.001099
0.333984 0.017944 0.001099
0.365448 0.017456 0.001160
0.396912 0.016418 0.001190
0.428284 0.016113 0.001190
0.459839 0.016022 0.001221
0.491516 0.015900 0.001190
0.523376 0.016083 0.001282
0.555664 0.016174 0.001282
0.588135 0.016571 0.001251
0.621124 0.016785 0.001251
0.654510 0.017151 0.001282
0.688416 0.017487 0.001740
0.722534 0.017975 0.001709
0.756989 0.018036 0.001678
0.791626 0.018127 0.001831
0.826447 0.018005 0.001892
0.861206 0.017914 0.001831
0.896057 0.017670 0.002014
0.930908 0.017548 0.001953
0.965515 0.016998 0.001984
0.002136 0.013824 0.002289
0.015045 0.016510 0.001923
0.031586 0.018860 0.001770
0.052399 0.021545 0.001221
0.075714 0.024109 0.001251
0.101074 0.026978 0.001251
0.128113 0.029327 0.001160
0.156738 0.031860 0.001190
0.186859 0.033722 0.001373
0.217163 0.035339 0.001373
0.247559 0.035431 0.001404
0.278595 0.035919 0.001373
0.309906 0.035522 0.001404
0.341309 0.034943 0.001495
0.372681 0.034271 0.001526
0.404022 0.034119 0.001648
0.435211 0.033325 0.001678
0.466705 0.033264 0.001770
0.498230 0.033600 0.001801
0.530029 0.034058 0.001862
0.562195 0.034576 0.001984
0.594635 0.035187 0.002045
0.627411 0.036102 0.002075
0.660614 0.036957 0.002472
0.694244 0.037842 0.002563
0.728149 0.038727 0.002594
0.762451 0.039429 0.002594
0.796722 0.040161 0.002808
0.831146 0.040741 0.002777
0.865570 0.041290 0.002686
0.900024 0.041779 0.002838
0.934631 0.042084 0.002655
0.968933 0.042267 0.002502
0.004120 0.030457 0.005524
0.018402 0.033447 0.004517
0.036438 0.035431 0.003021
0.059021 0.038788 0.002533
0.083252 0.041748 0.001984
0.109131 0.045044 0.001984
0.136536 0.048553 0.001556
0.165222 0.051392 0.001617
0.194885 0.053680 0.001862
0.224823 0.055298 0.002045
0.255127 0.056091 0.002136
0.285950 0.056427 0.001770
0.316833 0.056335 0.001740
0.347809 0.056091 0.001801
0.379028 0.055603 0.001862
0.410034 0.055206 0.001923
0.441254 0.055176 0.001953
0.472473 0.054962 0.002014
0.503967 0.055023 0.002106
0.535583 0.055328 0.002136
0.567627 0.056122 0.002167
0.599945 0.056793 0.002289
0.632507 0.057953 0.002563
0.665466 0.058868 0.002625
0.698761 0.060303 0.002563
0.732452 0.061371 0.002625
0.766418 0.062561 0.002747
0.800476 0.063843 0.002838
0.834778 0.064819 0.002930
0.869110 0.065948 0.002991
0.903290 0.067047 0.002930
0.937775 0.067841 0.003021
0.971893 0.068573 0.002960
0.007751 0.049347 0.007446
0.022949 0.052277 0.005981
0.042206 0.054749 0.004486
0.065491 0.058075 0.003540
0.090607 0.061615 0.002655
0.117004 0.065735 0.002502
0.144501 0.069153 0.002075
0.172913 0.072296 0.002136
0.201843 0.074921 0.002136
0.231598 0.076569 0.002136
0.261841 0.077972 0.002167
0.292328 0.078644 0.002167
0.323090 0.079041 0.002197
0.353851 0.078918 0.002228
0.384827 0.078796 0.002258
0.415863 0.078705 0.002319
0.446930 0.078491 0.002350
0.478088 0.078552 0.002380
0.509430 0.078644 0.002380
0.540955 0.078979 0.002411
0.572784 0.079590 0.002441
0.604858 0.080536 0.002441
0.637268 0.081512 0.002441
0.670013 0.082855 0.002441
0.703125 0.084259 0.002472
0.736450 0.085724 0.002655
0.770081 0.087250 0.002686
0.803925 0.088806 0.002686
0.837921 0.090363 0.002686
0.871979 0.091949 0.002655
0.906006 0.093414 0.002838
0.940186 0.094879 0.002686
0.974060 0.096100 0.002869
0.012787 0.069885 0.008759
0.029327 0.072235 0.006958
0.050201 0.074951 0.005219
0.073212 0.077545 0.003967
0.097687 0.081665 0.003052
0.124481 0.086304 0.002930
0.151672 0.090271 0.002777
0.179504 0.093811 0.002777
0.208130 0.096924 0.002747
0.237823 0.099548 0.002808
0.268066 0.101196 0.002869
0.298279 0.102356 0.002747
0.328979 0.103241 0.002777
0.359558 0.103607 0.002808
0.390350 0.103851 0.002808
0.421326 0.103790 0.002808
0.452240 0.103973 0.002808
0.483337 0.104065 0.002808
0.514648 0.104218 0.002777
0.546051 0.104462 0.002808
0.577881 0.105255 0.002747
0.609863 0.106140 0.002747
0.642120 0.107330 0.002747
0.674652 0.108521 0.002747
0.707458 0.110168 0.002716
0.740631 0.111755 0.002716
0.773987 0.113525 0.002686
0.807556 0.115387 0.002563
0.841309 0.117310 0.002869
0.875061 0.119202 0.002716
0.908813 0.121063 0.002625
0.942719 0.122864 0.002747
0.976318 0.124481 0.002594
0.021057 0.090485 0.008942
0.038330 0.092621 0.007172
0.060089 0.094604 0.005676
0.082397 0.097534 0.004333
0.105469 0.100494 0.003815
0.130219 0.105164 0.003021
0.157288 0.111145 0.002991
0.185181 0.116272 0.002960
0.213928 0.120361 0.002960
0.243317 0.123657 0.002991
0.273224 0.126068 0.003052
0.303528 0.127991 0.003021
0.334137 0.129333 0.003021
0.364807 0.130188 0.003082
0.395538 0.130890 0.003082
0.426208 0.131104 0.003021
0.457184 0.131439 0.003021
0.488281 0.131744 0.002991
0.519409 0.131989 0.002960
0.550903 0.132507 0.002960
0.582581 0.133270 0.002899
0.614410 0.134125 0.002899
0.646606 0.135315 0.002869
0.679016 0.136597 0.002747
0.711761 0.138245 0.002808
0.744720 0.139954 0.002838
0.777924 0.141815 0.002930
0.811249 0.143738 0.002899
0.844696 0.145813 0.002808
0.878235 0.147980 0.002747
0.911743 0.150024 0.002899
0.945343 0.152130 0.002716
0.978668 0.153961 0.002411
0.032654 0.110992 0.008759
0.051788 0.112762 0.006927
0.071899 0.114532 0.005554
0.092957 0.116943 0.004364
0.114960 0.120087 0.003845
0.137665 0.124237 0.003113
0.162354 0.130096 0.003143
0.189850 0.137512 0.003113
0.218414 0.143829 0.003235
0.247955 0.148621 0.003204
0.277924 0.152283 0.003235
0.308044 0.154907 0.003265
0.338654 0.157043 0.003662
0.369202 0.158539 0.003693
0.399994 0.159546 0.003662
0.430725 0.160400 0.003571
0.461609 0.160889 0.003540
0.492584 0.161438 0.003510
0.523773 0.161896 0.003448
0.555176 0.162506 0.003448
0.586670 0.163239 0.003479
0.618591 0.164246 0.003448
0.650665 0.165375 0.003326
0.682953 0.166687 0.003235
0.715546 0.168304 0.003265
0.748383 0.169952 0.003082
0.781433 0.171875 0.002991
0.814667 0.173859 0.002899
0.847961 0.175964 0.002991
0.881226 0.178101 0.002991
0.914520 0.180328 0.002930
0.947876 0.182495 0.002869
0.980652 0.184082 0.001434
0.048889 0.130615 0.007568
0.067200 0.132080 0.006226
0.085968 0.134033 0.004974
0.105255 0.136536 0.004089
0.125427 0.139954 0.003845
0.146484 0.144104 0.003479
0.168976 0.149170 0.003540
0.194000 0.156738 0.003540
0.222015 0.165649 0.003632
0.251617 0.173065 0.003693
0.281799 0.178772 0.003693
0.312195 0.182861 0.003876
0.342590 0.185822 0.003937
0.373169 0.187897 0.003906
0.403900 0.189514 0.003937
0.434662 0.190735 0.003876
0.465515 0.191772 0.003815
0.496460 0.192505 0.003723
0.527618 0.193176 0.003693
0.558929 0.193939 0.003632
0.590485 0.194824 0.003815
0.622253 0.195770 0.003723
0.654236 0.196930 0.003601
0.686493 0.198303 0.003479
0.718994 0.199799 0.003632
0.751709 0.201447 0.003479
0.784637 0.203186 0.003326
0.817719 0.205139 0.003174
0.850861 0.207184 0.003113
0.884003 0.209259 0.003113
0.917084 0.211426 0.003174
0.950195 0.213531 0.003082
0.981689 0.215149 0.001312
0.068573 0.150330 0.006165
0.084961 0.151825 0.005310
0.101776 0.153870 0.004852
0.118958 0.156342 0.004089
0.137268 0.159790 0.003906
0.156586 0.164337 0.003876
0.177338 0.169739 0.003967
0.200012 0.175995 0.003998
0.225586 0.185120 0.004059
0.254272 0.195465 0.003906
0.284546 0.203979 0.004272
0.315308 0.210388 0.004150
0.346161 0.214966 0.004150
0.376709 0.218048 0.004120
0.407410 0.220276 0.004456
0.438080 0.221985 0.004395
0.468933 0.223389 0.004333
0.499878 0.224518 0.004272
0.531006 0.225464 0.004211
0.562225 0.226349 0.004150
0.593750 0.227325 0.004059
0.625458 0.228333 0.003937
0.657440 0.229462 0.003845
0.689606 0.230804 0.003662
0.722076 0.232208 0.003693
0.754700 0.233734 0.003540
0.787506 0.235413 0.003601
0.820465 0.237183 0.003479
0.853516 0.239044 0.003326
0.886475 0.241028 0.003235
0.919403 0.242950 0.003204
0.952301 0.244965 0.003204
0.982697 0.246429 0.001343
0.089630 0.170654 0.005829
0.104248 0.172211 0.004944
0.118927 0.174042 0.004547
0.134094 0.176575 0.004059
0.150330 0.180206 0.003967
0.167847 0.184784 0.003937
0.187042 0.190491 0.003998
0.208008 0.197052 0.004028
0.230957 0.204437 0.004669
0.257202 0.214905 0.004700
0.286713 0.226593 0.004761
0.317505 0.236145 0.004639
0.348572 0.243042 0.004791
0.379700 0.248077 0.004639
0.410583 0.251465 0.004517
0.441223 0.253723 0.004913
0.472015 0.255524 0.004883
0.502899 0.257019 0.004761
0.533936 0.258301 0.004639
0.565155 0.259308 0.004608
0.596619 0.260437 0.004486
0.628326 0.261536 0.004333
0.660217 0.262665 0.004211
0.692413 0.263916 0.004059
0.724823 0.265228 0.003937
0.757385 0.266602 0.003784
0.790131 0.268158 0.003601
0.822968 0.269684 0.003479
0.855896 0.271332 0.003571
0.888763 0.273071 0.003418
0.921509 0.274872 0.003418
0.954254 0.276642 0.003296
0.983765 0.277954 0.001190
0.111115 0.191376 0.005737
0.123779 0.192780 0.004913
0.136841 0.194763 0.004578
0.150330 0.197388 0.004639
0.164612 0.200897 0.004700
0.180511 0.205444 0.004028
0.197968 0.211487 0.004700
0.217377 0.218384 0.004730
0.238770 0.226044 0.004791
0.262421 0.234650 0.004913
0.289124 0.246460 0.005554
0.319031 0.259064 0.005310
0.350098 0.269073 0.005310
0.381470 0.276428 0.005341
0.412842 0.281769 0.005157
0.444000 0.285553 0.004974
0.474731 0.287903 0.005096
0.505554 0.289764 0.005219
0.536499 0.291290 0.005127
0.567719 0.292603 0.005005
0.599121 0.293823 0.004913
0.630768 0.294952 0.004669
0.662659 0.296021 0.004547
0.694763 0.297211 0.004333
0.727173 0.298401 0.004242
0.759705 0.299683 0.004028
0.792419 0.300995 0.003876
0.825195 0.302399 0.003662
0.858002 0.303833 0.003479
0.890747 0.305328 0.003540
0.923431 0.306885 0.003387
0.956055 0.308380 0.003387
0.984924 0.309540 0.001221
0.131989 0.213043 0.006042
0.143555 0.214630 0.005798
0.155090 0.216492 0.005585
0.167267 0.218811 0.005035
0.180298 0.222076 0.004883
0.194794 0.226746 0.004852
0.210663 0.232605 0.004913
0.228394 0.239716 0.004944
0.248199 0.247803 0.005341
0.270081 0.256531 0.005798
0.294128 0.266205 0.005920
0.321259 0.279083 0.006470
0.351349 0.292175 0.006042
0.382568 0.302551 0.006073
0.414185 0.310272 0.005920
0.445740 0.315796 0.005676
0.477142 0.319733 0.005493
0.508087 0.322266 0.005554
0.539032 0.324158 0.005402
0.570129 0.325653 0.005280
0.601440 0.327026 0.005096
0.633057 0.328247 0.004913
0.664917 0.329407 0.004791
0.696960 0.330475 0.004608
0.729309 0.331573 0.004364
0.761780 0.332672 0.004242
0.794434 0.333862 0.003998
0.827148 0.335052 0.003754
0.859924 0.336304 0.003632
0.892578 0.337585 0.003571
0.925201 0.338898 0.003448
0.957703 0.340179 0.003387
0.986145 0.341156 0.001099
0.152985 0.235413 0.007874
0.163177 0.236816 0.007446
0.173737 0.238739 0.006866
0.184906 0.240997 0.006317
0.196838 0.244110 0.006165
0.210205 0.248413 0.005829
0.224854 0.253967 0.005890
0.241058 0.261078 0.005951
0.259308 0.269379 0.005951
0.279602 0.278625 0.006348
0.301758 0.288239 0.006805
0.326050 0.298859 0.007141
0.353363 0.312286 0.007355
0.383575 0.325714 0.007355
0.414917 0.336304 0.006927
0.446655 0.344208 0.006561
0.478455 0.349854 0.006317
0.510040 0.353851 0.005951
0.541443 0.356628 0.005646
0.572510 0.358490 0.005463
0.603760 0.360016 0.005310
0.635223 0.361328 0.005157
0.667023 0.362488 0.004974
0.699036 0.363556 0.004730
0.731293 0.364624 0.004272
0.763733 0.365631 0.004089
0.796326 0.366638 0.003967
0.828979 0.367676 0.003754
0.861694 0.368744 0.003662
0.894257 0.369843 0.003418
0.926819 0.370941 0.003387
0.959259 0.372009 0.003265
0.987427 0.372803 0.001007
0.173370 0.258179 0.010712
0.182922 0.259735 0.009979
0.192688 0.261627 0.009552
0.203217 0.263733 0.008759
0.214508 0.266632 0.008148
0.226959 0.270721 0.007812
0.240601 0.276001 0.007355
0.255585 0.282806 0.007019
0.272217 0.291046 0.006927
0.290863 0.300476 0.007477
0.311371 0.310699 0.007812
0.333588 0.320862 0.008057
0.357971 0.332123 0.008575
0.385406 0.345978 0.008759
0.415649 0.359467 0.008331
0.447174 0.370117 0.008057
0.479034 0.377991 0.007294
0.511047 0.383789 0.006653
0.542908 0.387878 0.006134
0.574615 0.390717 0.005707
0.606079 0.392670 0.005432
0.637451 0.394135 0.005219
0.669128 0.395386 0.005005
0.701019 0.396484 0.004791
0.733215 0.397491 0.004364
0.765564 0.398438 0.004120
0.798065 0.399323 0.003937
0.830658 0.400208 0.003693
0.863312 0.401123 0.003510
0.895813 0.402039 0.003448
0.928284 0.402985 0.003235
0.960724 0.403870 0.003174
0.988708 0.404541 0.000946
0.193787 0.281677 0.015503
0.202728 0.283112 0.014435
0.212189 0.285034 0.013245
0.222198 0.287018 0.012329
0.233002 0.289856 0.011475
0.244720 0.293488 0.010651
0.257538 0.298401 0.009766
0.271484 0.304840 0.009308
0.286804 0.312897 0.008698
0.303741 0.322296 0.008636
0.322601 0.332703 0.008728
0.343140 0.343506 0.009460
0.365509 0.354156 0.009613
0.389954 0.365784 0.010162
0.417419 0.379883 0.009888
0.447662 0.393188 0.009674
0.479218 0.403809 0.008850
0.511292 0.411743 0.008087
0.543549 0.417511 0.007202
0.575745 0.421631 0.006561
0.607849 0.424530 0.005890
0.639618 0.426544 0.005310
0.671234 0.427948 0.005035
0.703003 0.429138 0.004852
0.735107 0.430145 0.004547
0.767334 0.431061 0.004150
0.799744 0.431854 0.003937
0.832245 0.432678 0.003632
0.864777 0.433441 0.003418
0.897278 0.434235 0.003235
0.929718 0.434998 0.003113
0.962067 0.435730 0.002808
0.990021 0.436218 0.000824
0.214111 0.305542 0.022064
0.222992 0.307129 0.020935
0.231995 0.308868 0.019806
0.241699 0.310852 0.018097
0.252197 0.313538 0.016418
0.263428 0.316864 0.014709
0.275604 0.321350 0.013611
0.288727 0.327301 0.012604
0.302948 0.334900 0.011688
0.318512 0.344147 0.010681
0.335449 0.354645 0.010620
0.354370 0.365784 0.010651
0.374969 0.376984 0.011047
0.397339 0.387817 0.011444
0.421814 0.399780 0.011871
0.449310 0.413757 0.011444
0.479584 0.426910 0.010803
0.511261 0.437439 0.009613
0.543518 0.445282 0.008423
0.576050 0.450989 0.007538
0.608551 0.455109 0.006653
0.640961 0.458038 0.005859
0.673126 0.460052 0.005219
0.705048 0.461487 0.004791
0.736969 0.462524 0.004486
0.769073 0.463409 0.004181
0.801392 0.464233 0.003784
0.833801 0.464996 0.003510
0.866211 0.465668 0.003265
0.898590 0.466309 0.003052
0.930969 0.466949 0.002838
0.963318 0.467529 0.002136
0.991333 0.467896 0.000702
0.234680 0.329865 0.032745
0.243225 0.331482 0.030304
0.252258 0.333313 0.028198
0.261627 0.335205 0.025970
0.271820 0.337524 0.023773
0.282806 0.340607 0.021423
0.294434 0.344757 0.019501
0.306885 0.350250 0.017395
0.320282 0.357391 0.015839
0.334656 0.366150 0.014648
0.350159 0.376404 0.013611
0.367249 0.387756 0.013336
0.386169 0.399445 0.013214
0.406738 0.410889 0.013397
0.429169 0.421906 0.013489
0.453674 0.433990 0.013885
0.481232 0.447754 0.013062
0.511597 0.460663 0.012177
0.543365 0.470886 0.010681
0.575867 0.478668 0.009430
0.608643 0.484375 0.008057
0.641479 0.488403 0.006836
0.674103 0.491272 0.005859
0.706604 0.493317 0.005035
0.738831 0.494690 0.004395
0.770874 0.495636 0.004089
0.803009 0.496429 0.003632
0.835266 0.497131 0.003418
0.867584 0.497711 0.003113
0.899872 0.498291 0.002869
0.932159 0.498810 0.002625
0.964417 0.499237 0.001099
0.992615 0.499603 0.000580
0.255402 0.354523 0.047028
0.263794 0.356140 0.044373
0.272705 0.357941 0.041199
0.281952 0.359833 0.038055
0.291962 0.362061 0.034637
0.302612 0.364929 0.030945
0.313904 0.368652 0.027344
0.325836 0.373627 0.024780
0.338470 0.380157 0.021820
0.351929 0.388428 0.019775
0.366241 0.398315 0.017914
0.381775 0.409485 0.016754
0.398865 0.421478 0.015808
0.417786 0.433502 0.015686
0.438477 0.445099 0.015717
0.460968 0.456085 0.016144
0.485565 0.468170 0.015869
0.513245 0.481781 0.014648
0.543701 0.494354 0.013519
0.575623 0.504364 0.011932
0.608337 0.511993 0.010040
0.641327 0.517578 0.008362
0.674316 0.521515 0.006927
0.707245 0.524292 0.005737
0.739990 0.526245 0.004730
0.772461 0.527557 0.003998
0.804626 0.528442 0.003571
0.836731 0.529144 0.003204
0.868927 0.529694 0.002930
0.901123 0.530212 0.002625
0.933289 0.530609 0.002350
0.965302 0.530945 0.000916
0.993866 0.531189 0.000488
0.276306 0.379456 0.064880
0.284607 0.381134 0.061462
0.293304 0.382843 0.058228
0.302460 0.384766 0.054108
0.312286 0.386902 0.050018
0.322693 0.389648 0.045563
0.333740 0.393005 0.040253
0.345276 0.397491 0.035675
0.357422 0.403412 0.031342
0.370056 0.411102 0.027771
0.383453 0.420471 0.024353
0.397766 0.431335 0.022186
0.413300 0.443237 0.020355
0.430389 0.455627 0.019257
0.449432 0.467896 0.018616
0.470093 0.479401 0.018127
0.492737 0.490387 0.018066
0.517548 0.502502 0.017670
0.545380 0.515808 0.016724
0.576019 0.528015 0.015106
0.608063 0.537781 0.012573
0.640930 0.545197 0.010498
0.674072 0.550629 0.008514
0.707245 0.554474 0.006989
0.740326 0.557068 0.005524
0.773224 0.558899 0.004578
0.805908 0.560120 0.003571
0.838135 0.560913 0.003113
0.870209 0.561493 0.002655
0.902252 0.561920 0.002411
0.934326 0.562317 0.002075
0.966156 0.562561 0.000793
0.995056 0.562744 0.000336
0.297180 0.404572 0.084167
0.305481 0.406219 0.080750
0.313965 0.408020 0.077545
0.323090 0.410004 0.073181
0.332703 0.412048 0.068665
0.343018 0.414581 0.063599
0.353851 0.417755 0.057800
0.365143 0.421814 0.051910
0.376831 0.427155 0.046051
0.388947 0.434113 0.039825
0.401581 0.442871 0.034363
0.414856 0.453278 0.029938
0.429077 0.464905 0.026703
0.444672 0.477478 0.024414
0.461853 0.490295 0.022461
0.480927 0.502533 0.021484
0.501892 0.514008 0.020935
0.524628 0.524933 0.020813
0.549713 0.537018 0.019989
0.577820 0.549957 0.018524
0.608582 0.561798 0.015625
0.640747 0.571198 0.013245
0.673737 0.578400 0.010742
0.706970 0.583679 0.008850
0.740265 0.587250 0.006958
0.773376 0.589722 0.005341
0.806305 0.591339 0.004211
0.838989 0.592407 0.003174
0.871338 0.593079 0.002472
0.903290 0.593506 0.002106
0.935181 0.593842 0.001770
0.966858 0.594086 0.000610
0.996124 0.594177 0.000214
0.318146 0.429993 0.105347
0.326324 0.431732 0.102234
0.334778 0.433563 0.098633
0.343719 0.435486 0.094513
0.353241 0.437500 0.089844
0.363464 0.439941 0.084290
0.374115 0.442871 0.078094
0.385162 0.446564 0.071655
0.396576 0.451385 0.064514
0.408295 0.457672 0.057465
0.420441 0.465820 0.050049
0.432953 0.475586 0.043427
0.446136 0.486847 0.037750
0.460327 0.499207 0.032623
0.475891 0.512268 0.028992
0.493286 0.525299 0.026459
0.512512 0.537506 0.024811
0.533691 0.548859 0.024017
0.556763 0.559723 0.023041
0.582184 0.571716 0.021973
0.610565 0.584290 0.019867
0.641449 0.595673 0.016815
0.673706 0.604767 0.013885
0.706696 0.611664 0.011444
0.740021 0.616638 0.009094
0.773254 0.619995 0.006866
0.806366 0.622223 0.005219
0.839233 0.623657 0.003876
0.871796 0.624542 0.002808
0.904083 0.625000 0.001984
0.935944 0.625275 0.001495
0.967468 0.625488 0.000488
0.997070 0.625549 0.000153
0.338867 0.455627 0.127594
0.347046 0.457489 0.124603
0.355408 0.459351 0.121368
0.364288 0.461273 0.117340
0.373749 0.463379 0.112732
0.383820 0.465668 0.107178
0.394318 0.468384 0.101074
0.405273 0.471802 0.094116
0.416565 0.476196 0.086456
0.428070 0.481964 0.078369
0.439697 0.489227 0.069946
0.451630 0.498260 0.061554
0.464081 0.509033 0.053375
0.477264 0.521118 0.045990
0.491516 0.534149 0.039856
0.507233 0.547516 0.034515
0.524750 0.560577 0.030884
0.544250 0.572815 0.028442
0.565704 0.584015 0.026978
0.589172 0.594910 0.025757
0.615051 0.606720 0.023865
0.643677 0.618896 0.021118
0.674652 0.629822 0.017883
0.707001 0.638489 0.014832
0.739990 0.644958 0.011871
0.773163 0.649628 0.009155
0.806335 0.652710 0.006836
0.839294 0.654663 0.005066
0.871979 0.655823 0.003662
0.904327 0.656433 0.002533
0.936401 0.656708 0.001617
0.967926 0.656799 0.000397
0.997925 0.656830 0.000031
0.359406 0.481598 0.150787
0.367615 0.483551 0.147980
0.375946 0.485443 0.144897
0.384796 0.487427 0.141266
0.394165 0.489471 0.136780
0.404083 0.491760 0.131622
0.414520 0.494385 0.125519
0.425385 0.497528 0.118683
0.436584 0.501587 0.110901
0.448029 0.506805 0.102478
0.459442 0.513428 0.093109
0.470978 0.521667 0.083282
0.482788 0.531616 0.073486
0.495178 0.543243 0.064178
0.508362 0.556122 0.055298
0.522675 0.569611 0.047485
0.538574 0.583221 0.040985
0.556305 0.596344 0.035858
0.576111 0.608490 0.032684
0.598053 0.619629 0.030060
0.622009 0.630493 0.028046
0.648285 0.642120 0.025543
0.677185 0.653839 0.022430
0.708313 0.664185 0.018860
0.740631 0.672333 0.015533
0.773499 0.678436 0.012146
0.806549 0.682709 0.009277
0.839447 0.685425 0.006989
0.872162 0.687042 0.005127
0.904541 0.687897 0.003510
0.936615 0.688232 0.002350
0.968048 0.688232 0.000580
0.998474 0.688110 0.000183
0.379730 0.507904 0.174683
0.387970 0.509949 0.172272
0.396332 0.511963 0.169342
0.405090 0.513977 0.165924
0.414429 0.516022 0.161896
0.424286 0.518311 0.157074
0.434662 0.520905 0.151337
0.445404 0.523865 0.144867
0.456543 0.527527 0.137329
0.467957 0.532288 0.128815
0.479309 0.538269 0.119171
0.490723 0.545837 0.108734
0.502228 0.554993 0.097748
0.513916 0.565918 0.086578
0.526215 0.578339 0.075653
0.539429 0.591736 0.065125
0.553925 0.605652 0.056061
0.569977 0.619415 0.047791
0.588043 0.632568 0.041443
0.608307 0.644775 0.036926
0.630768 0.655823 0.032928
0.655212 0.666626 0.030243
0.682007 0.678040 0.027313
0.711304 0.689240 0.023376
0.742432 0.698944 0.019714
0.774689 0.706512 0.015930
0.807373 0.712128 0.012512
0.840088 0.715942 0.009796
0.872681 0.718231 0.007294
0.904968 0.719421 0.005219
0.937012 0.719940 0.003479
0.968170 0.719971 0.001007
0.998169 0.719666 0.000366
0.399780 0.534729 0.199371
0.408142 0.536926 0.197205
0.416504 0.538971 0.194611
0.425201 0.540955 0.191406
0.434509 0.543152 0.187836
0.444336 0.545380 0.183289
0.454681 0.547943 0.178192
0.465424 0.550842 0.172119
0.476532 0.554321 0.165192
0.487946 0.558624 0.157135
0.499359 0.564148 0.147766
0.510712 0.571014 0.137268
0.522034 0.579407 0.125793
0.533417 0.589478 0.113312
0.545074 0.601257 0.100525
0.557373 0.614349 0.088013
0.570648 0.628265 0.075867
0.585236 0.642395 0.064758
0.601562 0.656433 0.055115
0.620056 0.669647 0.047119
0.640839 0.681763 0.040955
0.663818 0.692841 0.036407
0.688965 0.703644 0.032410
0.716278 0.714783 0.028473
0.745880 0.725403 0.024780
0.777100 0.734375 0.020721
0.809174 0.741333 0.016785
0.841553 0.746277 0.013306
0.873871 0.749451 0.010529
0.906006 0.751251 0.007812
0.937866 0.752014 0.005554
0.968414 0.752106 0.001526
0.997406 0.751709 0.000580
0.419617 0.562347 0.224945
0.428009 0.564697 0.223083
0.436340 0.566742 0.220673
0.445129 0.568878 0.218018
0.454437 0.571014 0.214630
0.464172 0.573334 0.210602
0.474457 0.575897 0.205902
0.485199 0.578735 0.200470
0.496277 0.582062 0.194153
0.507721 0.586060 0.186676
0.519257 0.591064 0.178040
0.530731 0.597260 0.167908
0.542053 0.604980 0.156525
0.553284 0.614197 0.143707
0.564636 0.625244 0.129883
0.576202 0.637726 0.115417
0.588501 0.651459 0.100830
0.601868 0.665771 0.087097
0.616699 0.680298 0.074097
0.633392 0.694458 0.062500
0.652405 0.707794 0.052917
0.673767 0.719849 0.045441
0.697418 0.730865 0.039764
0.723328 0.741699 0.035217
0.751343 0.752411 0.030609
0.781158 0.762329 0.026398
0.812317 0.770477 0.022278
0.844086 0.776642 0.018372
0.876007 0.780762 0.014893
0.907806 0.783264 0.011536
0.939392 0.784485 0.008728
0.968994 0.784760 0.002167
0.996490 0.784363 0.000793
0.439026 0.590820 0.251129
0.447449 0.593201 0.249512
0.455933 0.595428 0.247528
0.464752 0.597534 0.245056
0.474060 0.599854 0.242035
0.483795 0.602203 0.238525
0.494019 0.604767 0.234344
0.504791 0.607574 0.229462
0.515930 0.610840 0.223877
0.527374 0.614655 0.217133
0.539001 0.619263 0.209229
0.550598 0.624908 0.199921
0.562042 0.631927 0.189026
0.573364 0.640442 0.176544
0.584564 0.650665 0.162445
0.595734 0.662445 0.146942
0.607269 0.675720 0.130585
0.619629 0.689941 0.114227
0.633148 0.704742 0.098145
0.648285 0.719513 0.083069
0.665497 0.733795 0.069611
0.685028 0.747101 0.058167
0.707153 0.759186 0.049622
0.731689 0.770172 0.042999
0.758423 0.780823 0.037628
