src/assets/luts/ON1 Nature & Wildlife LUTs/CinematicX LUTs - 30 Free Cinematic LUTs - The Resolve Store 2022/Cruz - Rec709.cube
# Copyright: (C) Copyright 2022 The Resolve Store 
# Cannot be resold, shared or otherwise redistributed
TITLE "CinematicX (Rec.709)"
LUT_3D_SIZE 9
0.000000 0.000000 0.000000
0.068390 0.009247 0.000153
0.177765 0.017914 0.001038
0.302399 0.018372 0.001099
0.428284 0.016113 0.001190
0.555664 0.016174 0.001282
0.688416 0.017487 0.001740
0.826447 0.018005 0.001892
0.965515 0.016998 0.001984
0.012787 0.069885 0.008759
0.097687 0.081665 0.003052
0.208130 0.096924 0.002747
0.328979 0.103241 0.002777
0.452240 0.103973 0.002808
0.577881 0.105255 0.002747
0.707458 0.110168 0.002716
0.841309 0.117310 0.002869
0.976318 0.124481 0.002594
0.068573 0.150330 0.006165
0.137268 0.159790 0.003906
0.225586 0.185120 0.004059
0.346161 0.214966 0.004150
0.468933 0.223389 0.004333
0.593750 0.227325 0.004059
0.722076 0.232208 0.003693
0.853516 0.239044 0.003326
0.982697 0.246429 0.001343
0.152985 0.235413 0.007874
0.196838 0.244110 0.006165
0.259308 0.269379 0.005951
0.353363 0.312286 0.007355
0.478455 0.349854 0.006317
0.603760 0.360016 0.005310
0.731293 0.364624 0.004272
0.861694 0.368744 0.003662
0.987427 0.372803 0.001007
0.234680 0.329865 0.032745
0.271820 0.337524 0.023773
0.320282 0.357391 0.015839
0.386169 0.399445 0.013214
0.481232 0.447754 0.013062
0.608643 0.484375 0.008057
0.738831 0.494690 0.004395
0.867584 0.497711 0.003113
0.992615 0.499603 0.000580
0.318146 0.429993 0.105347
0.353241 0.437500 0.089844
0.396576 0.451385 0.064514
0.446136 0.486847 0.037750
0.512512 0.537506 0.024811
0.610565 0.584290 0.019867
0.740021 0.616638 0.009094
0.871796 0.624542 0.002808
0.997070 0.625549 0.000153
0.399780 0.534729 0.199371
0.434509 0.543152 0.187836
0.476532 0.554321 0.165192
0.522034 0.579407 0.125793
0.570648 0.628265 0.075867
0.640839 0.681763 0.040955
0.745880 0.725403 0.024780
0.873871 0.749451 0.010529
0.997406 0.751709 0.000580
0.476654 0.650818 0.304565
0.512115 0.660706 0.297882
0.553925 0.672272 0.283691
0.601013 0.691284 0.255890
0.646393 0.729492 0.199799
0.696106 0.787994 0.118744
0.775757 0.842072 0.057617
0.889404 0.878174 0.038574
0.994385 0.886475 0.001007
0.545990 0.787842 0.409760
0.581055 0.800079 0.406372
0.621887 0.815277 0.398071
0.669983 0.835663 0.382324
0.721924 0.865570 0.347809
0.768890 0.913696 0.265991
0.822449 0.974396 0.130585
0.909607 0.991669 0.000793
0.996796 0.996552 0.000885
0.000885 0.008911 0.019257
0.062592 0.014740 0.035645
0.177979 0.014008 0.039795
0.305237 0.008850 0.046112
0.431396 0.007416 0.055878
0.559326 0.009125 0.065826
0.691864 0.011078 0.076172
0.828491 0.012756 0.087555
0.966797 0.013306 0.098602
0.004608 0.079651 0.056610
0.075745 0.089539 0.057129
0.203674 0.095001 0.060028
0.334503 0.090088 0.060577
0.459167 0.085571 0.063507
0.583130 0.088898 0.070312
0.711090 0.098114 0.080048
0.843567 0.109070 0.091156
0.977661 0.119324 0.102051
0.025299 0.157959 0.062042
0.096649 0.167969 0.056671
0.212341 0.188141 0.058716
0.348236 0.213257 0.075592
0.475250 0.215973 0.078522
0.600647 0.216797 0.082184
0.727722 0.222076 0.088776
0.857239 0.231720 0.097900
0.985352 0.238770 0.090363
0.101471 0.239563 0.050964
0.159668 0.248901 0.045105
0.243225 0.271515 0.041656
0.350983 0.314087 0.054321
0.481323 0.351013 0.086029
0.607758 0.358704 0.094421
0.735382 0.362091 0.100250
0.864655 0.366425 0.107147
0.989410 0.370087 0.097534
0.202515 0.330963 0.068939
0.247742 0.339691 0.059631
0.307587 0.358429 0.046478
0.381805 0.399475 0.041382
0.481384 0.449707 0.058746
0.610870 0.485687 0.095886
0.740784 0.494659 0.109680
0.869141 0.497375 0.114685
0.993713 0.498810 0.106750
0.297852 0.430237 0.130310
0.337128 0.438782 0.119354
0.386719 0.452637 0.098267
0.442261 0.485931 0.072174
0.511627 0.537506 0.056458
0.611572 0.586212 0.069214
0.741669 0.617615 0.103485
0.872589 0.624634 0.118835
0.997406 0.625397 0.116241
0.386322 0.535645 0.217987
0.423431 0.544647 0.208801
0.468872 0.556274 0.190674
0.519012 0.579529 0.158478
0.570770 0.626770 0.115082
0.641541 0.682037 0.081573
0.747192 0.727112 0.084198
0.874939 0.750214 0.111298
0.997833 0.751740 0.114349
0.466553 0.652405 0.322205
0.503723 0.662476 0.316223
0.547699 0.674500 0.303558
0.597900 0.692932 0.279999
0.647186 0.728943 0.235107
0.698395 0.786774 0.167206
0.777161 0.842682 0.112732
0.890411 0.879608 0.113892
0.995056 0.886993 0.078400
0.537903 0.790161 0.432220
0.573669 0.801941 0.428833
0.615906 0.817291 0.420959
0.666199 0.837921 0.406311
0.721497 0.866821 0.376862
0.772247 0.912994 0.311157
0.825104 0.973969 0.181366
0.910034 0.992676 0.000854
0.997955 0.997711 0.025482
0.002197 0.023956 0.057434
0.051697 0.030670 0.097595
0.160522 0.031677 0.103699
0.288239 0.021454 0.116119
0.420563 0.011169 0.133575
0.552155 0.007477 0.151794
0.686188 0.007660 0.169830
0.823334 0.008636 0.188080
0.961914 0.008698 0.205780
0.001587 0.094360 0.112732
0.045654 0.105316 0.127869
0.173645 0.106049 0.135651
0.318146 0.096069 0.143799
0.450867 0.082214 0.151093
0.578491 0.079376 0.162476
0.707275 0.087219 0.177612
0.839935 0.098907 0.194855
0.974640 0.111328 0.212189
0.006775 0.172211 0.142792
0.048309 0.183655 0.149323
0.175079 0.196381 0.153748
0.335693 0.213745 0.176056
0.473206 0.213470 0.184021
0.601898 0.209900 0.188599
0.729218 0.212158 0.196381
0.857819 0.221527 0.208282
0.991669 0.212830 0.180450
0.033691 0.251526 0.143860
0.085907 0.261597 0.143860
0.195007 0.278534 0.144348
0.334808 0.314545 0.162598
0.480011 0.351776 0.205261
0.609283 0.357330 0.212219
0.737823 0.358978 0.216827
0.866730 0.362762 0.224030
0.994568 0.362457 0.196777
0.124420 0.334900 0.143707
0.178101 0.344330 0.140808
0.262421 0.360443 0.135284
0.361237 0.395996 0.136627
0.474915 0.448486 0.164459
0.611755 0.487152 0.216400
0.741913 0.494324 0.229462
0.870453 0.496643 0.234863
0.996399 0.496735 0.214417
0.242676 0.428894 0.175446
0.289612 0.438660 0.170837
0.354523 0.453094 0.160156
0.425537 0.482025 0.145325
0.504059 0.532593 0.137573
0.609253 0.586212 0.162598
0.742676 0.618652 0.219208
0.873322 0.624634 0.241241
0.998260 0.624969 0.232849
0.354248 0.534119 0.242798
0.395599 0.544250 0.237579
0.449036 0.557220 0.225311
0.508270 0.578796 0.203674
0.567383 0.622772 0.173492
0.640717 0.680237 0.148743
0.747620 0.728485 0.167297
0.875854 0.750916 0.221985
0.998627 0.751434 0.232269
0.446198 0.652130 0.341187
0.485168 0.662628 0.336975
0.533295 0.675751 0.327026
0.588837 0.694031 0.308685
0.644592 0.727112 0.276154
0.699677 0.783417 0.226715
0.778259 0.841919 0.185974
0.891296 0.880859 0.200714
0.996338 0.887390 0.158691
0.524536 0.791077 0.454407
0.561066 0.802765 0.451355
0.604889 0.818237 0.444153
0.657959 0.839203 0.430908
0.717834 0.867462 0.406586
0.774536 0.910736 0.357147
0.826538 0.972260 0.212677
0.910217 0.994629 0.000885
0.999420 0.999176 0.050049
0.005920 0.046356 0.109650
0.048340 0.057159 0.147461
0.147034 0.060486 0.171082
0.257446 0.060760 0.175812
0.390472 0.041870 0.200928
0.530243 0.021332 0.230194
0.670715 0.011841 0.258148
0.812164 0.008972 0.285156
0.953796 0.008240 0.310547
0.001404 0.110840 0.160889
0.029633 0.122620 0.180145
0.138489 0.128571 0.207977
0.279846 0.122742 0.208832
0.419464 0.104584 0.226807
0.556946 0.087463 0.247925
0.693176 0.083679 0.270660
0.830261 0.091736 0.295105
0.969147 0.106384 0.320343
0.000000 0.190552 0.211365
0.017181 0.203217 0.227600
0.126587 0.215363 0.240509
0.298065 0.221069 0.252045
0.452454 0.219208 0.273865
0.589783 0.209625 0.287354
0.722290 0.204773 0.299896
0.853485 0.211578 0.315979
0.994781 0.176208 0.314850
0.007782 0.277893 0.244659
0.032074 0.289185 0.253662
0.136200 0.301453 0.261047
0.302673 0.321655 0.272522
0.466431 0.349426 0.309998
0.605133 0.355316 0.325897
0.737244 0.355713 0.334259
0.866943 0.358978 0.343170
0.999939 0.352448 0.330750
0.044342 0.360657 0.254395
0.090912 0.369354 0.257324
0.188202 0.379486 0.258301
0.319946 0.401703 0.264252
0.460175 0.446503 0.291870
0.609467 0.486969 0.344025
0.741455 0.493469 0.353943
0.871033 0.495850 0.359680
1.000000 0.493835 0.346985
0.154053 0.443878 0.265839
0.204529 0.451813 0.265869
0.284302 0.462799 0.263550
0.379761 0.482574 0.262054
0.481689 0.524506 0.269196
0.601135 0.582062 0.299744
0.742340 0.619110 0.353180
0.873413 0.624481 0.368164
1.000000 0.624176 0.356873
0.282562 0.538239 0.302673
0.326935 0.547333 0.301636
0.391754 0.560059 0.297302
0.467438 0.578064 0.290222
0.544800 0.612579 0.281891
0.629761 0.668549 0.278931
0.742645 0.724854 0.304230
0.875061 0.750519 0.354736
0.999878 0.750641 0.360229
0.398285 0.652496 0.377106
0.438202 0.662262 0.375244
0.492981 0.675659 0.369659
0.558533 0.693787 0.359650
0.627106 0.722015 0.342987
0.693756 0.772827 0.319275
0.775909 0.834503 0.300598
0.889832 0.879395 0.321869
0.999023 0.886871 0.249451
0.497406 0.791412 0.480957
0.535156 0.802612 0.478668
0.581573 0.817871 0.472687
0.638519 0.838715 0.462097
0.704834 0.866425 0.444733
0.771698 0.906311 0.413086
0.826416 0.967926 0.256622
0.910004 0.997955 0.000793
1.000000 0.999786 0.264526
0.017731 0.071045 0.159332
0.061096 0.082550 0.188446
0.138489 0.086273 0.227997
0.241791 0.094635 0.237640
0.351685 0.096344 0.245789
0.488464 0.073517 0.285065
0.637360 0.044983 0.328430
0.788544 0.023987 0.368347
0.938293 0.014435 0.404572
0.007019 0.128876 0.205109
0.031433 0.140594 0.223083
0.117371 0.152283 0.247620
0.253937 0.154175 0.275024
0.375275 0.147339 0.276337
0.512695 0.127563 0.308136
0.659393 0.107941 0.345428
0.808105 0.100311 0.381714
0.956573 0.109222 0.417908
0.000000 0.205994 0.260803
0.006622 0.219513 0.280304
0.090973 0.234467 0.299133
0.257172 0.244720 0.325806
0.408295 0.241272 0.328735
0.552551 0.227875 0.356323
0.695435 0.213989 0.382904
0.836975 0.211304 0.409210
0.986237 0.201660 0.431702
0.000000 0.304169 0.324219
0.007782 0.317871 0.340179
0.095520 0.331635 0.355255
0.262665 0.346039 0.367279
0.432037 0.356842 0.381897
0.584076 0.359802 0.412415
0.724762 0.355652 0.432312
0.860291 0.355560 0.448578
1.000000 0.346619 0.453339
0.018219 0.402985 0.368073
0.047119 0.413086 0.376892
0.137665 0.421570 0.382935
0.279999 0.431458 0.387238
0.436249 0.454895 0.401367
0.594788 0.484192 0.442474
0.735199 0.491455 0.463684
0.869080 0.493286 0.475525
1.000000 0.491302 0.476501
0.095795 0.486847 0.385010
0.140137 0.492493 0.387177
0.217224 0.497864 0.386993
0.323059 0.505951 0.387329
0.447266 0.529724 0.394470
0.587158 0.578430 0.423462
0.739014 0.617981 0.476959
0.872406 0.623779 0.489075
1.000000 0.623505 0.488251
0.217010 0.566345 0.398743
0.257690 0.572662 0.399597
0.321686 0.580566 0.398895
0.404358 0.591492 0.398499
0.500763 0.613098 0.400330
0.607269 0.658813 0.410706
0.734253 0.719086 0.440277
0.874023 0.749908 0.484619
1.000000 0.750580 0.493408
0.339813 0.668701 0.444153
0.377991 0.676697 0.444641
0.433624 0.687469 0.443146
0.504333 0.702209 0.440704
0.585968 0.724152 0.437927
0.671814 0.764343 0.434875
0.767426 0.824005 0.436676
0.886932 0.876099 0.454376
1.000000 0.885803 0.450531
0.454773 0.801941 0.526154
0.493591 0.812439 0.525543
0.542053 0.826233 0.522369
0.602325 0.844879 0.516846
0.670929 0.871338 0.497986
0.745605 0.909302 0.445984
0.817413 0.965118 0.323242
0.911316 0.999969 0.303467
1.000000 0.999756 0.431030
0.038086 0.096100 0.204773
0.077820 0.107178 0.229980
0.135437 0.113373 0.282410
0.237854 0.121460 0.297607
0.339539 0.132477 0.304474
0.444763 0.136047 0.316956
0.586243 0.114075 0.370361
0.745117 0.083282 0.429016
0.906128 0.055847 0.481598
0.019684 0.150299 0.248535
0.048035 0.161926 0.265900
0.114868 0.175568 0.291443
0.238190 0.183594 0.335693
0.358795 0.186462 0.339844
0.466675 0.180267 0.343750
0.606903 0.163635 0.390808
0.764435 0.147675 0.445984
0.923981 0.144836 0.498505
0.000000 0.222198 0.304871
0.009277 0.235718 0.323334
0.077209 0.251556 0.343597
0.224457 0.270630 0.368378
0.380798 0.274475 0.394928
0.502563 0.265503 0.395386
0.643982 0.249054 0.433563
0.795929 0.239777 0.478424
0.949219 0.251831 0.525116
0.000000 0.321503 0.377716
0.000000 0.336334 0.396179
0.067139 0.352051 0.415131
0.226044 0.369202 0.431580
0.394745 0.381866 0.454376
0.539185 0.380951 0.459961
0.685883 0.371094 0.494843
0.832672 0.364899 0.528748
0.992981 0.350037 0.552124
0.001892 0.434143 0.452606
0.021576 0.446381 0.465912
0.111572 0.458160 0.478271
0.255035 0.468567 0.486847
0.406708 0.481750 0.495575
0.561737 0.493896 0.510651
0.712616 0.497040 0.546234
0.856018 0.494568 0.571747
1.000000 0.488739 0.585510
0.080170 0.535706 0.499481
0.117584 0.542328 0.504974
0.187317 0.548492 0.509216
0.294586 0.553894 0.511536
0.420685 0.562225 0.513702
0.566284 0.587036 0.528595
0.723175 0.616394 0.571167
0.873108 0.620819 0.588989
1.000000 0.621735 0.603577
0.188538 0.616669 0.516510
0.222992 0.621857 0.519073
0.277161 0.627045 0.520569
0.356232 0.631958 0.521576
0.455994 0.639679 0.522705
0.575836 0.664764 0.530853
0.718628 0.714935 0.559845
0.875122 0.748505 0.595001
1.000000 0.751862 0.611511
0.299225 0.706909 0.542328
0.332001 0.713257 0.544281
0.380402 0.720490 0.545471
0.446625 0.729492 0.546936
0.530182 0.742554 0.549561
0.630005 0.767822 0.554169
0.744568 0.816650 0.564667
0.881653 0.873199 0.547333
1.000000 0.885620 0.600708
0.412231 0.828918 0.598602
0.448639 0.837982 0.600250
0.494781 0.849335 0.601257
0.521912 0.870544 0.578522
0.582336 0.895294 0.549561
0.686127 0.921844 0.538391
0.794220 0.961884 0.524933
0.906250 0.999969 0.525879
1.000000 0.999756 0.589752
0.063202 0.121796 0.248779
0.097595 0.134399 0.273468
0.139587 0.144714 0.328308
0.234467 0.156616 0.356476
0.342957 0.166321 0.369690
0.438232 0.177063 0.375214
0.540802 0.183197 0.392700
0.686676 0.162109 0.458527
0.849854 0.131531 0.530182
0.046661 0.175079 0.293915
0.076355 0.186554 0.310547
0.127380 0.201874 0.335693
0.226135 0.215454 0.393738
0.358429 0.223907 0.407318
0.459015 0.225342 0.406616
0.561340 0.223511 0.416595
0.706299 0.212402 0.478882
0.864624 0.207214 0.548828
0.008209 0.242828 0.348846
0.029755 0.255371 0.364441
0.090271 0.270996 0.384033
0.207520 0.293762 0.412109
0.363434 0.306671 0.457794
0.484344 0.307068 0.458344
0.592621 0.296844 0.460663
0.735992 0.287140 0.514435
0.894104 0.296753 0.581268
0.000000 0.338562 0.424225
0.000153 0.352936 0.442078
0.066071 0.367218 0.459442
0.200836 0.385651 0.478729
0.360931 0.407043 0.500244
0.508972 0.411652 0.522064
0.631744 0.405273 0.525665
0.777802 0.394684 0.572449
0.927277 0.398285 0.624420
0.000000 0.452667 0.509491
0.002869 0.465942 0.524872
0.095886 0.477966 0.538300
0.231506 0.490906 0.550354
0.376648 0.506500 0.561951
0.525330 0.518555 0.578278
0.664764 0.518646 0.587891
0.813049 0.511475 0.629639
0.976227 0.498749 0.666168
0.068237 0.567139 0.583344
0.106445 0.575287 0.591736
0.173920 0.583984 0.600403
0.282257 0.593781 0.608643
0.406647 0.602203 0.613617
0.541077 0.613647 0.619751
0.687927 0.627075 0.636536
0.852936 0.625946 0.672180
0.992920 0.625275 0.702393
0.185822 0.665314 0.626526
0.216095 0.671844 0.631866
0.261505 0.678986 0.637421
0.337769 0.686310 0.642578
0.439056 0.690796 0.643951
0.555115 0.698547 0.645660
0.695160 0.723938 0.661652
0.862061 0.749664 0.692261
1.000000 0.755646 0.721313
0.286377 0.760529 0.658112
0.314728 0.766998 0.662048
0.354767 0.773895 0.665802
0.414795 0.781036 0.669647
0.496094 0.787720 0.672791
0.593414 0.798035 0.675049
0.699524 0.830292 0.662689
0.863037 0.871735 0.685028
1.000000 0.888275 0.734131
0.384796 0.873047 0.700134
0.417938 0.881012 0.703888
0.443512 0.892517 0.704834
0.451355 0.910370 0.696320
0.514069 0.926758 0.690918
0.623779 0.942932 0.692230
0.749084 0.968567 0.693237
0.884613 0.999908 0.701447
1.000000 0.999786 0.746613
0.087067 0.149902 0.293854
0.118591 0.163696 0.318054
0.157928 0.179932 0.354553
0.231232 0.193634 0.413422
0.349670 0.206085 0.436310
0.448517 0.218506 0.444061
0.537170 0.231354 0.450775
0.637299 0.239105 0.472870
0.779938 0.215546 0.546295
0.081024 0.202454 0.340118
0.108063 0.214233 0.356506
0.148529 0.230896 0.381439
0.227814 0.250977 0.421448
0.357269 0.263123 0.470825
0.467590 0.270294 0.477753
0.558228 0.274780 0.478485
0.658783 0.280243 0.496948
0.793457 0.275848 0.566132
0.040649 0.266418 0.391418
0.073547 0.277954 0.405060
0.120514 0.293823 0.424591
0.206421 0.317108 0.454102
0.346252 0.337372 0.512634
0.480927 0.345367 0.524475
0.580353 0.344391 0.520874
0.683441 0.343170 0.532135
0.824280 0.351898 0.602936
0.002045 0.359436 0.470306
0.036499 0.370850 0.483429
0.099792 0.383423 0.498749
0.196075 0.401917 0.519531
0.338226 0.427155 0.544312
0.490173 0.439026 0.581909
0.607513 0.441528 0.581909
0.719177 0.438446 0.590302
0.857727 0.442474 0.651733
0.000000 0.470306 0.558777
0.033508 0.480774 0.570862
0.113831 0.491058 0.582581
0.218201 0.504639 0.596680
0.351227 0.522614 0.611847
0.494049 0.541016 0.626251
0.631470 0.545837 0.644379
0.753448 0.544189 0.653412
0.916595 0.530212 0.708496
0.066345 0.585083 0.640656
0.110260 0.593170 0.649536
0.171967 0.602570 0.659973
0.269501 0.614685 0.671387
0.388306 0.626892 0.680389
0.515747 0.639801 0.687744
0.650269 0.650879 0.699188
0.795013 0.650269 0.716370
0.944855 0.645721 0.760406
0.190094 0.694550 0.707306
0.218170 0.702515 0.715179
0.256989 0.711975 0.724670
0.328827 0.723358 0.735138
0.432404 0.733124 0.742371
0.546661 0.740082 0.745392
0.668549 0.751404 0.752014
0.819794 0.763702 0.767914
0.971832 0.768463 0.808411
0.289673 0.806091 0.763489
0.315155 0.813873 0.769836
0.347870 0.822754 0.777039
0.401001 0.832764 0.785126
0.483643 0.841827 0.791840
0.558105 0.852417 0.794647
0.672272 0.863403 0.795135
0.832001 0.882355 0.807709
0.993103 0.899261 0.846619
0.347656 0.928070 0.816925
0.344910 0.938934 0.821228
0.327454 0.953674 0.825012
0.372192 0.966034 0.829315
0.468750 0.974884 0.834259
0.583618 0.982941 0.838440
0.711578 0.993896 0.842285
0.856476 0.999878 0.851196
1.000000 0.999908 0.886841
0.111023 0.180115 0.339783
0.141174 0.194397 0.363464
0.179443 0.212585 0.393829
0.235809 0.226318 0.463043
0.351349 0.245575 0.490479
0.459900 0.261444 0.509399
0.547791 0.277527 0.516571
0.630219 0.292206 0.526093
0.720062 0.298157 0.548889
0.113892 0.232544 0.387848
0.139832 0.244537 0.404266
0.176117 0.261200 0.428040
0.241241 0.281342 0.461823
0.358063 0.298309 0.524323
0.476959 0.312408 0.542236
0.568909 0.324921 0.547119
0.653778 0.336945 0.554016
0.736542 0.346619 0.571930
0.088013 0.291687 0.433289
0.116821 0.303467 0.446930
0.155823 0.319855 0.466492
0.223022 0.341400 0.495575
0.344543 0.366089 0.542999
0.479279 0.379211 0.581635
0.582245 0.388489 0.585693
0.672546 0.396362 0.587769
0.765045 0.411011 0.608673
0.060822 0.379150 0.510437
0.098541 0.389252 0.521912
0.144989 0.402283 0.537506
0.214874 0.420349 0.558014
0.333923 0.446289 0.583740
0.475647 0.463989 0.633636
0.599213 0.473450 0.640350
0.698547 0.479858 0.640686
0.795258 0.491852 0.657928
0.055725 0.485168 0.599274
0.101746 0.493805 0.608887
0.153961 0.504333 0.621094
0.227600 0.518127 0.636261
0.342529 0.536865 0.653229
0.476318 0.558502 0.669922
0.612457 0.569336 0.699768
0.723846 0.576080 0.702087
0.844330 0.575714 0.723114
0.106659 0.596802 0.685486
0.144440 0.605011 0.694702
0.193054 0.614838 0.705841
0.270416 0.627258 0.718201
0.377258 0.641266 0.729431
0.497559 0.656464 0.738953
0.622009 0.672485 0.751007
0.756470 0.676239 0.775726
0.878143 0.680023 0.788391
0.195801 0.711456 0.764557
0.223297 0.720154 0.773956
0.258942 0.730469 0.785553
0.323151 0.743286 0.798645
0.421387 0.756195 0.809204
0.532623 0.767029 0.815796
0.623962 0.782684 0.835693
0.773041 0.789001 0.841949
0.909271 0.795563 0.857910
0.295868 0.833252 0.844452
0.320709 0.841919 0.853027
0.349762 0.852264 0.863586
0.395721 0.864960 0.876495
0.455872 0.880554 0.891541
0.505524 0.898560 0.909180
0.654053 0.902771 0.911438
0.801056 0.907593 0.915558
0.944916 0.916595 0.932770
0.190125 0.976166 0.930328
0.194153 0.987640 0.939331
0.254852 0.994446 0.948730
0.342896 0.997772 0.958344
0.449402 0.999329 0.967438
0.569153 0.999939 0.975067
0.698578 0.999969 0.981201
0.837250 0.999969 0.986420
0.978424 1.000000 1.000000
