src/assets/luts/ON1 Nature & Wildlife LUTs/CinematicX LUTs - 30 Free Cinematic LUTs - The Resolve Store 2022/Cuyon - Rec709.cube
# Copyright: (C) Copyright 2022 The Resolve Store 
# Cannot be resold, shared or otherwise redistributed
TITLE "CinematicX (Rec.709)"
LUT_3D_SIZE 5
0.000000 0.000580 0.000000
0.165344 0.000488 0.010590
0.417267 0.000000 0.002472
0.695984 0.000000 0.000000
0.969177 0.000153 0.000000
0.000153 0.111969 0.051514
0.211517 0.151733 0.047119
0.478455 0.210693 0.001953
0.732269 0.227783 0.000000
0.986389 0.240295 0.000000
0.002045 0.289368 0.105927
0.227173 0.355499 0.122406
0.522888 0.417786 0.057373
0.752625 0.489197 0.000000
0.998535 0.496002 0.000000
0.031372 0.497742 0.130249
0.286835 0.577209 0.115814
0.587219 0.642365 0.075623
0.789673 0.694305 0.028351
0.999786 0.746918 0.000000
0.204346 0.794800 0.235229
0.409698 0.823792 0.198547
0.628815 0.871613 0.157898
0.837830 0.909698 0.072601
1.000000 0.950317 0.050781
0.000000 0.004150 0.146545
0.128082 0.003540 0.192566
0.395569 0.000397 0.200653
0.678558 0.000000 0.218994
0.959412 0.000000 0.229309
0.000000 0.132446 0.219543
0.154327 0.155670 0.259644
0.475891 0.204681 0.241150
0.729706 0.222321 0.235382
0.983826 0.236450 0.236420
0.003540 0.313080 0.282959
0.176025 0.373260 0.329926
0.520874 0.437988 0.308899
0.753784 0.492310 0.241699
0.998993 0.496948 0.239960
0.028320 0.522247 0.326294
0.253418 0.604675 0.365173
0.564728 0.664062 0.358795
0.786163 0.711151 0.277344
0.999878 0.748505 0.240326
0.092010 0.780060 0.372070
0.323639 0.823639 0.373016
0.593079 0.877899 0.360474
0.821014 0.928741 0.327545
1.000000 0.971436 0.269836
0.000000 0.015656 0.301849
0.083862 0.007965 0.370331
0.333252 0.004730 0.360474
0.612000 0.000397 0.414429
0.924164 0.000000 0.467377
0.000000 0.162292 0.375000
0.088287 0.183167 0.428192
0.413666 0.176208 0.461395
0.685455 0.192291 0.467377
0.961823 0.224945 0.489868
0.006500 0.346191 0.438049
0.132385 0.396576 0.488770
0.493713 0.459961 0.542725
0.752228 0.490112 0.509216
0.996216 0.497223 0.500732
0.033203 0.546356 0.499207
0.183868 0.607910 0.536499
0.534790 0.681824 0.580902
0.777344 0.724976 0.557617
0.999908 0.749329 0.497437
0.075134 0.785065 0.551331
0.224548 0.830688 0.570282
0.563263 0.890503 0.585907
0.803955 0.945953 0.597412
1.000000 0.987762 0.571716
0.000000 0.057831 0.461029
0.066711 0.055481 0.524506
0.313599 0.060150 0.590576
0.525879 0.011963 0.523682
0.810272 0.005615 0.627289
0.001038 0.204773 0.526459
0.071442 0.222900 0.563782
0.338165 0.267944 0.664368
0.619080 0.206390 0.626160
0.874817 0.211456 0.688385
0.012543 0.389954 0.604828
0.105988 0.424713 0.642883
0.395172 0.492615 0.716766
0.710114 0.502838 0.730194
0.957947 0.508972 0.757141
0.041473 0.586060 0.662109
0.132568 0.623718 0.691681
0.468262 0.706421 0.753693
0.752319 0.741730 0.785980
0.993103 0.753967 0.771118
0.071991 0.793213 0.724213
0.171265 0.835876 0.750580
0.481750 0.897858 0.783661
0.785065 0.954773 0.816467
1.000000 0.993500 0.830566
0.000000 0.119995 0.628510
0.068359 0.136566 0.684021
0.252502 0.175385 0.776825
0.597290 0.161194 0.790314
0.741394 0.126526 0.756958
0.006195 0.257721 0.680420
0.077515 0.278076 0.711151
0.235626 0.326019 0.807404
0.634216 0.360535 0.855560
0.805511 0.340515 0.834137
0.023621 0.431152 0.764832
0.100647 0.452148 0.787903
0.252563 0.502045 0.850739
0.652130 0.556427 0.906311
0.866272 0.581085 0.912811
0.055634 0.640259 0.854248
0.134705 0.672058 0.886047
0.393768 0.733643 0.945221
0.712585 0.764160 0.964355
0.920990 0.790039 0.974335
0.068726 0.810699 0.897644
0.154968 0.855194 0.933594
0.340576 0.913055 0.977417
0.734619 0.968445 0.992401
0.987579 0.994568 0.998169
