src/assets/luts/ON1 Nature & Wildlife LUTs/CinematicX LUTs - 30 Free Cinematic LUTs - The Resolve Store 2022/Cuyon - Rec709.cube
# Copyright: (C) Copyright 2022 The Resolve Store 
# Cannot be resold, shared or otherwise redistributed
TITLE "CinematicX (Rec.709)"
LUT_3D_SIZE 9
0.000000 0.000580 0.000000
0.061371 0.001129 0.008636
0.165344 0.000488 0.010590
0.287231 0.000000 0.007355
0.417267 0.000000 0.002472
0.555267 0.000000 0.000000
0.695984 0.000000 0.000000
0.834564 0.000214 0.000000
0.969177 0.000153 0.000000
0.000580 0.044434 0.023438
0.076965 0.052551 0.026764
0.199799 0.073029 0.015900
0.320831 0.081696 0.007874
0.446350 0.088776 0.002228
0.578491 0.096130 0.000000
0.713440 0.103760 0.000000
0.846893 0.110413 0.000000
0.977539 0.115479 0.000000
0.000153 0.111969 0.051514
0.077606 0.125549 0.060059
0.211517 0.151733 0.047119
0.353271 0.198212 0.012115
0.478455 0.210693 0.001953
0.604645 0.219757 0.000000
0.732269 0.227783 0.000000
0.859680 0.234741 0.000000
0.986389 0.240295 0.000000
0.000366 0.198059 0.081085
0.072754 0.219513 0.097046
0.218689 0.245544 0.094360
0.370117 0.281219 0.058838
0.498871 0.335938 0.009033
0.623047 0.352417 0.000000
0.746552 0.359039 0.000000
0.869904 0.363953 0.000000
0.993835 0.367920 0.000000
0.002045 0.289368 0.105927
0.075317 0.320984 0.125397
0.227173 0.355499 0.122406
0.395203 0.382446 0.103760
0.522888 0.417786 0.057373
0.633667 0.470795 0.005371
0.752625 0.489197 0.000000
0.875122 0.493439 0.000000
0.998535 0.496002 0.000000
0.008331 0.385864 0.122314
0.091919 0.427612 0.141602
0.244171 0.466278 0.126007
0.420959 0.499359 0.103271
0.555573 0.520752 0.083405
0.661285 0.554932 0.039703
0.761261 0.602875 0.001434
0.877136 0.619659 0.000000
0.999878 0.623413 0.000000
0.031372 0.497742 0.130249
0.136383 0.540741 0.141937
0.286835 0.577209 0.115814
0.452698 0.614563 0.091461
0.587219 0.642365 0.075623
0.695465 0.659882 0.054443
0.789673 0.694305 0.028351
0.885406 0.733002 0.000000
0.999786 0.746918 0.000000
0.107513 0.644897 0.166168
0.225403 0.671875 0.164307
0.356720 0.700043 0.144379
0.491302 0.732605 0.128082
0.613953 0.761475 0.111237
0.719940 0.781555 0.080750
0.820618 0.798279 0.051636
0.909943 0.828064 0.024658
0.999054 0.859283 0.002350
0.204346 0.794800 0.235229
0.306641 0.807159 0.223846
0.409698 0.823792 0.198547
0.519684 0.846802 0.177979
0.628815 0.871613 0.157898
0.734711 0.893524 0.118652
0.837830 0.909698 0.072601
0.933929 0.921814 0.048370
1.000000 0.950317 0.050781
0.000000 0.002960 0.066284
0.051239 0.002960 0.094299
0.154694 0.002106 0.095886
0.279816 0.000580 0.097046
0.410706 0.000000 0.100464
0.548004 0.000000 0.102325
0.688782 0.000000 0.103577
0.829193 0.000000 0.105469
0.965881 0.000000 0.107666
0.000000 0.049011 0.100403
0.059296 0.052856 0.115845
0.187195 0.071533 0.116333
0.317749 0.079834 0.110138
0.443573 0.086121 0.107178
0.574005 0.092438 0.105988
0.708496 0.099731 0.105927
0.843231 0.106873 0.107147
0.975281 0.113190 0.108917
0.000000 0.121521 0.136017
0.060486 0.132843 0.150055
0.194214 0.155975 0.151062
0.353790 0.200958 0.127075
0.480957 0.210724 0.116089
0.605927 0.218048 0.111084
0.732452 0.225464 0.109344
0.859558 0.232819 0.109558
0.986298 0.239258 0.110657
0.000366 0.208954 0.169220
0.058624 0.226959 0.186615
0.196503 0.254639 0.198914
0.366882 0.290283 0.175171
0.501160 0.341553 0.127563
0.625031 0.354004 0.115112
0.747925 0.359711 0.111847
0.870728 0.364380 0.111450
0.994385 0.368256 0.112000
0.002594 0.301056 0.195862
0.064972 0.328888 0.216766
0.206116 0.365784 0.234192
0.385986 0.394196 0.228058
0.523132 0.427185 0.180176
0.634644 0.475372 0.123993
0.753387 0.490540 0.113770
0.875671 0.494171 0.112732
0.998840 0.496490 0.113098
0.009674 0.398560 0.215149
0.084076 0.438110 0.238281
0.230408 0.480682 0.251648
0.408569 0.512543 0.243225
0.550934 0.533203 0.224060
0.661377 0.564240 0.164398
0.761627 0.606354 0.118286
0.877319 0.620667 0.113495
0.999908 0.623627 0.113953
0.027100 0.509216 0.230896
0.120331 0.552338 0.249969
0.271027 0.592926 0.252777
0.433960 0.625916 0.235352
0.576080 0.653595 0.221008
0.690826 0.671906 0.187592
0.788666 0.701874 0.134552
0.885345 0.735779 0.113403
0.999817 0.747620 0.113861
0.070587 0.642609 0.253479
0.178558 0.674225 0.261017
0.324463 0.705872 0.256622
0.465210 0.736023 0.238770
0.597473 0.766815 0.225525
0.711029 0.789795 0.197723
0.815399 0.807587 0.153778
0.908325 0.835480 0.118500
0.999054 0.862762 0.114288
0.134674 0.788879 0.298523
0.246338 0.803223 0.293274
0.374634 0.823181 0.283325
0.496277 0.847870 0.270477
0.612732 0.874878 0.258881
0.724091 0.899811 0.234406
0.830200 0.919434 0.193756
0.929840 0.935028 0.153564
1.000000 0.961334 0.144135
0.000000 0.004150 0.146545
0.041260 0.004150 0.184937
0.128082 0.003540 0.192566
0.261108 0.001587 0.191101
0.395569 0.000397 0.200653
0.535309 0.000000 0.211487
0.678558 0.000000 0.218994
0.820831 0.000000 0.224548
0.959412 0.000000 0.229309
0.000000 0.055573 0.180695
0.042542 0.058380 0.207428
0.141022 0.059570 0.223236
0.295898 0.070038 0.218353
0.429749 0.078827 0.217438
0.562378 0.087097 0.221375
0.698914 0.095093 0.225220
0.835602 0.102661 0.228729
0.969604 0.109467 0.232208
0.000000 0.132446 0.219543
0.044647 0.141998 0.239044
0.154327 0.155670 0.259644
0.337189 0.190796 0.251099
0.475891 0.204681 0.241150
0.602631 0.214172 0.237000
0.729706 0.222321 0.235382
0.856934 0.229553 0.235260
0.983826 0.236450 0.236420
0.000580 0.221375 0.254059
0.046722 0.235809 0.272003
0.164795 0.264435 0.297119
0.351807 0.297760 0.295624
0.500854 0.345459 0.256775
0.625732 0.355286 0.245209
0.748413 0.360840 0.240692
0.870941 0.364838 0.239075
0.994415 0.368347 0.238983
0.003540 0.313080 0.282959
0.054199 0.334381 0.301239
0.176025 0.373260 0.329926
0.368317 0.407318 0.341400
0.520874 0.437988 0.308899
0.634277 0.481384 0.253113
0.753784 0.492310 0.241699
0.876007 0.495056 0.239868
0.998993 0.496948 0.239960
0.011353 0.411163 0.305664
0.074860 0.444458 0.326874
0.207825 0.488953 0.353638
0.391998 0.523987 0.363770
0.543945 0.545349 0.353180
0.659668 0.573761 0.301117
0.760712 0.611359 0.247406
0.877045 0.622101 0.240326
0.999939 0.623871 0.240509
0.028320 0.522247 0.326294
0.107910 0.561676 0.346191
0.253418 0.604675 0.365173
0.419830 0.637421 0.366699
0.564728 0.664062 0.358795
0.684631 0.683502 0.336273
0.786163 0.711151 0.277344
0.884369 0.739685 0.241272
0.999878 0.748505 0.240326
0.058228 0.648560 0.348328
0.145813 0.680603 0.360016
0.296173 0.715149 0.368500
0.446289 0.744263 0.362488
0.580841 0.773804 0.353424
0.700806 0.799042 0.338776
0.808533 0.818756 0.301666
0.905487 0.844452 0.252777
0.999146 0.866669 0.238861
0.092010 0.780060 0.372070
0.177460 0.798248 0.372650
0.323639 0.823639 0.373016
0.468842 0.849854 0.367126
0.593079 0.877899 0.360474
0.711121 0.905792 0.350098
0.821014 0.928741 0.327545
0.924042 0.947174 0.297546
1.000000 0.971436 0.269836
0.000000 0.006653 0.224609
0.034332 0.005157 0.262482
0.104523 0.004150 0.288116
0.227936 0.003540 0.281036
0.363892 0.002075 0.285950
0.506561 0.000488 0.308716
0.655975 0.000000 0.329010
0.804474 0.000000 0.342957
0.948120 0.000000 0.352386
0.000000 0.065277 0.258972
0.034485 0.068085 0.285950
0.107910 0.068451 0.319794
0.249878 0.061890 0.320312
0.397034 0.064728 0.314087
0.534424 0.076141 0.325684
0.677185 0.087341 0.339722
0.820099 0.096985 0.350281
0.959320 0.105560 0.357819
0.000000 0.146027 0.298615
0.036530 0.154846 0.318481
0.115082 0.167236 0.352844
0.280396 0.170013 0.369293
0.452911 0.184143 0.359467
0.585999 0.199493 0.357666
0.716705 0.212250 0.360168
0.847351 0.222534 0.362854
0.977386 0.232391 0.365692
0.000946 0.236694 0.332428
0.041870 0.249481 0.350922
0.134827 0.278076 0.385132
0.314453 0.302704 0.409393
0.492950 0.335999 0.390686
0.622253 0.349915 0.378357
0.745392 0.357758 0.373230
0.868439 0.363220 0.370819
0.992523 0.367859 0.369751
0.004730 0.327087 0.362122
0.047821 0.342438 0.378235
0.148651 0.381317 0.411957
0.339722 0.421448 0.439697
0.513580 0.449127 0.432739
0.633392 0.484619 0.385498
0.754364 0.492096 0.374542
0.875854 0.495361 0.370850
0.998718 0.497406 0.369446
0.013519 0.424011 0.390228
0.064575 0.447174 0.406555
0.174744 0.490845 0.436951
0.362946 0.533417 0.462921
0.533112 0.559021 0.467621
0.656189 0.583069 0.434296
0.759583 0.615143 0.380798
0.877167 0.622620 0.369843
0.999908 0.623962 0.368378
0.031006 0.534729 0.415833
0.095093 0.566406 0.432983
0.224884 0.609985 0.456879
0.400146 0.646027 0.474457
0.553375 0.673462 0.478363
0.676788 0.693390 0.467560
0.782776 0.718811 0.424103
0.883057 0.743225 0.378021
0.999939 0.749268 0.368530
0.056549 0.657593 0.440613
0.124146 0.685730 0.452728
0.264008 0.722595 0.467651
0.430145 0.753235 0.476562
0.568542 0.781403 0.476868
0.690552 0.807068 0.471954
0.801056 0.828827 0.454742
0.902008 0.853271 0.413757
0.999237 0.870575 0.379242
0.079010 0.780579 0.461945
0.136932 0.798126 0.466370
0.271759 0.827667 0.474335
0.442810 0.856140 0.476685
0.577576 0.884003 0.475952
0.698730 0.912964 0.475677
0.811890 0.938599 0.469513
0.917816 0.959015 0.458221
1.000000 0.980927 0.426453
0.000000 0.015656 0.301849
0.031891 0.011963 0.333160
0.083862 0.007965 0.370331
0.204315 0.006500 0.380829
0.333252 0.004730 0.360474
0.460052 0.002045 0.376434
0.612000 0.000397 0.414429
0.770233 0.000000 0.445709
0.924164 0.000000 0.467377
0.000000 0.080536 0.335419
0.031952 0.083771 0.357880
0.084473 0.086243 0.399628
0.217041 0.084015 0.424164
0.364136 0.063995 0.400940
0.489410 0.060913 0.402222
0.635101 0.074127 0.430878
0.787750 0.087433 0.456726
0.937378 0.099304 0.475616
0.000000 0.162292 0.375000
0.033661 0.170349 0.391724
0.088287 0.183167 0.428192
0.231354 0.192841 0.467010
0.413666 0.176208 0.461395
0.550812 0.175323 0.455811
0.685455 0.192291 0.467377
0.823669 0.208466 0.479401
0.961823 0.224945 0.489868
0.001556 0.254822 0.410095
0.039490 0.266083 0.426636
0.111786 0.293213 0.461853
0.265137 0.319519 0.501892
0.459778 0.324097 0.512604
0.607544 0.336029 0.502777
0.733124 0.348480 0.499847
0.858734 0.357513 0.499420
0.985321 0.365936 0.499878
0.006500 0.346191 0.438049
0.046265 0.359070 0.453339
0.132385 0.396576 0.488770
0.307312 0.439026 0.526184
0.493713 0.459961 0.542725
0.631470 0.481323 0.521729
0.752228 0.490112 0.509216
0.873505 0.494324 0.503540
0.996216 0.497223 0.500732
0.015564 0.439423 0.467834
0.057861 0.454742 0.480591
0.144135 0.493622 0.510529
0.324249 0.542725 0.545532
0.513885 0.573792 0.565247
0.649689 0.593994 0.558167
0.757965 0.617584 0.512848
0.877869 0.622223 0.502380
0.999573 0.623688 0.498505
0.033203 0.546356 0.499207
0.082703 0.568146 0.512177
0.183868 0.607910 0.536499
0.360107 0.650360 0.562897
0.534790 0.681824 0.580902
0.666626 0.703156 0.583405
0.777344 0.724976 0.557617
0.881714 0.745483 0.510406
0.999908 0.749329 0.497437
0.056488 0.665833 0.527588
0.108032 0.687408 0.537903
0.223297 0.724487 0.556244
0.400543 0.758942 0.572968
0.555786 0.787842 0.585663
0.680481 0.813110 0.588837
0.792511 0.835693 0.583527
0.898041 0.858948 0.556610
0.999390 0.873047 0.514771
0.075134 0.785065 0.551331
0.120697 0.800873 0.557434
0.224548 0.830688 0.570282
0.405670 0.861786 0.579254
0.563263 0.890503 0.585907
0.688843 0.919373 0.593018
0.803955 0.945953 0.597412
0.911926 0.967438 0.597351
1.000000 0.987762 0.571716
0.000000 0.032928 0.380157
0.031372 0.029846 0.405884
0.071991 0.024597 0.447052
0.175140 0.023895 0.480835
0.327545 0.016174 0.465912
0.430389 0.006134 0.437225
0.553589 0.001801 0.466827
0.713196 0.000916 0.519135
0.878387 0.000305 0.561890
0.000000 0.101166 0.411957
0.031891 0.105957 0.431244
0.071991 0.110992 0.471863
0.180603 0.118958 0.518738
0.355286 0.103088 0.514221
0.464447 0.066742 0.475739
0.580170 0.061340 0.491638
0.734039 0.075287 0.536285
0.894684 0.089905 0.574402
0.000427 0.181824 0.450287
0.033508 0.189301 0.464081
0.075226 0.201172 0.495697
0.184326 0.220734 0.548462
0.385529 0.219543 0.566223
0.524353 0.184143 0.541290
0.639435 0.175842 0.547180
0.780060 0.191498 0.574524
0.928680 0.213928 0.600403
0.002960 0.273224 0.489471
0.038818 0.282257 0.502502
0.093170 0.303558 0.531036
0.210083 0.334106 0.577820
0.412720 0.349213 0.606964
0.579865 0.338623 0.602386
0.703766 0.339569 0.606171
0.832855 0.350006 0.616608
0.965729 0.363861 0.625336
0.009064 0.368805 0.519775
0.047546 0.380432 0.533722
0.118988 0.413422 0.566437
0.269592 0.457092 0.608154
0.455017 0.478027 0.633606
0.613403 0.482391 0.639496
0.738831 0.488922 0.635712
0.861725 0.494080 0.633942
0.986816 0.498962 0.632904
0.019043 0.462097 0.546814
0.058929 0.475342 0.559052
0.128448 0.508545 0.587067
0.291992 0.559387 0.626160
0.487946 0.591431 0.651611
0.635895 0.606934 0.664581
0.753998 0.619202 0.648895
0.874207 0.623169 0.638580
0.996399 0.624878 0.632904
0.035828 0.560974 0.577942
0.077332 0.576263 0.588440
0.146667 0.607391 0.609985
0.303925 0.654022 0.641693
0.502380 0.690796 0.667603
0.651642 0.714172 0.683929
0.767761 0.731934 0.681061
0.879120 0.747314 0.642029
0.999237 0.749756 0.631714
0.056793 0.673523 0.610504
0.098450 0.689331 0.619110
0.178223 0.720612 0.637115
0.342438 0.759644 0.659302
0.526581 0.792603 0.679688
0.667114 0.818481 0.693939
0.781830 0.840607 0.699280
0.891846 0.862579 0.687256
0.999298 0.874908 0.645874
0.073822 0.789825 0.638214
0.115204 0.805420 0.645996
0.191406 0.833740 0.661652
0.353607 0.865387 0.675323
0.537018 0.895477 0.686615
0.677979 0.924713 0.699677
0.796021 0.950775 0.710968
0.905670 0.972412 0.718475
1.000000 0.991669 0.704712
0.000000 0.057831 0.461029
0.031372 0.058350 0.485260
0.066711 0.055481 0.524506
0.145996 0.062958 0.574005
0.313599 0.060150 0.590576
0.445740 0.031494 0.548859
0.525879 0.011963 0.523682
0.648254 0.008087 0.564392
0.810272 0.005615 0.627289
0.000000 0.126923 0.491516
0.032104 0.133209 0.508270
0.068085 0.139984 0.543518
0.146881 0.156158 0.599976
0.329010 0.162872 0.631195
0.481659 0.123474 0.596771
0.560089 0.080933 0.561646
0.674683 0.074432 0.591278
0.831512 0.086212 0.647491
0.001038 0.204773 0.526459
0.034851 0.212433 0.538666
0.071442 0.222900 0.563782
0.147430 0.245178 0.617981
0.338165 0.267944 0.664368
0.523132 0.246582 0.652496
0.619080 0.206390 0.626160
0.728424 0.195374 0.645630
0.874817 0.211456 0.688385
0.005035 0.292633 0.566925
0.040375 0.300598 0.577515
0.082092 0.314972 0.597595
0.162170 0.343079 0.641632
0.347534 0.374878 0.690460
0.553253 0.377747 0.697601
0.675903 0.362732 0.689209
0.789612 0.359467 0.706757
0.924896 0.371002 0.733521
0.012543 0.389954 0.604828
0.050476 0.400574 0.617401
0.105988 0.424713 0.642883
0.221100 0.464203 0.682373
0.395172 0.492615 0.716766
0.577057 0.502594 0.729095
0.710114 0.502838 0.730194
0.828705 0.503906 0.743744
0.957947 0.508972 0.757141
0.025177 0.489960 0.634705
0.065094 0.502930 0.647186
0.123901 0.530792 0.673157
0.265778 0.578125 0.712769
0.457153 0.609833 0.739380
0.609467 0.622864 0.753387
0.733368 0.629211 0.760620
0.854034 0.631317 0.764923
0.980835 0.632141 0.766602
0.041473 0.586060 0.662109
0.080963 0.599640 0.672516
0.132568 0.623718 0.691681
0.260803 0.667175 0.724823
0.468262 0.706421 0.753693
0.632324 0.728638 0.773071
0.752319 0.741730 0.785980
0.869476 0.751251 0.777710
0.993103 0.753967 0.771118
0.058350 0.686066 0.692810
0.096802 0.700165 0.701843
0.148376 0.723083 0.717194
0.267273 0.759552 0.741730
0.468353 0.797760 0.767242
0.642792 0.826019 0.788116
0.768036 0.846527 0.803375
0.880768 0.865875 0.809204
0.997864 0.877319 0.777863
0.071991 0.793213 0.724213
0.112305 0.809784 0.733887
0.171265 0.835876 0.750580
0.295471 0.866882 0.768738
0.481750 0.897858 0.783661
0.653503 0.929108 0.800690
0.785065 0.954773 0.816467
0.897675 0.975372 0.829834
1.000000 0.993500 0.830566
0.000000 0.087769 0.545013
0.031433 0.091583 0.568512
0.065460 0.093079 0.604279
0.125031 0.106049 0.653900
0.283386 0.122009 0.699249
0.464081 0.103516 0.689209
0.557373 0.060059 0.643311
0.630310 0.043121 0.631622
0.746613 0.039520 0.676392
0.000580 0.155701 0.572418
0.033722 0.163788 0.588379
0.068939 0.171539 0.617737
0.125488 0.189148 0.671234
0.283508 0.214996 0.725433
0.485291 0.206635 0.728699
0.592926 0.159180 0.687988
0.663391 0.126801 0.669403
0.773621 0.121674 0.705933
0.002716 0.230377 0.603485
0.037567 0.238983 0.615509
0.073456 0.248871 0.635651
0.126862 0.268646 0.683838
0.279327 0.302429 0.744446
0.500427 0.312714 0.763733
0.633789 0.284271 0.740112
0.712982 0.256317 0.725952
0.819397 0.250580 0.755676
0.007904 0.313934 0.641052
0.043701 0.322723 0.651917
0.080994 0.333618 0.667206
0.136169 0.355316 0.703674
0.279419 0.392334 0.761475
0.507416 0.416809 0.791626
0.665070 0.411560 0.784210
0.760406 0.403595 0.781555
0.869690 0.406250 0.810211
0.017578 0.410339 0.686737
0.055359 0.420685 0.698364
0.099884 0.436462 0.716095
0.176117 0.465424 0.747620
0.321655 0.499054 0.788788
0.523010 0.522583 0.815857
0.685059 0.529724 0.817352
0.792389 0.533386 0.821777
0.905823 0.538971 0.848145
0.033264 0.515656 0.726959
0.072388 0.527832 0.739227
0.121674 0.548645 0.760895
0.231140 0.586456 0.796356
0.407745 0.618896 0.825104
0.568878 0.635071 0.841187
0.705811 0.644012 0.846466
0.817291 0.652100 0.855011
0.936920 0.655853 0.876190
0.049194 0.615723 0.756226
0.087982 0.629730 0.767944
0.133026 0.649811 0.786560
0.236633 0.686066 0.819061
0.437531 0.723999 0.849701
0.610779 0.744385 0.866669
0.733337 0.754150 0.875671
0.841278 0.763336 0.886078
0.965820 0.767975 0.896393
0.061340 0.707001 0.781250
0.099548 0.722656 0.792725
0.141937 0.742401 0.808441
0.221588 0.772583 0.833557
0.403625 0.810059 0.862152
0.609253 0.839417 0.883728
0.753052 0.858002 0.898804
0.865082 0.871948 0.911438
0.986420 0.883331 0.908722
0.069641 0.797943 0.809875
0.109680 0.816193 0.822235
0.157867 0.839935 0.839813
0.238892 0.869476 0.862183
0.389618 0.900085 0.881409
0.592957 0.932098 0.898529
0.762573 0.959991 0.914124
0.887238 0.978638 0.926575
0.998077 0.994080 0.934662
0.000000 0.119995 0.628510
0.033051 0.127716 0.652466
0.068359 0.136566 0.684021
0.117004 0.152283 0.724701
0.252502 0.175385 0.776825
0.464325 0.188751 0.811157
0.597290 0.161194 0.790314
0.673218 0.125305 0.757782
0.741394 0.126526 0.756958
0.002289 0.186218 0.652710
0.037140 0.195984 0.669220
0.072510 0.206024 0.694641
0.118195 0.221863 0.737061
0.244843 0.251068 0.793518
0.465973 0.274963 0.833984
0.618683 0.261810 0.824585
0.703796 0.229858 0.796753
0.768921 0.218506 0.789734
0.006195 0.257721 0.680420
0.041718 0.267761 0.693665
0.077515 0.278076 0.711151
0.121368 0.293732 0.748352
0.235626 0.326019 0.807404
0.460541 0.358673 0.853607
0.634216 0.360535 0.855560
0.734589 0.345032 0.838135
0.805511 0.340515 0.834137
0.011963 0.337067 0.714966
0.048279 0.347565 0.727386
0.085785 0.357605 0.740631
0.129730 0.373779 0.768463
0.230743 0.406647 0.822540
0.451721 0.444397 0.871338
0.643494 0.457764 0.882812
0.759094 0.456390 0.874756
0.839386 0.466644 0.876831
0.023621 0.431152 0.764832
0.061829 0.441681 0.776031
0.100647 0.452148 0.787903
0.148590 0.470490 0.810394
0.252563 0.502045 0.850739
0.461548 0.537262 0.890900
0.652130 0.556427 0.906311
0.778046 0.564270 0.906525
0.866272 0.581085 0.912811
0.041412 0.537842 0.818237
0.079865 0.549133 0.829742
0.120361 0.562469 0.844757
0.186340 0.585999 0.870239
0.331512 0.618073 0.900757
0.516785 0.642365 0.922546
0.674164 0.657776 0.932770
0.796875 0.669769 0.937225
0.892059 0.687805 0.946564
0.055634 0.640259 0.854248
0.093872 0.654816 0.867645
0.134705 0.672058 0.886047
0.211456 0.699188 0.914886
0.393768 0.733643 0.945221
0.581055 0.754303 0.959900
0.712585 0.764160 0.964355
0.822052 0.773804 0.966858
0.920990 0.790039 0.974335
0.063629 0.729797 0.877625
0.102264 0.747864 0.892426
0.144409 0.768494 0.911407
0.209961 0.795929 0.938324
0.371094 0.829224 0.965485
0.583130 0.855621 0.979767
0.739563 0.872162 0.985199
0.852997 0.881836 0.986877
0.954620 0.893860 0.990387
0.068726 0.810699 0.897644
0.109375 0.831573 0.913605
0.154968 0.855194 0.933594
0.216431 0.883820 0.958221
0.340576 0.913055 0.977417
0.545074 0.940613 0.986450
0.734619 0.968445 0.992401
0.875946 0.985779 0.995667
0.987579 0.994568 0.998169
