src/assets/luts/ON1 Nature & Wildlife LUTs/CinematicX LUTs - 30 Free Cinematic LUTs - The Resolve Store 2022/Cuyon - Rec709.cube
# Copyright: (C) Copyright 2022 The Resolve Store 
# Cannot be resold, shared or otherwise redistributed
TITLE "CinematicX (Rec.709)"
LUT_3D_SIZE 33
0.000000 0.000580 0.000000
0.012451 0.001160 0.001862
0.026245 0.001160 0.004822
0.042542 0.001129 0.007141
0.061371 0.001129 0.008636
0.084412 0.001099 0.010651
0.108948 0.001099 0.010590
0.136658 0.000763 0.010986
0.165344 0.000488 0.010590
0.195312 0.000488 0.009949
0.225464 0.000397 0.009155
0.256256 0.000000 0.008362
0.287231 0.000000 0.007355
0.318939 0.000000 0.006073
0.351166 0.000000 0.004883
0.384064 0.000000 0.003754
0.417267 0.000000 0.002472
0.451202 0.000000 0.001251
0.485474 0.000000 0.000275
0.520203 0.000000 0.000000
0.555267 0.000000 0.000000
0.590424 0.000000 0.000000
0.625702 0.000000 0.000000
0.660889 0.000000 0.000000
0.695984 0.000000 0.000000
0.730927 0.000122 0.000000
0.765717 0.000214 0.000000
0.800262 0.000214 0.000000
0.834564 0.000214 0.000000
0.868591 0.000183 0.000000
0.902313 0.000183 0.000000
0.935913 0.000183 0.000000
0.969177 0.000153 0.000000
0.000000 0.010132 0.002014
0.012939 0.010864 0.005157
0.029114 0.012054 0.009216
0.046906 0.012360 0.010956
0.067841 0.013153 0.012085
0.091309 0.013763 0.012329
0.117584 0.014313 0.012604
0.145172 0.015076 0.012054
0.174347 0.015808 0.011566
0.203827 0.016327 0.010681
0.234283 0.016998 0.009735
0.264648 0.017120 0.008759
0.295441 0.017639 0.007507
0.326843 0.018127 0.006256
0.358521 0.018646 0.005005
0.391022 0.019135 0.003571
0.424042 0.019623 0.002502
0.457611 0.020264 0.001434
0.491516 0.020874 0.000427
0.525909 0.021393 0.000000
0.560547 0.021973 0.000000
0.595459 0.022644 0.000000
0.630341 0.023193 0.000000
0.665253 0.023743 0.000000
0.700043 0.024475 0.000000
0.734650 0.024902 0.000000
0.769196 0.025391 0.000000
0.803467 0.025909 0.000000
0.837463 0.026520 0.000000
0.871216 0.026886 0.000000
0.904724 0.027283 0.000000
0.938110 0.027679 0.000000
0.971161 0.027954 0.000000
0.000244 0.020844 0.009552
0.014099 0.021301 0.012238
0.030029 0.022247 0.013397
0.050934 0.025055 0.014771
0.073273 0.026703 0.014923
0.097992 0.028168 0.014801
0.125214 0.029694 0.014557
0.153717 0.031158 0.013672
0.182983 0.032318 0.013062
0.212433 0.033447 0.011749
0.242523 0.034882 0.010406
0.272949 0.035858 0.008911
0.303650 0.036804 0.007629
0.334717 0.037872 0.006226
0.366302 0.038788 0.004883
0.398407 0.039764 0.003632
0.431091 0.040680 0.002533
0.464264 0.041687 0.001465
0.497894 0.042694 0.000366
0.531860 0.043732 0.000000
0.566132 0.044952 0.000000
0.600647 0.046112 0.000000
0.635162 0.047211 0.000000
0.669800 0.048340 0.000000
0.704224 0.049530 0.000000
0.738556 0.050629 0.000000
0.772736 0.051514 0.000000
0.806732 0.052460 0.000000
0.840454 0.053497 0.000000
0.873932 0.054352 0.000000
0.907166 0.055145 0.000000
0.940308 0.055817 0.000000
0.973175 0.056488 0.000000
0.000580 0.031952 0.016388
0.014984 0.032593 0.017853
0.031311 0.033600 0.019989
0.051544 0.036041 0.020447
0.076996 0.040985 0.019104
0.104095 0.044708 0.017609
0.132568 0.047150 0.016541
0.161865 0.049194 0.015594
0.191406 0.051453 0.014069
0.221130 0.053101 0.012451
0.251343 0.054901 0.011078
0.281586 0.056549 0.009460
0.311890 0.057953 0.007721
0.342834 0.059265 0.006165
0.374298 0.060822 0.004974
0.406189 0.062103 0.003632
0.438538 0.063568 0.002472
0.471375 0.065063 0.001221
0.504669 0.066345 0.000305
0.538239 0.067932 0.000000
0.572205 0.069580 0.000000
0.606201 0.071167 0.000000
0.640411 0.072601 0.000000
0.674591 0.074127 0.000000
0.708649 0.075867 0.000000
0.742645 0.077332 0.000000
0.776489 0.078857 0.000000
0.810181 0.080170 0.000000
0.843628 0.081421 0.000000
0.876801 0.082550 0.000000
0.909760 0.083618 0.000000
0.942657 0.084686 0.000000
0.975281 0.085571 0.000000
0.000580 0.044434 0.023438
0.015289 0.045288 0.024384
0.032501 0.046722 0.026154
0.052155 0.048096 0.027039
0.076965 0.052551 0.026764
0.107117 0.060425 0.022858
0.138641 0.066315 0.019958
0.169495 0.070312 0.017731
0.199799 0.073029 0.015900
0.229828 0.075470 0.013794
0.260101 0.077789 0.011780
0.290558 0.079712 0.009796
0.320831 0.081696 0.007874
0.351593 0.083557 0.006134
0.382782 0.085083 0.004669
0.414307 0.086945 0.003448
0.446350 0.088776 0.002228
0.478821 0.090607 0.001251
0.511719 0.092346 0.000275
0.544922 0.094116 0.000000
0.578491 0.096130 0.000000
0.612122 0.097992 0.000000
0.645935 0.100006 0.000000
0.679749 0.101929 0.000000
0.713440 0.103760 0.000000
0.747009 0.105560 0.000000
0.780487 0.107330 0.000000
0.813751 0.108887 0.000000
0.846893 0.110413 0.000000
0.879791 0.111877 0.000000
0.912476 0.113129 0.000000
0.945099 0.114349 0.000000
0.977539 0.115479 0.000000
0.000580 0.058655 0.029755
0.015900 0.060211 0.031921
0.033142 0.061707 0.032654
0.053925 0.063873 0.034027
0.077332 0.065826 0.034485
0.105835 0.071960 0.031952
0.140503 0.083435 0.026245
0.174500 0.091614 0.021820
0.207062 0.097290 0.018311
0.238312 0.100647 0.015503
0.268921 0.103455 0.012604
0.299255 0.105896 0.010162
0.329773 0.108215 0.008118
0.360474 0.110413 0.006042
0.391449 0.112640 0.004517
0.422943 0.114563 0.003387
0.454590 0.116547 0.002136
0.486664 0.118500 0.001190
0.519165 0.120514 0.000305
0.551941 0.122589 0.000000
0.584961 0.124786 0.000000
0.618164 0.126923 0.000000
0.651489 0.129059 0.000000
0.684845 0.131165 0.000000
0.718140 0.133209 0.000000
0.751404 0.135254 0.000000
0.784546 0.137177 0.000000
0.817505 0.138947 0.000000
0.850281 0.140564 0.000000
0.882843 0.142090 0.000000
0.915283 0.143555 0.000000
0.947662 0.144897 0.000000
0.979828 0.146088 0.000000
0.000580 0.074432 0.036407
0.015289 0.076599 0.038788
0.033142 0.078888 0.040649
0.053925 0.081207 0.041473
0.078094 0.083893 0.041901
0.105743 0.087189 0.041901
0.139008 0.095825 0.037476
0.175751 0.109589 0.029907
0.211182 0.119873 0.023407
0.244781 0.126953 0.018158
0.276764 0.131531 0.014435
0.307739 0.134583 0.011230
0.338531 0.137360 0.008698
0.369324 0.139893 0.006378
0.400299 0.142151 0.004700
0.431458 0.144470 0.003235
0.462891 0.146606 0.001923
0.494690 0.148773 0.000824
0.526764 0.150940 0.000000
0.559113 0.153076 0.000000
0.591614 0.155304 0.000000
0.624390 0.157501 0.000000
0.657196 0.159668 0.000000
0.690063 0.161804 0.000000
0.722870 0.163910 0.000000
0.755676 0.165955 0.000000
0.788422 0.167938 0.000000
0.821014 0.169800 0.000000
0.853485 0.171539 0.000000
0.885803 0.173096 0.000000
0.918030 0.174622 0.000000
0.950195 0.175995 0.000000
0.982178 0.177246 0.000000
0.000580 0.092712 0.044098
0.015167 0.094940 0.046448
0.032501 0.097748 0.048462
0.053650 0.100586 0.049988
0.078125 0.104034 0.050873
0.106659 0.107758 0.050476
0.138275 0.112000 0.048889
0.174072 0.122528 0.042542
0.212250 0.137909 0.032776
0.248474 0.150024 0.024445
0.282593 0.158508 0.017944
0.315338 0.164429 0.013153
0.346619 0.167877 0.009888
0.377533 0.170654 0.007172
0.408569 0.173340 0.004974
0.439697 0.175842 0.003235
0.470947 0.178223 0.001892
0.502441 0.180511 0.000702
0.534210 0.182770 0.000000
0.566193 0.184906 0.000000
0.598267 0.187103 0.000000
0.630493 0.189240 0.000000
0.662872 0.191406 0.000000
0.695312 0.193512 0.000000
0.727631 0.195557 0.000000
0.759949 0.197510 0.000000
0.792267 0.199402 0.000000
0.824493 0.201202 0.000000
0.856628 0.202942 0.000000
0.888641 0.204498 0.000000
0.920532 0.205994 0.000000
0.952484 0.207397 0.000000
0.984344 0.208710 0.000000
0.000153 0.111969 0.051514
0.014709 0.114807 0.054260
0.031525 0.118073 0.056824
0.052551 0.121704 0.058899
0.077606 0.125549 0.060059
0.106659 0.129791 0.060181
0.139282 0.134186 0.058868
0.173950 0.139648 0.055603
0.211517 0.151733 0.047119
0.249969 0.168427 0.035461
0.286194 0.181732 0.025391
0.320435 0.191406 0.017700
0.353271 0.198212 0.012115
0.385040 0.202545 0.008270
0.416138 0.205383 0.005646
0.447266 0.208160 0.003540
0.478455 0.210693 0.001953
0.509796 0.213165 0.000549
0.541229 0.215424 0.000000
0.572906 0.217621 0.000000
0.604645 0.219757 0.000000
0.636444 0.221832 0.000000
0.668365 0.223877 0.000000
0.700348 0.225830 0.000000
0.732269 0.227783 0.000000
0.764191 0.229645 0.000000
0.796051 0.231415 0.000000
0.827911 0.233124 0.000000
0.859680 0.234741 0.000000
0.891357 0.236237 0.000000
0.923035 0.237671 0.000000
0.954712 0.239014 0.000000
0.986389 0.240295 0.000000
0.000000 0.132660 0.059082
0.013977 0.136017 0.062195
0.030792 0.139557 0.065399
0.051361 0.143524 0.067902
0.076141 0.148041 0.069794
0.105957 0.152527 0.070129
0.139557 0.157745 0.068909
0.175385 0.163025 0.066437
0.211975 0.169281 0.061737
0.250305 0.182495 0.051117
0.288147 0.200073 0.037292
0.324036 0.214447 0.025970
0.357971 0.225006 0.017487
0.390778 0.232574 0.011292
0.422699 0.237854 0.006958
0.453979 0.240936 0.004242
0.485168 0.243683 0.002197
0.516357 0.246216 0.000580
0.547638 0.248566 0.000000
0.579041 0.250793 0.000000
0.610474 0.252869 0.000000
0.641968 0.254883 0.000000
0.673492 0.256805 0.000000
0.705048 0.258606 0.000000
0.736633 0.260437 0.000000
0.768127 0.262115 0.000000
0.799683 0.263763 0.000000
0.831177 0.265350 0.000000
0.862671 0.266815 0.000000
0.894043 0.268250 0.000000
0.925446 0.269592 0.000000
0.956940 0.270905 0.000000
0.988373 0.272095 0.000000
0.000000 0.153931 0.066528
0.013733 0.157990 0.070404
0.029816 0.161987 0.073792
0.050079 0.166443 0.076965
0.075043 0.171295 0.079132
0.104889 0.176636 0.080170
0.139496 0.182129 0.079529
0.176514 0.187775 0.077148
0.214447 0.193512 0.073273
0.252075 0.200439 0.066864
0.290039 0.214630 0.054321
0.326874 0.232666 0.039215
0.361664 0.247589 0.026642
0.395081 0.258850 0.017242
0.427521 0.267090 0.010437
0.459351 0.272980 0.005890
0.490723 0.276703 0.002960
0.521881 0.279388 0.000946
0.553070 0.281830 0.000000
0.584259 0.284088 0.000000
0.615479 0.286133 0.000000
0.646729 0.288055 0.000000
0.677979 0.289856 0.000000
0.709229 0.291595 0.000000
0.740448 0.293243 0.000000
0.771667 0.294830 0.000000
0.802917 0.296326 0.000000
0.834137 0.297760 0.000000
0.865326 0.299133 0.000000
0.896515 0.300446 0.000000
0.927704 0.301666 0.000000
0.958984 0.302856 0.000000
0.990295 0.303955 0.000000
0.000000 0.175812 0.073914
0.013153 0.180298 0.078217
0.029114 0.184937 0.082184
0.049103 0.189789 0.085724
0.073822 0.195160 0.088440
0.104004 0.201050 0.089844
0.139191 0.207031 0.089569
0.177368 0.213165 0.087708
0.216614 0.219177 0.084106
0.255554 0.225189 0.079071
0.293335 0.232941 0.071075
0.330170 0.247681 0.056976
0.365417 0.265839 0.040527
0.399109 0.281097 0.027100
0.431702 0.292847 0.017029
0.463531 0.301636 0.009857
0.495087 0.307922 0.004913
0.526428 0.312195 0.001862
0.557526 0.315002 0.000000
0.588593 0.317291 0.000000
0.619629 0.319336 0.000000
0.650726 0.321228 0.000000
0.681732 0.323029 0.000000
0.712769 0.324677 0.000000
0.743774 0.326141 0.000000
0.774750 0.327606 0.000000
0.805756 0.328979 0.000000
0.836761 0.330292 0.000000
0.867767 0.331512 0.000000
0.898743 0.332703 0.000000
0.929810 0.333832 0.000000
0.960968 0.334900 0.000000
0.992126 0.335907 0.000000
0.000366 0.198059 0.081085
0.013153 0.202759 0.085419
0.028473 0.207977 0.089844
0.048248 0.213562 0.093933
0.072754 0.219513 0.097046
0.103149 0.225983 0.098969
0.138885 0.232483 0.099060
0.178070 0.239166 0.097473
0.218689 0.245544 0.094360
0.259064 0.251831 0.089691
0.297791 0.257812 0.083496
0.334747 0.266144 0.074066
0.370117 0.281219 0.058838
0.403717 0.299377 0.041382
0.436035 0.314758 0.027405
0.467651 0.326874 0.016632
0.498871 0.335938 0.009033
0.530029 0.342529 0.004059
0.561127 0.347137 0.000610
0.592102 0.350281 0.000000
0.623047 0.352417 0.000000
0.653961 0.354340 0.000000
0.684845 0.356049 0.000000
0.715729 0.357635 0.000000
0.746552 0.359039 0.000000
0.777374 0.360382 0.000000
0.808197 0.361664 0.000000
0.839050 0.362854 0.000000
0.869904 0.363953 0.000000
0.900757 0.365021 0.000000
0.931702 0.366028 0.000000
0.962738 0.367004 0.000000
0.993835 0.367920 0.000000
0.000580 0.220612 0.088104
0.013153 0.225677 0.092560
0.028473 0.231537 0.097290
0.048035 0.237640 0.101471
0.072571 0.244354 0.105164
0.102753 0.251190 0.107269
0.138824 0.258392 0.107666
0.178650 0.265442 0.106262
0.220459 0.272369 0.103394
0.262360 0.278900 0.099274
0.302277 0.285065 0.093689
0.340179 0.291168 0.086731
0.375946 0.300018 0.076355
0.409546 0.315033 0.059784
0.441437 0.333069 0.041962
0.472351 0.348511 0.027222
0.502960 0.360748 0.016113
0.533539 0.370056 0.008209
0.564240 0.376892 0.002991
0.594971 0.381714 0.000000
0.625732 0.385071 0.000000
0.656525 0.387268 0.000000
0.687286 0.388977 0.000000
0.718079 0.390472 0.000000
0.748779 0.391876 0.000000
0.779480 0.393127 0.000000
0.810211 0.394287 0.000000
0.840942 0.395386 0.000000
0.871674 0.396423 0.000000
0.902466 0.397369 0.000000
0.933350 0.398285 0.000000
0.964325 0.399139 0.000000
0.995361 0.399963 0.000000
0.000641 0.243103 0.094360
0.013763 0.249054 0.099152
0.029114 0.255402 0.104156
0.048645 0.262085 0.108673
0.072662 0.269348 0.112518
0.102753 0.277069 0.114960
0.139221 0.284851 0.115448
0.179688 0.292389 0.114105
0.222443 0.299683 0.111328
0.265411 0.306549 0.107330
0.306885 0.313019 0.102264
0.345856 0.319122 0.096252
0.382416 0.325073 0.088898
0.416595 0.334137 0.077362
0.448303 0.349243 0.060028
0.478333 0.366882 0.041626
0.507965 0.382172 0.026672
0.537628 0.394470 0.015381
0.567505 0.403870 0.007446
0.597626 0.410797 0.002167
0.627991 0.415802 0.000000
0.658508 0.419464 0.000000
0.689148 0.421692 0.000000
0.719818 0.423218 0.000000
0.750488 0.424561 0.000000
0.781128 0.425781 0.000000
0.811798 0.426880 0.000000
0.842438 0.427887 0.000000
0.873138 0.428802 0.000000
0.903931 0.429688 0.000000
0.934723 0.430511 0.000000
0.965668 0.431274 0.000000
0.996674 0.431976 0.000000
0.001343 0.266113 0.100311
0.014618 0.272766 0.105499
0.029999 0.279694 0.110504
0.049530 0.287079 0.115295
0.073761 0.295074 0.119324
0.103729 0.303375 0.121735
0.140198 0.311768 0.122101
0.181152 0.319824 0.120636
0.224670 0.327545 0.117584
0.268768 0.334808 0.113617
0.311371 0.341461 0.109100
0.351440 0.347626 0.103851
0.388794 0.353455 0.097473
0.423828 0.359344 0.089569
0.456299 0.368622 0.077209
0.486084 0.383514 0.059357
0.514557 0.400726 0.040741
0.542999 0.415833 0.025696
0.571747 0.427979 0.014404
0.600830 0.437469 0.006348
0.630432 0.444427 0.001038
0.660431 0.449493 0.000000
0.690643 0.453186 0.000000
0.721100 0.455597 0.000000
0.751678 0.457123 0.000000
0.782288 0.458313 0.000000
0.812958 0.459351 0.000000
0.843597 0.460297 0.000000
0.874298 0.461151 0.000000
0.905029 0.461945 0.000000
0.935822 0.462677 0.000000
0.966736 0.463348 0.000000
0.997742 0.464020 0.000000
0.002045 0.289368 0.105927
0.015625 0.296661 0.111206
0.031708 0.304291 0.116516
0.051239 0.312439 0.121429
0.075317 0.320984 0.125397
0.105286 0.329926 0.127899
0.141907 0.338867 0.127930
0.183197 0.347504 0.125916
0.227173 0.355499 0.122406
0.272156 0.363159 0.118103
0.315887 0.370209 0.113708
0.357056 0.376617 0.109070
0.395203 0.382446 0.103760
0.430786 0.387970 0.097107
0.464050 0.393707 0.088623
0.494690 0.403137 0.075378
0.522888 0.417786 0.057373
0.550018 0.434570 0.039062
0.577362 0.449371 0.024139
0.605194 0.461426 0.013123
0.633667 0.470795 0.005371
0.662750 0.477814 0.000061
0.692413 0.482819 0.000000
0.722412 0.486542 0.000000
0.752625 0.489197 0.000000
0.783142 0.490692 0.000000
0.813782 0.491730 0.000000
0.844421 0.492645 0.000000
0.875122 0.493439 0.000000
0.905853 0.494141 0.000000
0.936676 0.494812 0.000000
0.967590 0.495422 0.000000
0.998535 0.496002 0.000000
0.002777 0.312958 0.111023
0.017181 0.320892 0.116333
0.033569 0.329254 0.121796
0.053619 0.338013 0.126892
0.077728 0.347260 0.131012
0.107819 0.356781 0.133209
0.144440 0.366150 0.132782
0.185730 0.375122 0.130127
0.230194 0.383606 0.125793
0.275726 0.391571 0.120972
0.320465 0.398987 0.116302
0.362549 0.405701 0.111938
0.401642 0.411774 0.107422
0.437744 0.417267 0.102020
0.471344 0.422424 0.095062
0.502808 0.428101 0.085724
0.531921 0.437592 0.072021
0.558746 0.452026 0.054138
0.584656 0.468353 0.036407
0.611023 0.482849 0.022278
0.638092 0.494690 0.011810
0.666046 0.503998 0.004333
0.694733 0.510925 0.000000
0.724060 0.515961 0.000000
0.753845 0.519592 0.000000
0.783936 0.522247 0.000000
0.814362 0.523987 0.000000
0.845001 0.524872 0.000000
0.875732 0.525635 0.000000
0.906464 0.526276 0.000000
0.937286 0.526886 0.000000
0.968170 0.527435 0.000000
0.999146 0.527924 0.000000
0.004059 0.336853 0.115570
0.019196 0.345337 0.120972
0.035980 0.354431 0.126617
0.056519 0.363892 0.131683
0.081055 0.373810 0.135742
0.111420 0.383698 0.137482
0.147919 0.393402 0.136505
0.189209 0.402649 0.132904
0.233734 0.411438 0.127625
0.279724 0.419739 0.122009
0.325043 0.427551 0.116852
0.368042 0.434753 0.112488
0.407928 0.441162 0.108490
0.444733 0.446869 0.103943
0.478668 0.451935 0.098236
0.510315 0.456696 0.090790
0.540375 0.462372 0.080902
0.568146 0.472015 0.067078
0.593689 0.486176 0.050018
0.618561 0.502106 0.033386
0.644073 0.516266 0.020233
0.670563 0.527893 0.010315
0.698029 0.537048 0.003113
0.726379 0.543884 0.000000
0.755463 0.548798 0.000000
0.785065 0.552399 0.000000
0.815094 0.554993 0.000000
0.845428 0.556793 0.000000
0.876129 0.557709 0.000000
0.906860 0.558350 0.000000
0.937683 0.558899 0.000000
0.968567 0.559357 0.000000
0.999512 0.559814 0.000000
0.006195 0.361084 0.119232
0.021790 0.370300 0.124847
0.039856 0.380127 0.130554
0.060822 0.390228 0.135559
0.085785 0.400543 0.139252
0.116638 0.410919 0.140533
0.153076 0.420715 0.138641
0.194000 0.430023 0.134094
0.238281 0.438934 0.127716
0.284363 0.447510 0.120911
0.330109 0.455811 0.115173
0.373688 0.463470 0.110626
0.414337 0.470367 0.106873
0.451752 0.476410 0.102966
0.486023 0.481689 0.098358
0.517792 0.486359 0.091858
0.548035 0.490875 0.084015
0.576782 0.496643 0.074066
0.603333 0.506439 0.060486
0.627838 0.520477 0.044769
0.651825 0.535950 0.029877
0.676697 0.549713 0.017883
0.702698 0.561096 0.008820
0.729736 0.570038 0.002289
0.757812 0.576660 0.000000
0.786713 0.581451 0.000000
0.816193 0.584930 0.000000
0.846161 0.587433 0.000000
0.876465 0.589203 0.000000
0.907104 0.590271 0.000000
0.937897 0.590790 0.000000
0.968781 0.591248 0.000000
0.999756 0.591644 0.000000
0.008331 0.385864 0.122314
0.025055 0.395782 0.127899
0.044098 0.406189 0.133423
0.066010 0.416870 0.138336
0.091919 0.427612 0.141602
0.123108 0.438080 0.142273
0.159546 0.447998 0.139221
0.200317 0.457367 0.133514
0.244171 0.466278 0.126007
0.289948 0.475006 0.118286
0.335754 0.483643 0.111786
0.379791 0.491882 0.107025
0.420959 0.499359 0.103271
0.458893 0.505951 0.099792
0.493469 0.511505 0.095673
0.525452 0.516327 0.090271
0.555573 0.520752 0.083405
0.584564 0.525146 0.075470
0.612305 0.531128 0.065765
0.637695 0.541138 0.053558
0.661285 0.554932 0.039703
0.684631 0.569977 0.026520
0.708984 0.583282 0.015778
0.734558 0.594269 0.007538
0.761261 0.602875 0.001434
0.789124 0.609283 0.000000
0.817871 0.613892 0.000000
0.847260 0.617249 0.000000
0.877136 0.619659 0.000000
0.907410 0.621338 0.000000
0.938019 0.622467 0.000000
0.968903 0.623047 0.000000
0.999878 0.623413 0.000000
0.011200 0.411469 0.124481
0.029388 0.421906 0.130066
0.049744 0.432831 0.135437
0.072693 0.443909 0.139984
0.099579 0.454926 0.142822
0.131439 0.465546 0.142609
0.168030 0.475342 0.138580
0.208344 0.484619 0.131622
0.251587 0.493500 0.123108
0.296844 0.502319 0.114532
0.342407 0.511292 0.107391
0.386414 0.520020 0.102356
0.427917 0.528137 0.098663
0.466248 0.535309 0.095398
0.501190 0.541351 0.091583
0.533203 0.546417 0.086792
0.563354 0.550934 0.080902
0.592194 0.555115 0.073975
0.620209 0.559570 0.066376
0.646790 0.565857 0.057831
0.671265 0.576050 0.047180
0.694183 0.589630 0.035309
0.716949 0.604126 0.023712
0.740875 0.616913 0.014282
0.766113 0.627411 0.006622
0.792633 0.635620 0.000702
0.820282 0.641754 0.000000
0.848938 0.646179 0.000000
0.878235 0.649384 0.000000
0.908020 0.651672 0.000000
0.938293 0.653290 0.000000
0.968964 0.654419 0.000000
0.999939 0.655060 0.000000
0.015259 0.438171 0.126129
0.035187 0.448975 0.131470
0.056641 0.460236 0.136597
0.080994 0.471497 0.140656
0.109283 0.482727 0.142883
0.141785 0.493256 0.141815
0.178558 0.502960 0.136871
0.218536 0.512024 0.128998
0.260986 0.520782 0.119568
0.305359 0.529755 0.110413
0.350189 0.538910 0.103119
0.393951 0.548096 0.097839
0.435425 0.556793 0.094025
0.473877 0.564514 0.090942
0.509064 0.571136 0.087280
0.541199 0.576599 0.082794
0.571350 0.581268 0.077393
0.600006 0.585510 0.071472
0.627747 0.589722 0.064819
0.654755 0.594330 0.058289
0.680481 0.600983 0.051086
0.704163 0.611298 0.042175
0.726440 0.624481 0.031860
0.748840 0.638367 0.021698
0.772491 0.650482 0.013062
0.797516 0.660431 0.005890
0.823853 0.668243 0.000214
0.851349 0.674072 0.000000
0.879822 0.678253 0.000000
0.908997 0.681335 0.000000
0.938782 0.683533 0.000000
0.969116 0.685120 0.000000
0.999939 0.686188 0.000000
0.021484 0.466705 0.127777
0.043030 0.477539 0.132629
0.065826 0.488831 0.137299
0.091553 0.500122 0.140778
0.121094 0.511169 0.142212
0.154510 0.521515 0.140289
0.191467 0.530975 0.134705
0.230988 0.539886 0.126312
0.272614 0.548584 0.116699
0.315918 0.557495 0.107300
0.359711 0.566956 0.100067
0.402679 0.576385 0.094788
0.443665 0.585510 0.091064
0.481995 0.593750 0.087982
0.517120 0.600922 0.084290
0.549286 0.606812 0.080078
0.579346 0.611786 0.075165
0.607910 0.616241 0.069580
0.635406 0.620361 0.063568
0.662140 0.624725 0.057983
0.688416 0.629517 0.052734
0.713379 0.636475 0.046539
0.736450 0.646759 0.038849
0.758301 0.659485 0.029785
0.780396 0.672546 0.020416
0.803864 0.683960 0.012146
0.828705 0.693329 0.005280
0.854828 0.700714 0.000000
0.882141 0.706238 0.000000
0.910431 0.710236 0.000000
0.939545 0.713135 0.000000
0.969391 0.715302 0.000000
0.999878 0.716797 0.000000
0.031372 0.497742 0.130249
0.053833 0.508240 0.134552
0.078522 0.519196 0.138458
0.105804 0.530121 0.141174
0.136383 0.540741 0.141937
0.170532 0.550781 0.139435
0.207306 0.559967 0.133484
0.246216 0.568604 0.125153
0.286835 0.577209 0.115814
0.328644 0.586121 0.106873
0.370880 0.595581 0.100037
0.412598 0.605225 0.095062
0.452698 0.614563 0.091461
0.490417 0.623138 0.088379
0.525269 0.630737 0.084930
0.557251 0.637024 0.080658
0.587219 0.642365 0.075623
0.615631 0.647034 0.070312
0.642975 0.651306 0.064758
0.669464 0.655487 0.059509
0.695465 0.659882 0.054443
0.721130 0.664886 0.049652
0.745483 0.672089 0.044006
0.768097 0.682251 0.036926
0.789673 0.694305 0.028351
0.811707 0.706635 0.019287
0.834961 0.717316 0.011383
0.859558 0.726105 0.004700
0.885406 0.733002 0.000000
0.912415 0.738251 0.000000
0.940613 0.742065 0.000000
0.969788 0.744904 0.000000
0.999786 0.746918 0.000000
0.044586 0.531372 0.134735
0.068726 0.541321 0.138153
0.094971 0.551483 0.141174
0.123596 0.561676 0.143097
0.154999 0.571716 0.143097
0.189392 0.581177 0.140228
0.225830 0.589935 0.134460
0.263763 0.598328 0.126587
0.302979 0.606781 0.117950
0.343201 0.615631 0.109833
0.383606 0.624969 0.103607
0.423492 0.634583 0.099152
0.462311 0.643921 0.095703
0.499115 0.652649 0.092621
0.533356 0.660431 0.089081
0.565063 0.667084 0.084869
0.594818 0.672791 0.079895
0.623077 0.677734 0.074432
0.650177 0.682190 0.068726
0.676483 0.686432 0.063110
0.702271 0.690674 0.057892
0.727814 0.695129 0.053131
0.753052 0.700287 0.048462
0.776917 0.707581 0.042999
0.799286 0.717377 0.035492
0.820770 0.728790 0.027008
0.842590 0.740295 0.018402
0.865631 0.750336 0.010681
0.889862 0.758575 0.004395
0.915314 0.765076 0.000000
0.942139 0.770020 0.000000
0.970337 0.773682 0.000000
0.999603 0.776306 0.000000
0.061707 0.567596 0.142029
0.087524 0.576569 0.144470
0.115173 0.585754 0.146423
0.144745 0.594910 0.147461
0.176666 0.603973 0.146790
0.210815 0.612732 0.143768
0.246552 0.621002 0.138214
0.283173 0.629059 0.131226
0.320618 0.637238 0.123596
0.358887 0.645874 0.116455
0.397247 0.654999 0.111084
0.435181 0.664337 0.106995
0.472137 0.673492 0.103821
0.507751 0.682190 0.100708
0.541199 0.690033 0.097260
0.572449 0.696869 0.092865
0.601929 0.702881 0.087708
0.630005 0.708160 0.081940
0.656982 0.712830 0.075867
0.683136 0.717194 0.069641
0.708740 0.721405 0.063446
0.734131 0.725739 0.057983
0.759308 0.730225 0.052887
0.784271 0.735321 0.047882
0.807892 0.742584 0.041840
