src/assets/luts/ON1 Nature & Wildlife LUTs/CinematicX LUTs - 30 Free Cinematic LUTs - The Resolve Store 2022/Deseado - Rec709.cube
# Copyright: (C) Copyright 2022 The Resolve Store 
# Cannot be resold, shared or otherwise redistributed
TITLE "CinematicX (Rec.709)"
LUT_3D_SIZE 33
0.000000 0.000000 0.000000
0.006531 0.000488 0.000000
0.014496 0.001312 0.000000
0.023590 0.002197 0.000000
0.034424 0.002930 0.000000
0.050354 0.004211 0.000153
0.070312 0.005585 0.000122
0.093079 0.007050 0.000122
0.118195 0.008728 0.000183
0.145447 0.010651 0.000183
0.174286 0.011749 0.000153
0.204926 0.013214 0.000061
0.235992 0.012543 0.000061
0.265900 0.011932 0.000061
0.295715 0.011597 0.000061
0.325745 0.011353 0.000031
0.355957 0.010223 0.000000
0.385468 0.010010 0.000000
0.415924 0.009155 0.000000
0.446014 0.008850 0.000000
0.475403 0.009583 0.000000
0.505951 0.010437 0.000000
0.536316 0.011322 0.000000
0.567535 0.012177 0.000000
0.599701 0.013062 0.000000
0.632050 0.013916 0.000000
0.665649 0.014771 0.000000
0.699829 0.015564 0.000000
0.734650 0.016388 0.000000
0.769257 0.017273 0.000000
0.804321 0.018127 0.000000
0.839813 0.019165 0.000000
0.875031 0.020874 0.000000
0.000000 0.006561 0.001312
0.006805 0.007111 0.000519
0.015778 0.008423 0.000366
0.026550 0.009521 0.000397
0.040375 0.010712 0.000366
0.059082 0.012604 0.000397
0.080383 0.014130 0.000397
0.104645 0.015961 0.000336
0.131073 0.017700 0.000336
0.158386 0.019531 0.000336
0.187958 0.020813 0.000275
0.217377 0.021667 0.000183
0.246582 0.021240 0.000153
0.275665 0.021301 0.000153
0.305298 0.021118 0.000092
0.335205 0.020416 0.000092
0.365479 0.019043 0.000061
0.395081 0.018433 0.000061
0.424744 0.017761 0.000031
0.454803 0.017059 0.000000
0.484283 0.017151 0.000000
0.514984 0.017609 0.000000
0.545715 0.019165 0.000000
0.576843 0.020203 0.000000
0.608490 0.021423 0.000000
0.641235 0.022766 0.000000
0.674591 0.023773 0.000000
0.708923 0.025391 0.000000
0.743805 0.026337 0.000000
0.778290 0.027832 0.000000
0.813354 0.029053 0.000000
0.848328 0.030945 0.000000
0.883667 0.032776 0.000000
0.000122 0.013855 0.003021
0.006958 0.014771 0.001770
0.016388 0.015991 0.001251
0.029236 0.017761 0.000977
0.045990 0.019440 0.000977
0.067017 0.022095 0.000671
0.090302 0.024353 0.000610
0.115662 0.026489 0.000519
0.142670 0.028778 0.000488
0.170837 0.030792 0.000458
0.200043 0.032410 0.000366
0.228668 0.033020 0.000305
0.257324 0.032837 0.000244
0.285858 0.032898 0.000183
0.315125 0.032501 0.000153
0.345123 0.031311 0.000153
0.375275 0.029907 0.000122
0.404938 0.029053 0.000092
0.435028 0.027924 0.000061
0.465149 0.026611 0.000061
0.495178 0.026367 0.000061
0.525574 0.027191 0.000031
0.556152 0.028229 0.000031
0.586945 0.029968 0.000000
0.618713 0.031036 0.000000
0.651245 0.032745 0.000000
0.684113 0.034607 0.000000
0.718231 0.036346 0.000000
0.752838 0.037933 0.000000
0.787659 0.039856 0.000000
0.821991 0.041901 0.000000
0.856720 0.044586 0.000000
0.891937 0.047302 0.000000
0.000671 0.022064 0.004791
0.007263 0.023132 0.003021
0.017212 0.024689 0.002136
0.030823 0.026520 0.001831
0.050812 0.029541 0.001709
0.073914 0.033386 0.001343
0.098907 0.036682 0.000824
0.125641 0.039917 0.000763
0.153503 0.042908 0.000610
0.182404 0.045166 0.000580
0.210907 0.046722 0.000427
0.239197 0.046997 0.000397
0.267822 0.047516 0.000275
0.296509 0.047607 0.000275
0.325623 0.047333 0.000214
0.355286 0.046295 0.000183
0.385071 0.044952 0.000122
0.415100 0.043640 0.000122
0.445221 0.042358 0.000092
0.475708 0.040314 0.000092
0.506073 0.038788 0.000061
0.536591 0.039490 0.000061
0.567352 0.041260 0.000061
0.598389 0.042145 0.000031
0.629669 0.043091 0.000031
0.661377 0.044891 0.000000
0.693909 0.046997 0.000000
0.727539 0.049500 0.000000
0.761658 0.051849 0.000000
0.795959 0.054108 0.000000
0.830109 0.056793 0.000000
0.864960 0.059479 0.000000
0.899597 0.062592 0.000000
0.000824 0.032257 0.006744
0.007660 0.034119 0.004486
0.018707 0.035889 0.003021
0.033844 0.037659 0.002380
0.055206 0.040833 0.002106
0.079773 0.046082 0.001862
0.106384 0.051727 0.001190
0.134766 0.056274 0.000946
0.163544 0.059875 0.000793
0.192627 0.062256 0.000671
0.221283 0.063873 0.000580
0.249786 0.064545 0.000458
0.278473 0.065125 0.000366
0.307220 0.065460 0.000275
0.336182 0.065247 0.000244
0.365479 0.065002 0.000244
0.395203 0.064117 0.000183
0.425110 0.063110 0.000183
0.455078 0.062531 0.000122
0.485657 0.060730 0.000122
0.516602 0.058044 0.000092
0.547241 0.058289 0.000061
0.578278 0.058167 0.000061
0.609680 0.058411 0.000061
0.640625 0.059326 0.000061
0.672363 0.060486 0.000031
0.704468 0.062561 0.000000
0.737518 0.064941 0.000000
0.771179 0.067566 0.000000
0.805054 0.070648 0.000000
0.839294 0.074066 0.000000
0.874176 0.077393 0.000000
0.905060 0.081024 0.000000
0.001007 0.044617 0.008606
0.008392 0.047760 0.005981
0.020416 0.049622 0.004242
0.038116 0.051453 0.002686
0.059906 0.054138 0.002167
0.084137 0.059387 0.002106
0.112183 0.067627 0.001862
0.142151 0.074188 0.001282
0.172058 0.078827 0.001038
0.201508 0.081818 0.000793
0.230682 0.083679 0.000671
0.259735 0.084747 0.000580
0.289093 0.085571 0.000397
0.317932 0.086182 0.000336
0.346588 0.087067 0.000336
0.375641 0.087646 0.000244
0.405243 0.087585 0.000214
0.435028 0.087219 0.000183
0.464966 0.086761 0.000183
0.495422 0.085541 0.000122
0.526489 0.082672 0.000122
0.557068 0.082825 0.000122
0.588196 0.081818 0.000061
0.619537 0.080994 0.000061
0.651184 0.081360 0.000061
0.683044 0.082184 0.000031
0.715332 0.083588 0.000031
0.748108 0.085907 0.000000
0.781372 0.088776 0.000000
0.815430 0.092224 0.000000
0.849823 0.096436 0.000000
0.884521 0.101227 0.000000
0.906830 0.106934 0.000000
0.001648 0.059692 0.010254
0.009857 0.062988 0.007019
0.022888 0.065308 0.005341
0.042938 0.067291 0.003601
0.066772 0.070435 0.002502
0.090057 0.075317 0.002258
0.116150 0.082520 0.002075
0.146698 0.091736 0.001953
0.177338 0.098633 0.001221
0.208008 0.103668 0.001038
0.238525 0.106750 0.000824
0.268524 0.108612 0.000641
0.297852 0.110382 0.000519
0.327362 0.111542 0.000397
0.356598 0.112213 0.000336
0.385834 0.112732 0.000305
0.415222 0.113464 0.000244
0.444855 0.113434 0.000244
0.474884 0.113281 0.000183
0.505310 0.112488 0.000183
0.536072 0.111237 0.000153
0.566650 0.111816 0.000122
0.597412 0.111908 0.000092
0.628937 0.111084 0.000061
0.660797 0.110779 0.000061
0.692596 0.112640 0.000031
0.725128 0.113922 0.000031
0.758209 0.115417 0.000031
0.791534 0.118195 0.000000
0.825500 0.121582 0.000000
0.859680 0.126678 0.000000
0.894165 0.132507 0.000000
0.907959 0.139679 0.000000
0.002502 0.076782 0.010956
0.012543 0.079712 0.007660
0.027710 0.082031 0.005707
0.050568 0.084473 0.003967
0.075104 0.087921 0.003296
0.098083 0.093506 0.002472
0.122070 0.099609 0.002411
0.149506 0.107758 0.002197
0.180695 0.117371 0.001923
0.212402 0.125366 0.001282
0.243896 0.131226 0.000977
0.274689 0.135132 0.000793
0.305237 0.137482 0.000580
0.335236 0.139130 0.000427
0.365021 0.139984 0.000397
0.394714 0.140930 0.000305
0.424255 0.141510 0.000305
0.454010 0.142029 0.000244
0.484161 0.142212 0.000214
0.514374 0.142273 0.000183
0.544922 0.141998 0.000153
0.575470 0.142914 0.000092
0.606140 0.143921 0.000092
0.637573 0.144348 0.000092
0.669434 0.145111 0.000031
0.701294 0.147400 0.000031
0.733765 0.149261 0.000031
0.766998 0.150879 0.000031
0.800507 0.153381 0.000000
0.834320 0.156769 0.000000
0.868256 0.161499 0.000000
0.901917 0.167389 0.000000
0.909271 0.173981 0.000000
0.005035 0.094696 0.010223
0.018372 0.097412 0.007507
0.036987 0.099426 0.005371
0.062042 0.101990 0.004059
0.085236 0.105774 0.003296
0.106140 0.111786 0.002747
0.128540 0.118774 0.002655
0.154358 0.125824 0.002563
0.183990 0.135223 0.002350
0.216034 0.145844 0.001984
0.248108 0.154968 0.001343
0.279816 0.161499 0.001129
0.311096 0.165924 0.000824
0.341705 0.168671 0.000519
0.372070 0.170258 0.000458
0.402161 0.171387 0.000397
0.431976 0.172363 0.000305
0.461731 0.173004 0.000275
0.491882 0.173676 0.000214
0.522186 0.174133 0.000183
0.552673 0.174652 0.000153
0.583221 0.175629 0.000122
0.613953 0.177124 0.000092
0.645172 0.178772 0.000092
0.676971 0.180145 0.000031
0.709106 0.182159 0.000031
0.741516 0.184509 0.000031
0.774658 0.186798 0.000031
0.808167 0.189484 0.000000
0.841919 0.192749 0.000000
0.876007 0.196381 0.000000
0.905670 0.200745 0.000000
0.910706 0.206726 0.000000
0.013824 0.113281 0.008698
0.030609 0.115479 0.006348
0.052704 0.117340 0.004883
0.074951 0.119934 0.003967
0.095673 0.123810 0.003510
0.114990 0.130127 0.003265
0.136139 0.138245 0.002899
0.160889 0.146790 0.002869
0.188965 0.155212 0.002686
0.220123 0.165527 0.002472
0.252472 0.177216 0.001831
0.284546 0.186890 0.001373
0.316040 0.193970 0.001099
0.347107 0.198700 0.000732
0.377777 0.201843 0.000519
0.407898 0.203583 0.000427
0.438110 0.204865 0.000366
0.468048 0.205902 0.000305
0.497986 0.207123 0.000214
0.528320 0.208069 0.000214
0.558868 0.208832 0.000153
0.589508 0.209869 0.000122
0.620483 0.211395 0.000092
0.651764 0.213074 0.000092
0.683655 0.214661 0.000031
0.715912 0.216309 0.000031
0.748535 0.218597 0.000031
0.781677 0.221222 0.000031
0.815216 0.223877 0.000000
0.849243 0.226379 0.000000
0.883484 0.229584 0.000000
0.907227 0.233337 0.000000
0.912231 0.238647 0.000000
0.030304 0.132019 0.006897
0.050262 0.133881 0.005493
0.069916 0.135986 0.004761
0.088928 0.138641 0.003937
0.107361 0.142761 0.003540
0.125427 0.148926 0.003540
0.145355 0.158051 0.003265
0.168945 0.168304 0.003265
0.196136 0.177948 0.003052
0.226105 0.187134 0.002869
0.257629 0.198425 0.002838
0.289703 0.210480 0.002228
0.321167 0.220337 0.001434
0.351959 0.227753 0.001007
0.382233 0.233124 0.000885
0.412445 0.236542 0.000671
0.442749 0.238586 0.000427
0.472900 0.240021 0.000336
0.503021 0.241364 0.000275
0.533234 0.242493 0.000214
0.563873 0.243408 0.000153
0.594788 0.244507 0.000153
0.625946 0.245972 0.000092
0.657440 0.247528 0.000092
0.689514 0.249054 0.000031
0.721863 0.250671 0.000031
0.754639 0.252869 0.000031
0.787903 0.255249 0.000031
0.821716 0.257690 0.000000
0.856018 0.259766 0.000000
0.889618 0.262787 0.000000
0.908966 0.266449 0.000000
0.914001 0.271332 0.000000
0.052368 0.150726 0.005585
0.069611 0.152954 0.004883
0.086700 0.155518 0.004395
0.103607 0.158661 0.004181
0.120422 0.162903 0.003815
0.137970 0.169006 0.003815
0.157135 0.178375 0.003815
0.179260 0.190247 0.003784
0.204590 0.202026 0.003693
0.233337 0.211670 0.003540
0.264130 0.221375 0.003326
0.295563 0.233032 0.002991
0.326996 0.244873 0.002441
0.357483 0.255035 0.001587
0.387360 0.262695 0.001312
0.416931 0.268188 0.000885
0.446808 0.271973 0.000488
0.476868 0.274445 0.000366
0.507019 0.275970 0.000275
0.537476 0.277130 0.000214
0.568146 0.278351 0.000183
0.599243 0.279541 0.000153
0.630524 0.280823 0.000092
0.662231 0.282166 0.000092
0.694305 0.283783 0.000031
0.727020 0.285309 0.000031
0.760101 0.287292 0.000031
0.793579 0.289459 0.000000
0.827576 0.291595 0.000000
0.862030 0.293732 0.000000
0.894775 0.296509 0.000000
0.910919 0.299896 0.000000
0.915955 0.304474 0.000000
0.073639 0.170380 0.005280
0.088623 0.173126 0.004822
0.103790 0.176361 0.004639
0.119415 0.180145 0.004425
0.135376 0.184479 0.004272
0.152802 0.190430 0.004059
0.171448 0.199402 0.004059
0.192108 0.211609 0.004456
0.215393 0.225342 0.004456
0.242340 0.237976 0.004303
0.272247 0.247375 0.003876
0.303070 0.257233 0.003601
0.333710 0.268616 0.003113
0.363953 0.280396 0.002502
0.393463 0.290314 0.001709
0.422546 0.297943 0.001190
0.451660 0.303589 0.000793
0.480927 0.307495 0.000549
0.510742 0.310272 0.000336
0.540985 0.312103 0.000275
0.571686 0.313324 0.000214
0.602753 0.314636 0.000153
0.634247 0.315918 0.000092
0.666077 0.317322 0.000092
0.698334 0.318909 0.000031
0.731445 0.320312 0.000031
0.764740 0.322021 0.000031
0.798492 0.324036 0.000000
0.832703 0.326080 0.000000
0.867462 0.328186 0.000000
0.899078 0.330719 0.000000
0.913177 0.333710 0.000000
0.918182 0.337982 0.000000
0.093842 0.191925 0.005524
0.107544 0.195312 0.005157
0.122009 0.198914 0.004639
0.136749 0.202850 0.004700
0.152588 0.207336 0.004761
0.169647 0.212952 0.004303
0.187805 0.221649 0.004395
0.207367 0.233795 0.004791
0.229187 0.248932 0.004761
0.254028 0.263672 0.005005
0.282043 0.274872 0.005127
0.311737 0.283966 0.004333
0.341919 0.293732 0.003906
0.371643 0.304962 0.003540
0.400696 0.316284 0.002686
0.429291 0.325745 0.001770
0.457611 0.333313 0.001373
0.486053 0.339111 0.000885
0.515076 0.343353 0.000671
0.544708 0.346283 0.000336
0.574982 0.348450 0.000244
0.605927 0.349976 0.000153
0.637451 0.351318 0.000122
0.669403 0.352722 0.000092
0.701874 0.354187 0.000031
0.735077 0.355652 0.000031
0.768738 0.357330 0.000000
0.802765 0.359192 0.000000
0.837341 0.361145 0.000000
0.872314 0.363312 0.000000
0.903137 0.365570 0.000000
0.915588 0.368164 0.000000
0.920654 0.371857 0.000000
0.114532 0.215393 0.005585
0.127563 0.218872 0.005493
0.141174 0.222626 0.005157
0.155640 0.226776 0.005066
0.171631 0.231354 0.005066
0.188660 0.237061 0.005157
0.206451 0.245514 0.005157
0.225128 0.257477 0.005157
0.245392 0.272827 0.005707
0.268219 0.289337 0.005859
0.293884 0.302582 0.005737
0.321777 0.312744 0.005646
0.351044 0.321075 0.005219
0.380707 0.330444 0.004669
0.409241 0.341370 0.003845
0.437134 0.352020 0.003021
0.464783 0.361237 0.002167
0.492615 0.368896 0.001495
0.520752 0.374695 0.001007
0.549438 0.379059 0.000519
0.578979 0.382416 0.000305
0.609314 0.384888 0.000183
0.640625 0.386658 0.000122
0.672455 0.388123 0.000092
0.705139 0.389618 0.000061
0.738495 0.391113 0.000031
0.772339 0.392761 0.000000
0.806641 0.394623 0.000000
0.841583 0.396454 0.000000
0.876831 0.398590 0.000000
0.906799 0.400848 0.000000
0.918396 0.403198 0.000000
0.923340 0.406342 0.000000
0.135529 0.239990 0.006256
0.148193 0.243530 0.005890
0.161957 0.247528 0.005890
0.176819 0.251892 0.005524
0.192810 0.256775 0.005585
0.209717 0.262634 0.005615
0.226959 0.270660 0.005615
0.244568 0.281891 0.006256
0.263580 0.296906 0.006287
0.284790 0.314148 0.006500
0.308228 0.329956 0.006989
0.333801 0.342072 0.006958
0.361237 0.350708 0.006866
0.389984 0.357910 0.006470
0.418579 0.367035 0.005310
0.445984 0.377228 0.004517
0.473053 0.387543 0.003357
0.500275 0.396698 0.002350
0.527740 0.404358 0.001434
0.555542 0.410370 0.000885
0.584229 0.415039 0.000488
0.613739 0.418579 0.000275
0.644348 0.421387 0.000183
0.675812 0.423401 0.000122
0.708282 0.425171 0.000092
0.741669 0.426758 0.000031
0.775726 0.428406 0.000031
0.810333 0.430206 0.000000
0.845459 0.432159 0.000000
0.881073 0.434265 0.000000
0.910400 0.436554 0.000000
0.921387 0.438690 0.000000
0.926361 0.441406 0.000000
0.157990 0.265686 0.006958
0.170654 0.269501 0.006531
0.184662 0.273499 0.006561
0.199493 0.278076 0.006348
0.215515 0.283112 0.006226
0.232056 0.288971 0.006409
0.248810 0.296844 0.006592
0.265839 0.307739 0.006683
0.283722 0.322205 0.007050
0.303131 0.338898 0.007660
0.324615 0.355621 0.007690
0.348206 0.370117 0.008301
0.373474 0.380951 0.008179
0.400238 0.387787 0.007843
0.428131 0.394806 0.007324
0.455811 0.403351 0.005859
0.482452 0.413177 0.004883
0.508972 0.423096 0.003754
0.535797 0.432220 0.002533
0.562988 0.439880 0.001373
0.590790 0.446136 0.000885
0.619446 0.451111 0.000488
0.649200 0.454987 0.000305
0.679993 0.458038 0.000183
0.712006 0.460632 0.000122
0.745117 0.462677 0.000061
0.779175 0.464508 0.000031
0.813873 0.466309 0.000031
0.849304 0.468323 0.000000
0.885162 0.470428 0.000000
0.914124 0.472626 0.000000
0.924744 0.474487 0.000000
0.929626 0.476746 0.000000
0.181671 0.292572 0.008911
0.194641 0.296356 0.008453
0.208801 0.300568 0.007874
0.223602 0.305115 0.007660
0.239319 0.310181 0.007446
0.255432 0.316101 0.007629
0.271759 0.323792 0.007721
0.288086 0.334259 0.007751
0.304718 0.347900 0.008148
0.322693 0.364136 0.008453
0.342560 0.380981 0.009003
0.364380 0.396820 0.009644
0.387634 0.409760 0.009735
0.412476 0.418457 0.009918
0.438660 0.424927 0.009247
0.465820 0.431488 0.008453
0.492798 0.439484 0.006836
0.518982 0.449066 0.005615
0.544983 0.458893 0.004425
0.571533 0.467865 0.002777
0.598694 0.475739 0.001526
0.626617 0.482239 0.000946
0.655457 0.487457 0.000610
0.685455 0.491669 0.000244
0.716736 0.495209 0.000153
0.749298 0.498077 0.000092
0.782990 0.500519 0.000061
0.817657 0.502563 0.000031
0.853027 0.504669 0.000031
0.889038 0.506866 0.000000
0.917877 0.509033 0.000000
0.928192 0.510681 0.000000
0.933014 0.512604 0.000000
0.207001 0.320129 0.012848
0.219940 0.323944 0.011627
0.233856 0.328156 0.010773
0.248444 0.332703 0.009857
0.263855 0.337585 0.009003
0.279449 0.343353 0.008453
0.295197 0.351013 0.008514
0.310730 0.361145 0.008636
0.326538 0.374268 0.009125
0.343384 0.389771 0.009644
0.361633 0.406433 0.010010
0.381622 0.422943 0.010590
0.403259 0.437469 0.011139
0.426300 0.448486 0.011444
0.450562 0.455933 0.011169
0.476379 0.461700 0.010773
0.503021 0.467682 0.009521
0.529541 0.475647 0.007690
0.555481 0.485138 0.006042
0.581268 0.494843 0.004517
0.607758 0.503906 0.002655
0.635010 0.511932 0.001678
0.663208 0.518738 0.000793
0.692352 0.524261 0.000397
0.722839 0.528900 0.000244
0.754578 0.532684 0.000153
0.787567 0.535919 0.000061
0.821838 0.538757 0.000031
0.857178 0.541168 0.000031
0.893188 0.543579 0.000031
0.921661 0.545654 0.000000
0.931763 0.547272 0.000000
0.936523 0.548950 0.000000
0.233002 0.348297 0.018463
0.245789 0.352142 0.016754
0.259521 0.356323 0.015106
0.273804 0.360718 0.013428
0.288574 0.365662 0.011963
0.303619 0.371399 0.010559
0.318756 0.378845 0.010010
0.333740 0.388611 0.010040
0.348846 0.401062 0.010162
0.364502 0.415680 0.010651
0.381348 0.431793 0.011383
0.399750 0.448334 0.011749
0.419708 0.463959 0.012329
0.441132 0.476990 0.012970
0.463928 0.486633 0.012848
0.488037 0.493256 0.012939
0.513611 0.498230 0.011871
0.540039 0.503784 0.010529
0.566498 0.511841 0.008545
0.592224 0.521149 0.006165
0.618011 0.530945 0.004517
0.644653 0.540222 0.002472
0.672211 0.548492 0.001373
0.700653 0.555573 0.000732
0.730286 0.561523 0.000366
0.761292 0.566528 0.000214
0.793549 0.570618 0.000122
0.827087 0.574188 0.000061
0.862000 0.577362 0.000031
0.897827 0.580200 0.000031
0.925812 0.582550 0.000031
0.935547 0.584076 0.000000
0.940247 0.585480 0.000000
0.258789 0.376648 0.028168
0.271545 0.380524 0.025818
0.284912 0.384583 0.023743
0.298859 0.389069 0.021088
0.313049 0.393860 0.018250
0.327728 0.399536 0.015015
0.342377 0.406708 0.013062
0.356781 0.415894 0.012238
0.371063 0.427582 0.011993
0.385834 0.441467 0.012360
0.401459 0.456940 0.012421
0.418365 0.473206 0.013245
0.436798 0.489227 0.013977
0.456787 0.503662 0.014130
0.478241 0.515533 0.014557
0.500977 0.524261 0.014679
0.525177 0.530182 0.014191
0.550842 0.534698 0.013000
0.577362 0.540466 0.011566
0.603638 0.548279 0.009369
0.629364 0.557465 0.006439
0.655334 0.567352 0.004120
0.682129 0.576904 0.002380
0.710144 0.585480 0.001221
0.739227 0.592987 0.000641
0.769409 0.599365 0.000336
0.800903 0.604675 0.000183
0.833618 0.609192 0.000122
0.867950 0.613190 0.000061
0.903229 0.616669 0.000031
0.930298 0.619507 0.000031
0.939636 0.621185 0.000000
0.944336 0.622528 0.000000
0.284424 0.405121 0.043243
0.296967 0.409027 0.040466
0.309875 0.413025 0.037354
0.323334 0.417236 0.033356
0.337250 0.421967 0.028900
0.351501 0.427551 0.024811
0.365540 0.434418 0.020905
0.379486 0.443146 0.017792
0.393311 0.454041 0.015778
0.407196 0.467102 0.014618
0.421753 0.481964 0.014343
0.437439 0.497894 0.014557
0.454437 0.513855 0.014984
0.473053 0.529236 0.015503
0.493103 0.542908 0.016113
0.514648 0.553833 0.016266
0.537598 0.561584 0.015991
0.562073 0.566620 0.015320
0.587952 0.571167 0.014099
0.614594 0.577087 0.012512
0.640900 0.584900 0.009735
0.666992 0.594299 0.006775
0.693298 0.604431 0.003845
0.720642 0.614166 0.001984
0.749176 0.623230 0.001099
0.778778 0.631073 0.000519
0.809601 0.637848 0.000305
0.841553 0.643677 0.000183
0.875031 0.648621 0.000122
0.909698 0.652832 0.000061
0.935150 0.656158 0.000031
0.943970 0.658325 0.000031
0.948730 0.659912 0.000000
0.309021 0.433472 0.060944
0.321259 0.437256 0.058136
0.333893 0.441162 0.054962
0.347076 0.445251 0.051300
0.360596 0.449738 0.046692
0.374451 0.455170 0.041412
0.388245 0.461731 0.035828
0.401825 0.470032 0.029785
0.415222 0.480377 0.024170
0.428558 0.492676 0.019867
0.442230 0.506836 0.017487
0.456909 0.522247 0.016205
0.472687 0.538208 0.016693
0.489899 0.553986 0.016937
0.508636 0.568817 0.017303
0.528870 0.581665 0.017670
0.550629 0.591736 0.017761
0.573975 0.598419 0.017578
0.598816 0.603241 0.016724
0.625183 0.607819 0.015503
0.652161 0.613831 0.012573
0.678894 0.621887 0.010162
0.705353 0.631653 0.006409
0.732330 0.642090 0.003265
0.760254 0.652222 0.001892
0.789307 0.661652 0.000977
0.819519 0.670044 0.000488
0.850739 0.677277 0.000305
0.883179 0.683411 0.000183
0.917053 0.688721 0.000092
0.940399 0.692627 0.000061
0.948578 0.695282 0.000031
0.953308 0.697235 0.000031
0.332336 0.461395 0.079620
0.344391 0.465027 0.076996
0.356964 0.468933 0.073944
0.369904 0.473053 0.070526
0.383209 0.477539 0.066528
0.396790 0.482605 0.061554
0.410339 0.488861 0.055328
0.423706 0.496735 0.047974
0.436798 0.506470 0.040039
0.449829 0.518219 0.031738
0.462952 0.531677 0.024811
0.476593 0.546417 0.020752
0.491302 0.562073 0.019226
0.507263 0.578003 0.018341
0.524628 0.593445 0.018646
0.543549 0.607666 0.019043
0.564087 0.619843 0.019562
0.586304 0.628937 0.019470
0.610107 0.635284 0.019012
0.635651 0.639954 0.017944
0.662659 0.644562 0.015686
0.690338 0.650879 0.013123
0.717743 0.659454 0.009857
0.744995 0.669678 0.006104
0.772705 0.680542 0.002686
0.801086 0.691162 0.001190
0.830566 0.701080 0.000732
0.861053 0.709839 0.000458
0.892700 0.717499 0.000275
0.925476 0.723999 0.000153
0.946198 0.728790 0.000092
0.953400 0.732056 0.000061
0.958191 0.734497 0.000031
0.354340 0.488770 0.098755
0.366272 0.492401 0.096405
0.378662 0.496307 0.093445
0.391510 0.500366 0.090271
0.404663 0.504761 0.086761
0.418152 0.509674 0.082397
0.431671 0.515625 0.077179
0.444946 0.523010 0.070465
0.457886 0.532196 0.061951
0.470612 0.543243 0.052277
0.483368 0.555939 0.041748
0.496307 0.569977 0.032166
0.509918 0.585175 0.025177
0.524658 0.600922 0.021515
0.540741 0.616699 0.019958
0.558319 0.631866 0.020111
0.577667 0.645721 0.020599
0.598785 0.657318 0.020935
0.621674 0.666077 0.020721
0.646301 0.672302 0.020020
0.672760 0.676880 0.018707
0.700836 0.681641 0.016144
0.729553 0.688568 0.013000
0.757904 0.697723 0.009644
0.785828 0.708405 0.005402
0.813995 0.719788 0.002655
0.842743 0.730957 0.001068
0.872437 0.741333 0.000732
0.903168 0.750580 0.000458
0.934967 0.758606 0.000244
0.952393 0.764557 0.000153
0.958496 0.768768 0.000092
0.963287 0.771973 0.000061
0.374878 0.515656 0.119110
0.386780 0.519287 0.116547
0.399231 0.523193 0.113770
0.411957 0.527252 0.110687
0.425079 0.531555 0.107330
0.438690 0.536407 0.103394
0.452240 0.542084 0.098511
0.465485 0.549103 0.092529
0.478394 0.557709 0.085602
0.491028 0.567932 0.077393
0.503510 0.579681 0.067719
0.515991 0.592987 0.056244
0.528839 0.607605 0.043945
0.542480 0.623169 0.032318
0.557190 0.639099 0.025269
0.573486 0.654877 0.021942
0.591461 0.669952 0.021545
0.611389 0.683563 0.021820
0.633270 0.694794 0.022339
0.657074 0.703400 0.021667
0.682892 0.709564 0.020691
0.710602 0.714142 0.018738
0.740173 0.719452 0.015900
0.769897 0.727112 0.012634
0.799042 0.736938 0.009186
0.827576 0.748199 0.006134
0.856018 0.760132 0.003326
0.884949 0.771881 0.001404
0.914490 0.782654 0.000671
0.945129 0.792297 0.000427
0.958313 0.799652 0.000275
0.963837 0.805145 0.000183
0.968719 0.809296 0.000122
0.394043 0.541962 0.139557
0.406006 0.545685 0.137177
0.418396 0.549622 0.134552
0.431183 0.553741 0.131622
0.444366 0.558075 0.128387
0.457855 0.562836 0.124664
0.471497 0.568085 0.120270
0.485016 0.574615 0.115143
0.498077 0.582642 0.108704
0.510803 0.592102 0.101410
0.523285 0.603149 0.092743
0.535583 0.615753 0.082581
0.547943 0.629730 0.070618
0.560669 0.644836 0.056580
0.574341 0.660828 0.041962
0.589325 0.677063 0.030884
0.605927 0.693085 0.024963
0.624512 0.708160 0.022797
0.645233 0.721588 0.023041
0.668060 0.732666 0.023071
0.693146 0.741058 0.022430
0.720398 0.746979 0.021179
0.749878 0.751831 0.018463
0.780731 0.757996 0.015594
0.811523 0.766602 0.012665
