src/assets/luts/ON1 Nature & Wildlife LUTs/CinematicX LUTs - 30 Free Cinematic LUTs - The Resolve Store 2022/Deseado - Rec709.cube
# Copyright: (C) Copyright 2022 The Resolve Store 
# Cannot be resold, shared or otherwise redistributed
TITLE "CinematicX (Rec.709)"
LUT_3D_SIZE 9
0.000000 0.000000 0.000000
0.034424 0.002930 0.000000
0.118195 0.008728 0.000183
0.235992 0.012543 0.000061
0.355957 0.010223 0.000000
0.475403 0.009583 0.000000
0.599701 0.013062 0.000000
0.734650 0.016388 0.000000
0.875031 0.020874 0.000000
0.000824 0.032257 0.006744
0.055206 0.040833 0.002106
0.163544 0.059875 0.000793
0.278473 0.065125 0.000366
0.395203 0.064117 0.000183
0.516602 0.058044 0.000092
0.640625 0.059326 0.000061
0.771179 0.067566 0.000000
0.905060 0.081024 0.000000
0.005035 0.094696 0.010223
0.085236 0.105774 0.003296
0.183990 0.135223 0.002350
0.311096 0.165924 0.000824
0.431976 0.172363 0.000305
0.552673 0.174652 0.000153
0.676971 0.180145 0.000031
0.808167 0.189484 0.000000
0.910706 0.206726 0.000000
0.073639 0.170380 0.005280
0.135376 0.184479 0.004272
0.215393 0.225342 0.004456
0.333710 0.268616 0.003113
0.451660 0.303589 0.000793
0.571686 0.313324 0.000214
0.698334 0.318909 0.000031
0.832703 0.326080 0.000000
0.918182 0.337982 0.000000
0.157990 0.265686 0.006958
0.215515 0.283112 0.006226
0.283722 0.322205 0.007050
0.373474 0.380951 0.008179
0.482452 0.413177 0.004883
0.590790 0.446136 0.000885
0.712006 0.460632 0.000122
0.849304 0.468323 0.000000
0.929626 0.476746 0.000000
0.258789 0.376648 0.028168
0.313049 0.393860 0.018250
0.371063 0.427582 0.011993
0.436798 0.489227 0.013977
0.525177 0.530182 0.014191
0.629364 0.557465 0.006439
0.739227 0.592987 0.000641
0.867950 0.613190 0.000061
0.944336 0.622528 0.000000
0.354340 0.488770 0.098755
0.404663 0.504761 0.086761
0.457886 0.532196 0.061951
0.509918 0.585175 0.025177
0.577667 0.645721 0.020599
0.672760 0.676880 0.018707
0.785828 0.708405 0.005402
0.903168 0.750580 0.000458
0.963287 0.771973 0.000061
0.427368 0.592987 0.181671
0.478760 0.609955 0.171753
0.534851 0.632568 0.155670
0.586090 0.674042 0.123352
0.637695 0.736725 0.062103
0.714447 0.799347 0.024750
0.832184 0.830994 0.018860
0.950928 0.874908 0.014496
0.984833 0.919525 0.001770
0.482483 0.693115 0.269165
0.538269 0.712891 0.263062
0.599670 0.737030 0.252167
0.658783 0.772644 0.229797
0.708282 0.831848 0.178802
0.766663 0.906097 0.091248
0.865051 0.963287 0.016327
0.981964 0.982483 0.007324
0.995239 0.989624 0.016754
0.000000 0.002747 0.017242
0.029266 0.005371 0.024811
0.115112 0.006042 0.025787
0.241638 0.000061 0.024597
0.355682 0.000000 0.027588
0.475708 0.000000 0.028595
0.604065 0.000000 0.027740
0.740601 0.000000 0.026611
0.880219 0.000000 0.029694
0.000488 0.037994 0.035095
0.038696 0.046814 0.039429
0.164093 0.054810 0.037567
0.293060 0.037598 0.027863
0.407715 0.025726 0.023132
0.522003 0.026520 0.021759
0.646393 0.030121 0.019348
0.777100 0.036804 0.019531
0.908051 0.045654 0.017303
0.000793 0.097321 0.051849
0.039825 0.114044 0.044373
0.175873 0.139374 0.042419
0.319336 0.165436 0.043457
0.446991 0.159424 0.032196
0.570007 0.146271 0.025116
0.692749 0.141205 0.021088
0.820557 0.155182 0.020721
0.915161 0.183624 0.017639
0.017792 0.170227 0.033783
0.096191 0.185150 0.029755
0.197662 0.220062 0.023773
0.332672 0.274567 0.029541
0.458527 0.306519 0.038910
0.582245 0.310669 0.036316
0.710541 0.312378 0.033142
0.844452 0.317719 0.030487
0.923309 0.329346 0.017853
0.116425 0.255249 0.029999
0.180206 0.276855 0.026581
0.267334 0.311768 0.021759
0.365875 0.384277 0.025085
0.483185 0.418823 0.030396
0.595337 0.449371 0.041077
0.719177 0.460419 0.044281
0.858368 0.465820 0.036133
0.933807 0.473358 0.018066
0.219482 0.364563 0.059418
0.280914 0.386047 0.052643
0.357025 0.418030 0.034851
0.429474 0.484375 0.029022
0.521362 0.536957 0.034149
0.629974 0.562622 0.036133
0.742523 0.595947 0.045013
0.872711 0.613800 0.051086
0.946838 0.621521 0.018219
0.321625 0.481171 0.131989
0.378998 0.499969 0.124420
0.445526 0.525726 0.109772
0.506226 0.577271 0.079407
0.573486 0.645630 0.042358
0.670013 0.684906 0.043976
0.786346 0.713806 0.046570
0.905426 0.753754 0.055817
0.964752 0.772888 0.018158
0.401520 0.590637 0.217834
0.457764 0.608795 0.210907
0.522034 0.631683 0.199738
0.584442 0.667908 0.178375
0.639435 0.731750 0.137085
0.712219 0.803619 0.068787
0.829895 0.842133 0.058655
0.951660 0.882843 0.060822
0.986023 0.923309 0.019043
0.458649 0.694824 0.309052
0.521423 0.715759 0.304657
0.587128 0.740631 0.296661
0.655579 0.773804 0.282745
0.714050 0.829895 0.248474
0.772156 0.909149 0.181824
0.862488 0.975525 0.029480
0.980774 0.985443 0.020477
0.996613 0.991821 0.033630
0.000061 0.007660 0.043030
0.016205 0.012939 0.072510
0.091339 0.014130 0.076294
0.210815 0.008972 0.081451
0.340057 0.000000 0.089996
0.462463 0.000000 0.098206
0.588928 0.000000 0.104279
0.721893 0.000000 0.109192
0.860687 0.000000 0.115387
0.000671 0.046906 0.077759
0.014465 0.058228 0.099548
0.120972 0.064240 0.110107
0.259583 0.047668 0.107849
0.388977 0.020660 0.101227
0.505035 0.019745 0.101807
0.626770 0.019501 0.103760
0.756592 0.018555 0.107330
0.894501 0.017975 0.113373
0.001099 0.113953 0.113922
0.016235 0.128662 0.128784
0.134369 0.147491 0.142273
0.310364 0.163788 0.150177
0.447205 0.153961 0.139893
0.572510 0.131195 0.128143
0.696472 0.108521 0.119293
0.823792 0.107635 0.116821
0.928101 0.068695 0.044647
0.001526 0.182373 0.126190
0.017609 0.201416 0.131104
0.143250 0.224396 0.131744
0.319794 0.283234 0.154724
0.459167 0.313324 0.169067
0.587555 0.311768 0.161163
0.719727 0.306885 0.148529
0.855957 0.305267 0.139923
0.938782 0.301849 0.036774
0.023895 0.260071 0.112610
0.100433 0.280212 0.113708
0.226166 0.316162 0.114014
0.348358 0.379547 0.121796
0.477539 0.429504 0.150452
0.597412 0.456146 0.166138
0.726593 0.460571 0.159271
0.867798 0.462738 0.151062
0.946564 0.463287 0.036896
0.144623 0.349884 0.118103
0.212952 0.376007 0.119598
0.320312 0.415344 0.117767
0.415924 0.468262 0.107330
0.511047 0.543884 0.103058
0.627350 0.570770 0.117004
0.745697 0.600708 0.147614
0.879395 0.614044 0.153595
0.954834 0.617767 0.036957
0.243317 0.460846 0.172211
0.317719 0.486694 0.172791
0.408112 0.519287 0.167877
0.494110 0.560883 0.154755
0.565796 0.636047 0.132294
0.661896 0.693817 0.106171
0.784668 0.720734 0.119568
0.908142 0.757904 0.146057
0.968536 0.773224 0.036804
0.335938 0.575500 0.254608
0.405853 0.598419 0.253571
0.486786 0.626801 0.248383
0.569214 0.659424 0.237854
0.637634 0.717224 0.213928
0.708038 0.799805 0.171417
0.822998 0.852997 0.137604
0.951874 0.891327 0.128143
0.987885 0.927704 0.037109
0.409637 0.688538 0.346649
0.478485 0.710052 0.345367
0.558594 0.738800 0.341431
0.637238 0.773682 0.333893
0.713348 0.822662 0.317932
0.776703 0.902069 0.276917
0.856873 0.977570 0.090271
0.977753 0.987701 0.038574
0.997955 0.993805 0.050140
0.000641 0.016937 0.092804
0.013641 0.022278 0.128357
0.070374 0.025818 0.137695
0.170868 0.032166 0.143188
0.291229 0.026367 0.154510
0.427582 0.001404 0.164856
0.559601 0.000000 0.178772
0.696503 0.000000 0.189209
0.839386 0.000000 0.202637
0.000671 0.058929 0.125000
0.012390 0.067566 0.149933
0.071503 0.077026 0.181854
0.199921 0.078674 0.179688
0.327545 0.063660 0.179138
0.464264 0.024170 0.180573
0.594574 0.014954 0.186798
0.730652 0.015228 0.195831
0.875122 0.016357 0.212097
0.001343 0.127625 0.175629
0.013336 0.139801 0.194275
0.036713 0.162384 0.225891
0.247955 0.177734 0.238922
0.401825 0.164429 0.236816
0.545685 0.128693 0.228516
0.679535 0.084106 0.220581
0.808044 0.076660 0.222900
0.924377 0.035522 0.219421
0.002380 0.214783 0.216614
0.014832 0.232788 0.233063
0.042755 0.268311 0.264557
0.277924 0.295288 0.280396
0.460052 0.315277 0.299713
0.593933 0.307587 0.287445
0.723846 0.298584 0.275452
0.858307 0.292511 0.268250
0.994843 0.200897 0.065033
0.005096 0.296204 0.240723
0.018616 0.315369 0.249756
0.087585 0.345947 0.262177
0.290100 0.369202 0.272461
0.465881 0.435028 0.313934
0.599548 0.461945 0.315094
0.731659 0.461639 0.305267
0.874908 0.459656 0.292267
0.990723 0.430450 0.056519
0.020813 0.377777 0.249207
0.074066 0.395905 0.253998
0.204468 0.427185 0.259338
0.365326 0.462769 0.277313
0.490356 0.525909 0.292999
0.617096 0.577454 0.312195
0.745117 0.606628 0.314026
0.884979 0.614258 0.302948
0.982117 0.606903 0.056396
0.138245 0.471680 0.272949
0.203125 0.493103 0.276825
0.330261 0.524109 0.291107
0.452209 0.562042 0.295685
0.550293 0.607727 0.297058
0.649628 0.688934 0.300385
0.777222 0.727356 0.301819
0.910034 0.762360 0.298981
0.981842 0.772003 0.056213
0.247284 0.579681 0.319275
0.324982 0.598602 0.334686
0.423676 0.627655 0.336945
0.530609 0.663239 0.337006
0.625580 0.701630 0.333923
0.705811 0.779175 0.322601
0.814056 0.858002 0.305939
0.951721 0.900421 0.242371
0.993103 0.933075 0.056915
0.344238 0.689209 0.390137
0.420074 0.711395 0.407837
0.508942 0.739410 0.406799
0.603699 0.776062 0.405060
0.696686 0.822510 0.403595
0.781677 0.888641 0.389557
0.852417 0.979492 0.131927
0.972870 0.991425 0.060455
0.999908 0.996399 0.221161
0.000671 0.027710 0.158020
0.018372 0.033081 0.176697
0.059937 0.037933 0.193787
0.149078 0.046967 0.203613
0.248901 0.054749 0.204865
0.365204 0.053986 0.222260
0.504913 0.032288 0.241669
0.652405 0.000244 0.256592
0.799438 0.000061 0.277039
0.001068 0.072021 0.181366
0.013092 0.080048 0.204895
0.050507 0.088531 0.233826
0.167999 0.098724 0.242310
0.278778 0.092987 0.237122
0.393616 0.088928 0.245270
0.531952 0.068115 0.258972
0.682922 0.020142 0.270355
0.836609 0.016357 0.290802
0.001465 0.140259 0.225952
0.012024 0.150787 0.242462
0.029205 0.169586 0.273834
0.175262 0.193054 0.316284
0.344238 0.195801 0.311859
0.467102 0.177887 0.307617
0.602051 0.146088 0.303894
0.749786 0.078217 0.301208
0.917786 0.040558 0.320099
0.003632 0.232300 0.282379
0.014832 0.246826 0.299500
0.034058 0.280640 0.337616
0.190552 0.321228 0.380005
0.418701 0.347717 0.396576
0.551941 0.332550 0.393158
0.696014 0.305664 0.381500
0.843597 0.283783 0.373352
0.997864 0.158356 0.321167
0.006042 0.337006 0.339172
0.018311 0.356598 0.356506
0.039429 0.396912 0.391754
0.232300 0.437592 0.423676
0.455322 0.452332 0.434052
0.601135 0.470215 0.449951
0.738159 0.461761 0.436432
0.914124 0.428711 0.386566
0.999359 0.418518 0.358490
0.019012 0.446198 0.394501
0.049683 0.466217 0.407013
0.139008 0.490753 0.417725
0.279999 0.508209 0.422363
0.448242 0.521271 0.429718
0.606720 0.575989 0.471619
0.747803 0.609650 0.464142
0.915466 0.603882 0.397247
0.999908 0.598145 0.348358
0.099030 0.527924 0.408356
0.139648 0.542542 0.414581
0.229156 0.562286 0.419861
0.352783 0.581696 0.423065
0.503357 0.604218 0.445404
0.627258 0.661377 0.457581
0.764984 0.724854 0.479797
0.921478 0.762695 0.392303
1.000000 0.769012 0.284485
0.192200 0.610809 0.430695
0.236420 0.628906 0.439026
0.324860 0.650574 0.442017
0.455292 0.674255 0.454407
0.577057 0.707642 0.471313
0.688446 0.756622 0.478333
0.803619 0.846680 0.486053
0.948212 0.904633 0.356415
1.000000 0.936432 0.274628
0.280396 0.706055 0.469543
0.335114 0.733429 0.484344
0.427673 0.759705 0.485992
0.552612 0.786560 0.509125
0.656586 0.832428 0.517242
0.755737 0.892609 0.478943
0.843842 0.982758 0.295319
0.967712 0.997284 0.259735
1.000000 0.997284 0.453888
0.009827 0.041748 0.209900
0.030914 0.047485 0.222839
0.065704 0.053558 0.243073
0.129578 0.062531 0.255432
0.236053 0.069305 0.264160
0.327911 0.076324 0.264771
0.440643 0.081085 0.288544
0.581329 0.081390 0.318359
0.743042 0.067505 0.347809
0.003143 0.089020 0.240875
0.018829 0.095734 0.257111
0.052521 0.105316 0.277954
0.120850 0.118500 0.306854
0.269196 0.125275 0.309845
0.356506 0.112549 0.293671
0.464417 0.114288 0.309631
0.605927 0.117645 0.336853
0.774750 0.116364 0.370270
0.002075 0.156250 0.276611
0.012177 0.165833 0.292206
0.025696 0.183685 0.320587
0.076538 0.209076 0.364410
0.321136 0.237946 0.389557
0.432556 0.217224 0.374695
0.530487 0.192596 0.367126
0.661682 0.179871 0.375885
0.838684 0.200470 0.413116
0.004425 0.246552 0.339050
0.014557 0.259338 0.355103
0.029938 0.287262 0.387329
0.101318 0.334290 0.439270
0.348633 0.366882 0.480103
0.508820 0.377106 0.474091
0.626099 0.356232 0.469879
0.764862 0.335846 0.466187
0.992920 0.240601 0.453064
0.008423 0.358398 0.406860
0.019409 0.374603 0.423706
0.036926 0.409302 0.458740
0.190613 0.462036 0.509064
0.384949 0.492401 0.535980
0.584229 0.509186 0.541595
0.692200 0.498108 0.542694
0.857574 0.460571 0.525085
0.998322 0.424408 0.506561
0.018402 0.480896 0.480896
0.040894 0.503021 0.500153
0.104340 0.527954 0.520050
0.243744 0.568298 0.551971
0.415222 0.591187 0.567932
0.605164 0.596008 0.571442
0.740875 0.615417 0.593475
0.919525 0.600342 0.556885
0.999573 0.596405 0.547058
0.111542 0.588745 0.536255
0.146912 0.604523 0.546814
0.202240 0.626678 0.560242
0.321869 0.650726 0.571991
0.451782 0.660065 0.573364
0.599030 0.667694 0.577667
0.753723 0.717194 0.622345
0.922150 0.762939 0.568878
0.999939 0.768951 0.553375
0.188141 0.671387 0.556488
0.225403 0.689117 0.566681
0.293121 0.708618 0.575928
0.393158 0.723877 0.581818
0.506073 0.740051 0.587128
0.652283 0.761047 0.610901
0.770844 0.825867 0.598053
0.927277 0.901489 0.594757
1.000000 0.936676 0.557281
0.265442 0.753906 0.583191
0.315094 0.781982 0.601440
0.389435 0.805511 0.611847
0.481201 0.828156 0.618256
0.545746 0.870087 0.601593
0.663666 0.917511 0.596619
0.805847 0.974731 0.594238
0.954132 0.998260 0.595154
1.000000 0.998199 0.654388
0.023346 0.062164 0.263550
0.044922 0.067810 0.275269
0.073395 0.076660 0.293610
0.125854 0.090149 0.314026
0.234802 0.100250 0.335266
0.330353 0.097534 0.327087
0.412933 0.103516 0.330902
0.523834 0.114807 0.361298
0.667694 0.128754 0.401672
0.011841 0.109528 0.296051
0.030731 0.116638 0.308167
0.059906 0.128693 0.328033
0.113129 0.149384 0.362183
0.261261 0.172333 0.385315
0.370911 0.158478 0.375153
0.441559 0.142334 0.359528
0.550232 0.153168 0.385437
0.700592 0.178162 0.430115
0.002869 0.176392 0.330994
0.012817 0.186096 0.345703
0.024841 0.203003 0.370636
0.073425 0.231171 0.410400
0.270233 0.270966 0.467072
0.435059 0.277954 0.465637
0.517792 0.248718 0.439911
0.608734 0.228607 0.438751
0.758301 0.256622 0.478424
0.005157 0.266663 0.391632
0.015472 0.278931 0.406647
0.028259 0.302063 0.434174
0.059296 0.345825 0.484833
0.274719 0.386414 0.532013
0.495300 0.415100 0.548370
0.595367 0.406799 0.542480
0.701904 0.391144 0.543304
0.837891 0.395721 0.558655
0.010437 0.377777 0.467468
0.021759 0.393005 0.484283
0.036774 0.421661 0.515625
0.146088 0.468842 0.565155
0.335724 0.508850 0.601685
0.520203 0.531189 0.633270
0.659515 0.544159 0.616974
0.766144 0.527100 0.621185
0.949921 0.486847 0.617584
0.022156 0.503204 0.549652
0.041077 0.524872 0.570435
0.093048 0.547241 0.591431
0.200134 0.586517 0.628357
0.394714 0.625397 0.660828
0.552368 0.642181 0.676361
0.733154 0.647644 0.677429
0.844391 0.641357 0.680511
0.995911 0.621704 0.673553
0.114960 0.619904 0.616821
0.147186 0.635559 0.629456
0.190796 0.657959 0.648132
0.264313 0.690979 0.675659
0.434204 0.724701 0.701477
0.576599 0.737305 0.708588
0.732391 0.742676 0.703033
0.879456 0.768768 0.731720
0.999512 0.772308 0.730621
0.198090 0.723114 0.671021
0.232788 0.743866 0.686829
0.279938 0.767700 0.704163
0.356049 0.793030 0.720428
0.494415 0.813965 0.732330
0.591980 0.829681 0.732697
0.703918 0.849731 0.726257
0.889801 0.899811 0.753510
0.999939 0.938477 0.760193
0.268097 0.814362 0.706360
0.313019 0.845337 0.728577
0.373322 0.872772 0.745026
0.429718 0.899750 0.752045
0.460999 0.933716 0.751404
0.598602 0.958344 0.763062
0.746429 0.985382 0.776855
0.919312 0.998596 0.797028
1.000000 0.999054 0.833588
0.038971 0.086945 0.317383
0.059723 0.094177 0.328735
0.083984 0.106262 0.347687
0.125336 0.124786 0.379059
0.219604 0.147369 0.403870
0.362274 0.151428 0.422729
0.437500 0.143616 0.407196
0.512207 0.149170 0.413147
0.616730 0.164001 0.444733
0.026428 0.135284 0.350494
0.048126 0.143036 0.361328
0.073364 0.156555 0.380157
0.115234 0.180145 0.413391
0.208649 0.212219 0.459991
0.396118 0.231262 0.477631
0.479065 0.210571 0.455261
0.545532 0.198547 0.446503
0.653229 0.220825 0.479858
0.004150 0.200562 0.388123
0.015289 0.211945 0.402527
0.034180 0.229431 0.424164
0.085510 0.255798 0.458038
0.190399 0.295044 0.511993
0.431183 0.338257 0.544525
0.535522 0.328064 0.536407
0.614655 0.310730 0.524231
0.718506 0.323212 0.546936
0.006317 0.291260 0.447266
0.017365 0.304626 0.463531
0.031006 0.326935 0.489655
0.079132 0.360382 0.528107
0.202820 0.402435 0.579468
0.448242 0.441559 0.631012
0.595673 0.453369 0.624329
0.679871 0.448792 0.613129
0.783722 0.450409 0.626251
0.012787 0.401459 0.532166
0.024445 0.417267 0.549896
0.044983 0.445496 0.580048
0.119476 0.476929 0.613739
0.275391 0.519470 0.655212
0.463135 0.550751 0.686310
0.657593 0.568970 0.687225
0.735596 0.575958 0.686859
0.862701 0.555115 0.702789
0.033844 0.531006 0.621063
0.063507 0.546326 0.636230
0.110046 0.564606 0.654877
0.182800 0.597931 0.689575
0.361633 0.637817 0.726440
0.519318 0.663727 0.748474
0.673279 0.675232 0.773926
0.802460 0.687469 0.758209
0.916626 0.676178 0.771912
0.127289 0.640167 0.684509
0.157593 0.656433 0.699097
0.194092 0.677979 0.719574
0.255585 0.711060 0.751678
0.406006 0.752625 0.788635
0.569244 0.777771 0.808044
0.677338 0.794556 0.824188
0.847656 0.797852 0.828857
0.969543 0.804535 0.837738
0.207062 0.748779 0.747711
0.239655 0.770477 0.766052
0.279388 0.796112 0.788116
0.338135 0.826782 0.814301
0.454254 0.864502 0.844330
0.523499 0.902313 0.868652
0.682709 0.913849 0.876556
0.836517 0.922699 0.885071
0.998871 0.944336 0.906769
0.278290 0.854095 0.807739
0.321259 0.888519 0.836182
0.318420 0.930511 0.866821
0.247009 0.970490 0.888885
0.378448 0.990692 0.906372
0.570709 0.994781 0.918213
0.727234 0.996765 0.925903
0.883820 0.998627 0.937378
1.000000 0.999756 0.966003
0.054565 0.117737 0.373901
0.074219 0.126038 0.385193
0.097351 0.139191 0.403564
0.133240 0.160126 0.432892
0.209686 0.195831 0.485504
0.388611 0.231476 0.519623
0.492645 0.230133 0.522827
0.555634 0.219360 0.506195
0.615479 0.216919 0.504120
0.045258 0.164185 0.404358
0.066101 0.173157 0.416016
0.087891 0.188080 0.435120
0.123657 0.210754 0.464081
0.206482 0.252075 0.518799
0.405029 0.301941 0.559509
0.522858 0.305725 0.572815
0.597198 0.299591 0.557922
0.656372 0.285156 0.547638
0.014801 0.231995 0.446564
0.035217 0.241364 0.457947
0.063660 0.257935 0.478058
0.106812 0.285461 0.511505
0.197510 0.327942 0.565918
0.408081 0.378082 0.629791
0.552551 0.397369 0.629364
0.638977 0.399170 0.621307
0.715515 0.398743 0.620880
0.012970 0.323303 0.510010
0.028992 0.339142 0.527405
0.060394 0.356506 0.547516
0.111877 0.382965 0.578430
0.210419 0.424469 0.628510
0.409302 0.465729 0.679901
0.586853 0.497772 0.684937
0.683624 0.504059 0.690796
0.763092 0.507599 0.688995
0.023712 0.435577 0.598358
0.049408 0.451752 0.615326
0.090027 0.467651 0.632660
0.146149 0.493683 0.660950
0.239441 0.531494 0.702179
0.433899 0.569885 0.742035
0.608551 0.591827 0.774597
0.742004 0.606537 0.765045
0.824707 0.610809 0.766205
0.074341 0.552277 0.681915
0.106598 0.565521 0.695282
0.144135 0.584137 0.715240
0.202454 0.612183 0.746185
0.346252 0.648590 0.783478
0.488464 0.678894 0.809052
0.621124 0.699066 0.834625
0.771729 0.715607 0.846466
0.868256 0.726379 0.838531
0.148865 0.658539 0.748535
0.178040 0.675354 0.764771
0.211975 0.696106 0.786224
0.266541 0.727142 0.818756
0.388489 0.767975 0.858459
0.515442 0.800385 0.888275
0.639557 0.821960 0.906006
0.781494 0.832642 0.912567
0.921967 0.843079 0.918701
0.218262 0.765594 0.814148
0.250854 0.788940 0.835388
0.288361 0.814911 0.859680
0.341156 0.846344 0.889252
0.376099 0.893341 0.933868
0.473480 0.934967 0.970123
0.665680 0.951477 0.980743
0.821350 0.958405 0.984070
0.976257 0.964966 0.991730
0.288147 0.875336 0.882904
0.308228 0.916351 0.919159
0.183960 0.966583 0.961029
0.097382 0.989716 0.987183
0.347809 0.993774 0.995300
0.554443 0.995758 0.998352
0.722290 0.997559 0.998871
0.875946 0.998993 0.999451
1.000000 0.999969 1.000000
