src/assets/luts/ON1 Nature & Wildlife LUTs/CinematicX LUTs - 30 Free Cinematic LUTs - The Resolve Store 2022/Deseado - Rec709.cube
# Copyright: (C) Copyright 2022 The Resolve Store 
# Cannot be resold, shared or otherwise redistributed
TITLE "CinematicX (Rec.709)"
LUT_3D_SIZE 5
0.000000 0.000000 0.000000
0.118195 0.008728 0.000183
0.355957 0.010223 0.000000
0.599701 0.013062 0.000000
0.875031 0.020874 0.000000
0.005035 0.094696 0.010223
0.183990 0.135223 0.002350
0.431976 0.172363 0.000305
0.676971 0.180145 0.000031
0.910706 0.206726 0.000000
0.157990 0.265686 0.006958
0.283722 0.322205 0.007050
0.482452 0.413177 0.004883
0.712006 0.460632 0.000122
0.929626 0.476746 0.000000
0.354340 0.488770 0.098755
0.457886 0.532196 0.061951
0.577667 0.645721 0.020599
0.785828 0.708405 0.005402
0.963287 0.771973 0.000061
0.482483 0.693115 0.269165
0.599670 0.737030 0.252167
0.708282 0.831848 0.178802
0.865051 0.963287 0.016327
0.995239 0.989624 0.016754
0.000061 0.007660 0.043030
0.091339 0.014130 0.076294
0.340057 0.000000 0.089996
0.588928 0.000000 0.104279
0.860687 0.000000 0.115387
0.001099 0.113953 0.113922
0.134369 0.147491 0.142273
0.447205 0.153961 0.139893
0.696472 0.108521 0.119293
0.928101 0.068695 0.044647
0.023895 0.260071 0.112610
0.226166 0.316162 0.114014
0.477539 0.429504 0.150452
0.726593 0.460571 0.159271
0.946564 0.463287 0.036896
0.243317 0.460846 0.172211
0.408112 0.519287 0.167877
0.565796 0.636047 0.132294
0.784668 0.720734 0.119568
0.968536 0.773224 0.036804
0.409637 0.688538 0.346649
0.558594 0.738800 0.341431
0.713348 0.822662 0.317932
0.856873 0.977570 0.090271
0.997955 0.993805 0.050140
0.000671 0.027710 0.158020
0.059937 0.037933 0.193787
0.248901 0.054749 0.204865
0.504913 0.032288 0.241669
0.799438 0.000061 0.277039
0.001465 0.140259 0.225952
0.029205 0.169586 0.273834
0.344238 0.195801 0.311859
0.602051 0.146088 0.303894
0.917786 0.040558 0.320099
0.006042 0.337006 0.339172
0.039429 0.396912 0.391754
0.455322 0.452332 0.434052
0.738159 0.461761 0.436432
0.999359 0.418518 0.358490
0.099030 0.527924 0.408356
0.229156 0.562286 0.419861
0.503357 0.604218 0.445404
0.764984 0.724854 0.479797
1.000000 0.769012 0.284485
0.280396 0.706055 0.469543
0.427673 0.759705 0.485992
0.656586 0.832428 0.517242
0.843842 0.982758 0.295319
1.000000 0.997284 0.453888
0.023346 0.062164 0.263550
0.073395 0.076660 0.293610
0.234802 0.100250 0.335266
0.412933 0.103516 0.330902
0.667694 0.128754 0.401672
0.002869 0.176392 0.330994
0.024841 0.203003 0.370636
0.270233 0.270966 0.467072
0.517792 0.248718 0.439911
0.758301 0.256622 0.478424
0.010437 0.377777 0.467468
0.036774 0.421661 0.515625
0.335724 0.508850 0.601685
0.659515 0.544159 0.616974
0.949921 0.486847 0.617584
0.114960 0.619904 0.616821
0.190796 0.657959 0.648132
0.434204 0.724701 0.701477
0.732391 0.742676 0.703033
0.999512 0.772308 0.730621
0.268097 0.814362 0.706360
0.373322 0.872772 0.745026
0.460999 0.933716 0.751404
0.746429 0.985382 0.776855
1.000000 0.999054 0.833588
0.054565 0.117737 0.373901
0.097351 0.139191 0.403564
0.209686 0.195831 0.485504
0.492645 0.230133 0.522827
0.615479 0.216919 0.504120
0.014801 0.231995 0.446564
0.063660 0.257935 0.478058
0.197510 0.327942 0.565918
0.552551 0.397369 0.629364
0.715515 0.398743 0.620880
0.023712 0.435577 0.598358
0.090027 0.467651 0.632660
0.239441 0.531494 0.702179
0.608551 0.591827 0.774597
0.824707 0.610809 0.766205
0.148865 0.658539 0.748535
0.211975 0.696106 0.786224
0.388489 0.767975 0.858459
0.639557 0.821960 0.906006
0.921967 0.843079 0.918701
0.288147 0.875336 0.882904
0.183960 0.966583 0.961029
0.347809 0.993774 0.995300
0.722290 0.997559 0.998871
1.000000 0.999969 1.000000
