src/assets/luts/ON1 Nature & Wildlife LUTs/CinematicX LUTs - 30 Free Cinematic LUTs - The Resolve Store 2022/Fajardo - Rec709.cube
# Copyright: (C) Copyright 2022 The Resolve Store 
# Cannot be resold, shared or otherwise redistributed
TITLE "CinematicX (Rec.709)"
LUT_3D_SIZE 9
0.000000 0.000000 0.000519
0.080597 0.017548 0.010529
0.176239 0.034210 0.018372
0.287994 0.046997 0.022644
0.400421 0.056763 0.026855
0.511566 0.066803 0.032288
0.623474 0.077759 0.036102
0.738190 0.093445 0.037598
0.854004 0.111115 0.036957
0.008026 0.061249 0.026215
0.087250 0.071198 0.025940
0.213898 0.095551 0.027405
0.331543 0.100647 0.025543
0.440704 0.110626 0.029572
0.548859 0.122375 0.033569
0.658630 0.137146 0.036407
0.770844 0.158630 0.036682
0.884247 0.183868 0.035675
0.014923 0.139252 0.069153
0.073639 0.158020 0.076599
0.227661 0.170685 0.056274
0.368774 0.203125 0.032471
0.484772 0.211945 0.035004
0.594879 0.217072 0.035828
0.698730 0.229828 0.036377
0.803619 0.246399 0.035309
0.908752 0.264221 0.032379
0.026215 0.231873 0.127747
0.053223 0.253021 0.141846
0.228027 0.268250 0.136108
0.396729 0.290558 0.088623
0.515839 0.323883 0.048431
0.622314 0.336731 0.040741
0.730804 0.343048 0.038727
0.838074 0.348114 0.034637
0.940826 0.358795 0.030029
0.088165 0.344971 0.203491
0.121002 0.364319 0.218414
0.257935 0.375916 0.212891
0.389679 0.355225 0.169128
0.539062 0.401276 0.126892
0.641785 0.436951 0.064240
0.749023 0.457184 0.043640
0.859436 0.465027 0.036499
0.969818 0.469757 0.029480
0.153503 0.463318 0.297485
0.183807 0.478027 0.309326
0.300995 0.481476 0.295349
0.430389 0.469543 0.263123
0.531769 0.454163 0.224792
0.647949 0.497986 0.173248
0.756012 0.541595 0.076385
0.874390 0.573975 0.042664
0.987183 0.589935 0.062744
0.201355 0.572174 0.388153
0.235748 0.581390 0.395081
0.343231 0.578400 0.375916
0.467499 0.573669 0.347168
0.537445 0.538239 0.296204
0.633850 0.542786 0.261536
0.750793 0.592346 0.175140
0.872681 0.649963 0.067963
0.990479 0.698486 0.132904
0.240509 0.658386 0.438629
0.262451 0.670044 0.445984
0.353333 0.671295 0.435120
0.469360 0.667084 0.407410
0.581848 0.649078 0.352997
0.637115 0.621490 0.301636
0.732178 0.632263 0.255005
0.862335 0.698944 0.122864
0.984924 0.775269 0.077240
0.281647 0.735138 0.453644
0.314148 0.747467 0.458557
0.356476 0.762970 0.462433
0.474182 0.763306 0.444244
0.591675 0.761566 0.393555
0.677399 0.742096 0.342194
0.747131 0.739594 0.284241
0.850616 0.766052 0.221039
0.941040 0.824463 0.339630
0.000000 0.013031 0.028412
0.048492 0.025543 0.062103
0.159821 0.031708 0.054382
0.272675 0.037964 0.056335
0.379883 0.036072 0.055359
0.486908 0.027527 0.055115
0.601898 0.025330 0.058533
0.735840 0.047699 0.065704
0.857544 0.068329 0.073578
0.000671 0.071167 0.069580
0.048889 0.088104 0.086090
0.209351 0.099091 0.080536
0.329346 0.097015 0.074982
0.439148 0.090942 0.064056
0.545959 0.087646 0.058716
0.660126 0.105499 0.060425
0.774872 0.131195 0.066528
0.890137 0.159851 0.068115
0.000885 0.137573 0.092133
0.026428 0.161133 0.111389
0.199463 0.174103 0.100861
0.373169 0.207336 0.088135
0.496674 0.203705 0.065765
0.602692 0.208588 0.064606
0.705933 0.219269 0.066010
0.811279 0.233795 0.067291
0.917297 0.250885 0.066711
0.004150 0.212708 0.122070
0.026001 0.239105 0.141693
0.182587 0.274567 0.156403
0.388306 0.292786 0.117493
0.521942 0.325867 0.070282
0.630951 0.335388 0.073334
0.740021 0.338654 0.074280
0.845337 0.343994 0.072937
0.947632 0.353821 0.069977
0.031799 0.322906 0.196564
0.084930 0.350433 0.216644
0.199036 0.381195 0.233002
0.367188 0.371429 0.198486
0.532715 0.403229 0.155975
0.645203 0.439178 0.084839
0.754700 0.457611 0.078033
0.865570 0.463684 0.078094
0.974976 0.466949 0.074036
0.124908 0.451233 0.296112
0.153748 0.471710 0.313721
0.257507 0.487122 0.318054
0.417145 0.486450 0.293091
0.511810 0.454681 0.242096
0.642059 0.499756 0.201080
0.758545 0.543854 0.096619
0.878998 0.574890 0.078888
0.988678 0.589447 0.116730
0.182404 0.566925 0.392761
0.202026 0.581879 0.405334
0.308777 0.584473 0.399780
0.429626 0.585632 0.375275
0.534607 0.553925 0.322601
0.621826 0.543549 0.279846
0.745056 0.594025 0.214172
0.875031 0.652191 0.095032
0.991455 0.700775 0.183594
0.218750 0.658600 0.451874
0.242157 0.671631 0.460754
0.316803 0.678833 0.460938
0.442627 0.676239 0.434235
0.570221 0.668549 0.385345
0.632690 0.630005 0.332428
0.722595 0.634552 0.284271
0.858093 0.701080 0.184235
0.985931 0.777771 0.135925
0.248535 0.736725 0.476990
0.288208 0.750244 0.483673
0.333466 0.766296 0.489807
0.447937 0.772247 0.473816
0.575378 0.771179 0.438629
0.675507 0.758514 0.381165
0.743500 0.748505 0.328003
0.844757 0.771088 0.269836
0.934601 0.830933 0.406281
0.000000 0.043610 0.087463
0.002502 0.062500 0.122437
0.111816 0.061493 0.126678
0.242523 0.053223 0.099457
0.352234 0.050079 0.105927
0.464996 0.039520 0.113586
0.575592 0.037323 0.133209
0.689758 0.041656 0.158264
0.804138 0.044983 0.178680
0.000000 0.092529 0.121429
0.011719 0.109253 0.142426
0.131561 0.119659 0.164917
0.296600 0.098846 0.128204
0.403992 0.095093 0.130981
0.508453 0.087860 0.137421
0.614960 0.079071 0.147430
0.727509 0.088409 0.167236
0.852478 0.122955 0.188995
0.003662 0.158752 0.153625
0.018219 0.176819 0.170593
0.141754 0.205383 0.196930
0.346649 0.217438 0.186737
0.481354 0.213226 0.176758
0.588623 0.213287 0.177032
0.692841 0.213409 0.179291
0.799774 0.214905 0.180267
0.906677 0.221832 0.176544
0.002899 0.236542 0.187958
0.021667 0.260773 0.206604
0.126099 0.300262 0.237885
0.317657 0.296356 0.208282
0.509857 0.339233 0.208038
0.630432 0.342804 0.200195
0.745056 0.336670 0.182068
0.852753 0.334869 0.160095
0.957092 0.336517 0.130432
0.014343 0.322296 0.231079
0.036987 0.348053 0.251190
0.102203 0.400299 0.294922
0.330933 0.416718 0.291046
0.493317 0.408997 0.247864
0.642548 0.449615 0.202026
0.764496 0.457947 0.149841
0.878632 0.458588 0.124634
0.982147 0.458374 0.125122
0.045807 0.415894 0.284302
0.066437 0.437500 0.299591
0.150940 0.494049 0.349762
0.340088 0.509674 0.348053
0.479645 0.474121 0.293701
0.625092 0.505066 0.266052
0.761841 0.550629 0.171417
0.889526 0.575500 0.118561
0.991089 0.589081 0.198730
0.115173 0.538635 0.377869
0.155365 0.559448 0.395416
0.203735 0.590332 0.421509
0.368347 0.595978 0.409149
0.526794 0.583862 0.362946
0.600220 0.546417 0.304321
0.736420 0.595795 0.252289
0.880371 0.656158 0.123322
0.992706 0.703796 0.241058
0.168243 0.647186 0.457245
0.195068 0.663055 0.468384
0.240326 0.683258 0.481995
0.390839 0.684387 0.469696
0.528778 0.683716 0.434143
0.626953 0.644318 0.370544
0.708405 0.637512 0.317352
0.849976 0.703339 0.244995
0.986267 0.781189 0.188660
0.222046 0.733704 0.496033
0.247314 0.747528 0.504517
0.285797 0.765533 0.513733
0.392761 0.780334 0.514618
0.544067 0.781586 0.486511
0.661102 0.783752 0.426056
0.739105 0.759155 0.375305
0.837036 0.777313 0.320038
0.932159 0.839691 0.461060
0.000000 0.076324 0.138031
0.000000 0.093994 0.170685
0.017639 0.103638 0.188324
0.185547 0.099579 0.184418
0.319519 0.083160 0.148346
0.423187 0.076294 0.157318
0.533569 0.066711 0.176544
0.648224 0.066772 0.211945
0.773468 0.071167 0.243774
0.000000 0.117004 0.163513
0.000000 0.133026 0.189453
0.024048 0.154724 0.221497
0.212585 0.142395 0.220734
0.349091 0.104797 0.163910
0.453949 0.102905 0.175446
0.566193 0.104034 0.197479
0.681213 0.112000 0.231049
0.812256 0.162231 0.280151
0.004608 0.185730 0.209076
0.014709 0.203400 0.231384
0.044281 0.237732 0.266022
0.244385 0.250488 0.282501
0.442780 0.222534 0.238617
0.549347 0.220001 0.249634
0.651520 0.225342 0.266388
0.757843 0.228943 0.282013
0.866272 0.259430 0.308594
0.009216 0.264587 0.252472
0.016449 0.275543 0.262482
0.055145 0.329437 0.311829
0.259674 0.360046 0.340607
0.456451 0.350861 0.316589
0.606689 0.354248 0.313538
0.716980 0.351166 0.311829
0.821808 0.352020 0.313721
0.922485 0.358673 0.317505
0.023590 0.353088 0.303192
0.041046 0.375000 0.320404
0.081726 0.427429 0.364471
0.274231 0.456970 0.388153
0.442688 0.425964 0.332153
0.615875 0.463379 0.337433
0.749329 0.471649 0.329346
0.866913 0.469574 0.316956
0.976349 0.462128 0.298462
0.057434 0.450623 0.362122
0.075531 0.470947 0.377502
0.113892 0.517731 0.415527
0.289581 0.543671 0.436371
0.447571 0.547333 0.418976
0.573334 0.506165 0.350433
0.745636 0.564362 0.330383
0.890106 0.583191 0.291382
0.989349 0.591309 0.320435
0.102539 0.549316 0.425507
0.112396 0.559540 0.432678
0.148315 0.600922 0.465637
0.305573 0.620972 0.479950
0.454865 0.627594 0.466309
0.583160 0.579681 0.398102
0.701874 0.602722 0.371338
0.874603 0.670135 0.311127
0.992432 0.710175 0.349335
0.148071 0.639069 0.475220
0.160706 0.649170 0.481110
0.192322 0.677795 0.501831
0.307770 0.698151 0.515045
0.468140 0.702789 0.500946
0.616638 0.699890 0.446136
0.689636 0.650909 0.388947
0.831085 0.710205 0.358704
0.984985 0.791443 0.319061
0.198303 0.724823 0.511200
0.223358 0.739624 0.520630
0.257111 0.759491 0.533112
0.318085 0.782043 0.545929
0.498566 0.789948 0.524902
0.636841 0.796173 0.482513
0.733765 0.772125 0.428253
0.828796 0.786041 0.375793
0.933990 0.851196 0.498596
0.000000 0.109528 0.187531
0.000000 0.123962 0.210022
0.007416 0.144806 0.242004
0.059204 0.147461 0.252777
0.260956 0.136322 0.231659
0.387665 0.119812 0.196899
0.487976 0.112396 0.208435
0.602356 0.107239 0.237366
0.719818 0.114899 0.285583
0.000000 0.148956 0.213715
0.000000 0.163025 0.233032
0.007721 0.191467 0.272583
0.097595 0.209595 0.298462
0.280487 0.161255 0.252930
0.410950 0.142334 0.212646
0.513550 0.136719 0.226135
0.629456 0.140472 0.258789
0.765564 0.195953 0.328949
0.001526 0.218170 0.261322
0.008423 0.231201 0.274933
0.023499 0.263580 0.311493
0.141998 0.307465 0.360413
0.363525 0.284912 0.334259
0.504364 0.253357 0.290588
0.600708 0.230927 0.296661
0.693634 0.212677 0.310242
0.820709 0.291382 0.378510
0.015656 0.295898 0.305389
0.023712 0.309448 0.319946
0.063568 0.366119 0.374634
0.160614 0.405212 0.414642
0.374451 0.411133 0.422119
0.550568 0.377838 0.378143
0.671631 0.365173 0.383392
0.773865 0.366119 0.399231
0.871338 0.387177 0.421814
0.037689 0.385864 0.362701
0.046417 0.397675 0.373322
0.073883 0.436584 0.408081
0.165527 0.496368 0.462769
0.391113 0.513367 0.480469
0.566010 0.472656 0.433197
0.703644 0.488861 0.448608
0.825745 0.481964 0.442078
0.930023 0.481781 0.441467
0.074127 0.485992 0.428711
0.082855 0.496155 0.436401
0.122742 0.548065 0.479340
0.230743 0.582672 0.508636
0.404938 0.590881 0.515717
0.555084 0.570953 0.466736
0.712280 0.574738 0.454773
0.864929 0.592377 0.451721
0.982025 0.593933 0.445740
0.113464 0.579529 0.485901
0.121826 0.588745 0.492523
0.154053 0.626801 0.522064
0.233185 0.652771 0.541809
0.416687 0.655945 0.543182
0.555603 0.654663 0.521545
0.667328 0.602600 0.441986
0.853363 0.679291 0.448029
0.989258 0.714874 0.463348
0.152649 0.662994 0.530762
0.164581 0.672699 0.537231
0.192963 0.696075 0.553619
0.226593 0.718719 0.570099
0.426849 0.722229 0.569397
0.571716 0.727905 0.554688
0.683685 0.686127 0.480286
0.806671 0.716248 0.461456
0.976227 0.801025 0.455688
0.191681 0.738312 0.560822
0.219025 0.754333 0.572754
0.250244 0.771271 0.583588
0.291168 0.793182 0.597168
0.449554 0.807159 0.597443
0.597229 0.818695 0.582764
0.723267 0.826660 0.533356
0.817200 0.811401 0.493195
0.945892 0.869476 0.513275
0.000000 0.146820 0.237518
0.000000 0.162384 0.257965
0.001007 0.189209 0.295044
0.026337 0.205170 0.316864
0.147186 0.197235 0.314575
0.334320 0.180176 0.279449
0.458069 0.170380 0.253143
0.564911 0.165741 0.271393
0.677032 0.163910 0.306244
0.000000 0.186401 0.263611
0.000000 0.200958 0.281189
0.000610 0.231964 0.320099
0.030426 0.266754 0.361267
0.192444 0.265717 0.366699
0.357941 0.207306 0.298889
0.481598 0.196808 0.272522
0.587982 0.189880 0.289551
0.719635 0.235107 0.352844
0.000916 0.252136 0.304657
0.007660 0.265991 0.319550
0.015167 0.295319 0.353577
0.065155 0.352966 0.413391
0.258087 0.378967 0.444122
0.453003 0.327545 0.385254
0.555145 0.289673 0.342987
0.637421 0.236115 0.328003
0.773621 0.329620 0.415405
0.024506 0.337555 0.365265
0.033630 0.352142 0.380280
0.048035 0.376221 0.402954
0.100128 0.446899 0.469025
0.300171 0.478027 0.505981
0.484772 0.447571 0.473907
0.611420 0.417877 0.434631
0.724182 0.392181 0.436584
0.818512 0.418549 0.471619
0.051208 0.419617 0.413055
0.060242 0.432495 0.425598
0.086548 0.470764 0.462799
0.137421 0.528931 0.517029
0.323639 0.562103 0.550629
0.497192 0.552704 0.543549
0.643646 0.505035 0.489471
0.763275 0.499908 0.505585
0.863678 0.507050 0.521820
0.088989 0.518707 0.480652
0.097900 0.530029 0.490479
0.108002 0.544952 0.503418
0.157654 0.611237 0.560303
0.339752 0.631622 0.582611
0.502686 0.629486 0.581848
0.657776 0.582062 0.532715
0.801727 0.603241 0.560547
0.918823 0.604279 0.564728
0.125397 0.611053 0.540771
0.133728 0.620758 0.548370
0.158905 0.651794 0.573120
0.191071 0.682281 0.598389
0.378876 0.687195 0.605988
0.518280 0.687714 0.604523
0.649567 0.670502 0.558716
0.826508 0.686920 0.564423
0.975098 0.715302 0.579376
0.159119 0.687012 0.580719
0.170868 0.696716 0.587769
0.198456 0.718719 0.604858
0.234161 0.744110 0.626556
0.396454 0.746429 0.629456
0.536407 0.751617 0.628906
0.671661 0.755005 0.602966
0.776917 0.718597 0.538971
0.962341 0.808044 0.579193
0.198761 0.761292 0.614197
0.223541 0.775085 0.624695
0.256927 0.794556 0.638702
0.295746 0.814789 0.653229
0.424561 0.828491 0.659332
0.572418 0.837311 0.656158
0.705231 0.848755 0.645538
0.804962 0.846436 0.603882
0.934052 0.875244 0.597748
0.000000 0.193665 0.293091
0.000000 0.209503 0.311340
0.000763 0.239685 0.345856
0.015015 0.283997 0.394989
0.084717 0.287720 0.409821
0.243774 0.267456 0.397888
0.425873 0.245117 0.342163
0.540741 0.246582 0.330536
0.648132 0.240967 0.351013
0.000000 0.231476 0.316437
0.000000 0.246185 0.332336
0.000854 0.276947 0.366547
0.020264 0.328186 0.420837
0.147003 0.361145 0.461395
0.275818 0.317108 0.431671
0.452667 0.276459 0.364777
0.561218 0.274536 0.352112
0.677094 0.291962 0.385620
0.001587 0.293030 0.353729
0.009827 0.308075 0.369202
0.021271 0.336670 0.399475
0.054321 0.388824 0.452698
0.192413 0.445068 0.513855
0.360718 0.441284 0.514984
0.525238 0.365204 0.431366
0.595184 0.316010 0.386658
0.727509 0.388062 0.451965
0.033600 0.373962 0.408112
0.042725 0.386932 0.420288
0.055511 0.410034 0.443542
0.086182 0.459625 0.493439
0.201324 0.521606 0.556702
0.411530 0.533020 0.571655
0.590668 0.478333 0.507599
0.667572 0.462555 0.491425
0.758606 0.470245 0.505890
0.067169 0.461426 0.470093
0.077576 0.475800 0.484100
0.100220 0.508850 0.517120
0.149200 0.572968 0.573181
0.206177 0.593414 0.594055
0.437103 0.609436 0.612823
0.579163 0.580841 0.586517
0.704559 0.539276 0.535980
0.790680 0.544708 0.554993
0.103241 0.552216 0.527466
0.112946 0.564484 0.538361
0.124420 0.581543 0.554565
0.171570 0.642120 0.608154
0.298126 0.664673 0.631866
0.450226 0.669647 0.641418
0.597626 0.653442 0.628845
0.737152 0.603607 0.579956
0.834778 0.618988 0.607758
0.136993 0.640381 0.584930
0.145172 0.650421 0.593475
0.154816 0.662842 0.604156
0.182037 0.692871 0.630402
0.242798 0.719269 0.655487
0.473724 0.722107 0.666443
0.610107 0.714233 0.660065
0.753876 0.684998 0.630096
0.902740 0.712799 0.671234
0.169159 0.714294 0.630859
0.181946 0.724426 0.639526
0.199432 0.737885 0.650574
0.247009 0.769806 0.678925
0.359253 0.779083 0.688690
0.516846 0.778168 0.691132
0.644348 0.778748 0.690460
0.754944 0.769318 0.663727
0.938141 0.812958 0.686798
0.206787 0.785187 0.665649
0.234436 0.802612 0.679810
0.268738 0.822937 0.696350
0.318604 0.841949 0.712067
0.422241 0.855835 0.723969
0.569550 0.858429 0.725800
0.680450 0.867188 0.727661
0.802246 0.879028 0.713898
0.912537 0.879028 0.693054
0.000000 0.247162 0.350220
0.000000 0.262085 0.365753
0.000793 0.294159 0.399200
0.007782 0.345612 0.453400
0.050598 0.384552 0.496063
0.233276 0.381531 0.502045
0.371857 0.362823 0.501984
0.537842 0.336792 0.429291
0.621368 0.339386 0.424377
0.000000 0.283691 0.372314
0.000000 0.297882 0.386566
0.004150 0.327454 0.416870
0.021637 0.381866 0.473297
0.085815 0.428436 0.520966
0.290741 0.454529 0.551331
0.393799 0.404480 0.529938
0.559631 0.366455 0.451233
0.641876 0.381470 0.454498
0.008240 0.341309 0.406891
0.019043 0.355194 0.420288
0.035461 0.382904 0.447937
0.061798 0.436096 0.502075
0.121735 0.489929 0.555817
0.336823 0.525391 0.596039
0.454254 0.499390 0.578857
0.595276 0.412872 0.487213
0.682770 0.462372 0.510437
0.045654 0.414185 0.453735
0.055664 0.429016 0.468262
0.070282 0.452881 0.492310
0.095306 0.496368 0.536652
0.155579 0.559662 0.596619
0.369904 0.593353 0.633972
0.502716 0.577698 0.622894
0.657806 0.519592 0.550171
0.717987 0.528656 0.551880
0.089630 0.512512 0.531555
0.099731 0.525238 0.542694
0.113281 0.544678 0.559998
0.131348 0.572723 0.585571
0.185364 0.633850 0.639801
0.385254 0.652527 0.663208
0.530914 0.643158 0.658691
0.664825 0.589447 0.606964
0.753174 0.581390 0.579895
0.124146 0.595215 0.582336
0.134064 0.607758 0.593719
0.146667 0.625763 0.611084
0.185852 0.672913 0.653778
0.212280 0.688477 0.670349
0.401123 0.707458 0.693268
0.553436 0.699615 0.691681
0.671387 0.671295 0.662933
0.782440 0.636047 0.624298
0.149536 0.669373 0.626556
0.158844 0.679657 0.635712
0.169983 0.692719 0.648315
0.196930 0.721344 0.676575
0.262726 0.754608 0.711151
0.462372 0.755920 0.722534
0.581482 0.753021 0.725494
0.705139 0.736115 0.710663
0.802002 0.700745 0.676758
0.182251 0.740662 0.675201
0.196899 0.751526 0.685333
0.213654 0.764252 0.697357
0.239319 0.779846 0.712402
0.353912 0.821686 0.755157
0.488373 0.817841 0.758514
0.624084 0.813751 0.762543
0.731720 0.806763 0.760284
0.859863 0.799866 0.758392
0.220612 0.820251 0.728241
0.259430 0.832825 0.739594
0.326355 0.855927 0.760681
0.400238 0.871674 0.776917
0.470642 0.883026 0.789978
0.573944 0.887421 0.796082
0.675262 0.889038 0.799347
0.783752 0.893250 0.802521
0.898865 0.893707 0.793915
0.000000 0.307709 0.411316
0.000000 0.323883 0.427368
0.004272 0.354492 0.457703
0.018738 0.395691 0.498993
0.083679 0.444641 0.543243
0.255280 0.487152 0.587067
0.383942 0.481262 0.585876
0.531097 0.444244 0.572205
0.630432 0.421906 0.512451
0.000000 0.340881 0.430328
0.005341 0.356537 0.445496
0.018036 0.385773 0.474121
0.046478 0.429840 0.517151
0.108704 0.482056 0.563507
0.279053 0.521576 0.607422
0.411926 0.519501 0.608704
0.536163 0.481384 0.597198
0.658234 0.466492 0.541382
0.026031 0.393372 0.461060
0.037140 0.407684 0.474487
0.055084 0.436676 0.502594
0.083771 0.483429 0.547913
0.140625 0.539551 0.599274
0.308044 0.572571 0.636810
0.447632 0.572723 0.640106
0.540344 0.553680 0.628998
0.689972 0.521698 0.570709
0.063751 0.462585 0.507690
0.074921 0.476898 0.521057
0.092316 0.503235 0.546326
0.117798 0.543854 0.585541
0.172058 0.605835 0.639801
0.328125 0.627106 0.666351
0.478302 0.628601 0.671326
0.581482 0.612213 0.654266
0.716492 0.570923 0.595123
0.107819 0.551575 0.572693
0.118591 0.565063 0.584473
0.132263 0.584198 0.601685
0.151367 0.614197 0.630371
0.196442 0.666473 0.676147
0.339600 0.681152 0.696136
0.501740 0.683167 0.703400
0.610321 0.669403 0.691559
0.733093 0.627075 0.648773
0.148560 0.641907 0.639038
0.158142 0.653290 0.649628
0.169739 0.668030 0.663879
0.197632 0.700165 0.691833
0.259521 0.734009 0.723083
0.361816 0.735931 0.732147
0.527283 0.733337 0.738159
0.638702 0.721985 0.732483
0.730194 0.689209 0.700562
0.169373 0.703461 0.674683
0.179688 0.714111 0.685364
0.192169 0.728668 0.701141
0.244598 0.754211 0.729736
0.361603 0.796509 0.777252
0.463898 0.787659 0.777283
0.568878 0.786530 0.784302
0.678253 0.777252 0.780823
0.767426 0.755005 0.759094
0.206787 0.769745 0.723541
0.232758 0.781982 0.735962
0.274017 0.796967 0.752502
0.314636 0.814545 0.773407
0.422821 0.852264 0.819153
0.493744 0.854889 0.830139
0.626678 0.850403 0.837738
0.724854 0.844055 0.837097
0.818329 0.827057 0.821289
0.284119 0.851898 0.787476
0.342804 0.871033 0.807495
0.404449 0.885101 0.824066
0.457214 0.890350 0.834595
0.521179 0.894592 0.846588
0.613617 0.901398 0.859070
0.702026 0.907684 0.869324
0.793274 0.912964 0.879272
0.884186 0.908691 0.876129
