src/assets/luts/ON1 Nature & Wildlife LUTs/CinematicX LUTs - 30 Free Cinematic LUTs - The Resolve Store 2022/Fajardo - Rec709.cube
# Copyright: (C) Copyright 2022 The Resolve Store 
# Cannot be resold, shared or otherwise redistributed
TITLE "CinematicX (Rec.709)"
LUT_3D_SIZE 5
0.000000 0.000000 0.000519
0.176239 0.034210 0.018372
0.400421 0.056763 0.026855
0.623474 0.077759 0.036102
0.854004 0.111115 0.036957
0.014923 0.139252 0.069153
0.227661 0.170685 0.056274
0.484772 0.211945 0.035004
0.698730 0.229828 0.036377
0.908752 0.264221 0.032379
0.088165 0.344971 0.203491
0.257935 0.375916 0.212891
0.539062 0.401276 0.126892
0.749023 0.457184 0.043640
0.969818 0.469757 0.029480
0.201355 0.572174 0.388153
0.343231 0.578400 0.375916
0.537445 0.538239 0.296204
0.750793 0.592346 0.175140
0.990479 0.698486 0.132904
0.281647 0.735138 0.453644
0.356476 0.762970 0.462433
0.591675 0.761566 0.393555
0.747131 0.739594 0.284241
0.941040 0.824463 0.339630
0.000000 0.043610 0.087463
0.111816 0.061493 0.126678
0.352234 0.050079 0.105927
0.575592 0.037323 0.133209
0.804138 0.044983 0.178680
0.003662 0.158752 0.153625
0.141754 0.205383 0.196930
0.481354 0.213226 0.176758
0.692841 0.213409 0.179291
0.906677 0.221832 0.176544
0.014343 0.322296 0.231079
0.102203 0.400299 0.294922
0.493317 0.408997 0.247864
0.764496 0.457947 0.149841
0.982147 0.458374 0.125122
0.115173 0.538635 0.377869
0.203735 0.590332 0.421509
0.526794 0.583862 0.362946
0.736420 0.595795 0.252289
0.992706 0.703796 0.241058
0.222046 0.733704 0.496033
0.285797 0.765533 0.513733
0.544067 0.781586 0.486511
0.739105 0.759155 0.375305
0.932159 0.839691 0.461060
0.000000 0.109528 0.187531
0.007416 0.144806 0.242004
0.260956 0.136322 0.231659
0.487976 0.112396 0.208435
0.719818 0.114899 0.285583
0.001526 0.218170 0.261322
0.023499 0.263580 0.311493
0.363525 0.284912 0.334259
0.600708 0.230927 0.296661
0.820709 0.291382 0.378510
0.037689 0.385864 0.362701
0.073883 0.436584 0.408081
0.391113 0.513367 0.480469
0.703644 0.488861 0.448608
0.930023 0.481781 0.441467
0.113464 0.579529 0.485901
0.154053 0.626801 0.522064
0.416687 0.655945 0.543182
0.667328 0.602600 0.441986
0.989258 0.714874 0.463348
0.191681 0.738312 0.560822
0.250244 0.771271 0.583588
0.449554 0.807159 0.597443
0.723267 0.826660 0.533356
0.945892 0.869476 0.513275
0.000000 0.193665 0.293091
0.000763 0.239685 0.345856
0.084717 0.287720 0.409821
0.425873 0.245117 0.342163
0.648132 0.240967 0.351013
0.001587 0.293030 0.353729
0.021271 0.336670 0.399475
0.192413 0.445068 0.513855
0.525238 0.365204 0.431366
0.727509 0.388062 0.451965
0.067169 0.461426 0.470093
0.100220 0.508850 0.517120
0.206177 0.593414 0.594055
0.579163 0.580841 0.586517
0.790680 0.544708 0.554993
0.136993 0.640381 0.584930
0.154816 0.662842 0.604156
0.242798 0.719269 0.655487
0.610107 0.714233 0.660065
0.902740 0.712799 0.671234
0.206787 0.785187 0.665649
0.268738 0.822937 0.696350
0.422241 0.855835 0.723969
0.680450 0.867188 0.727661
0.912537 0.879028 0.693054
0.000000 0.307709 0.411316
0.004272 0.354492 0.457703
0.083679 0.444641 0.543243
0.383942 0.481262 0.585876
0.630432 0.421906 0.512451
0.026031 0.393372 0.461060
0.055084 0.436676 0.502594
0.140625 0.539551 0.599274
0.447632 0.572723 0.640106
0.689972 0.521698 0.570709
0.107819 0.551575 0.572693
0.132263 0.584198 0.601685
0.196442 0.666473 0.676147
0.501740 0.683167 0.703400
0.733093 0.627075 0.648773
0.169373 0.703461 0.674683
0.192169 0.728668 0.701141
0.361603 0.796509 0.777252
0.568878 0.786530 0.784302
0.767426 0.755005 0.759094
0.284119 0.851898 0.787476
0.404449 0.885101 0.824066
0.521179 0.894592 0.846588
0.702026 0.907684 0.869324
0.884186 0.908691 0.876129
