src/assets/luts/ON1 Nature & Wildlife LUTs/CinematicX LUTs - 30 Free Cinematic LUTs - The Resolve Store 2022/Fajardo - Rec709.cube
# Copyright: (C) Copyright 2022 The Resolve Store 
# Cannot be resold, shared or otherwise redistributed
TITLE "CinematicX (Rec.709)"
LUT_3D_SIZE 33
0.000000 0.000000 0.000519
0.019104 0.004028 0.003754
0.037994 0.008179 0.005768
0.058350 0.012817 0.008087
0.080597 0.017548 0.010529
0.102783 0.022034 0.012451
0.125702 0.026001 0.013947
0.150543 0.030090 0.016174
0.176239 0.034210 0.018372
0.203247 0.038147 0.020264
0.231567 0.041626 0.020966
0.259674 0.044403 0.021881
0.287994 0.046997 0.022644
0.316528 0.049591 0.023315
0.344421 0.052338 0.024414
0.372375 0.054413 0.025391
0.400421 0.056763 0.026855
0.428192 0.059326 0.028473
0.455933 0.062073 0.029846
0.483490 0.063965 0.031006
0.511566 0.066803 0.032288
0.539459 0.069214 0.033356
0.567383 0.072144 0.034363
0.595276 0.074890 0.035248
0.623474 0.077759 0.036102
0.652344 0.081451 0.036835
0.681061 0.085297 0.037415
0.709656 0.089294 0.037628
0.738190 0.093445 0.037598
0.766937 0.097839 0.037598
0.796112 0.102325 0.037476
0.825043 0.106842 0.037292
0.854004 0.111115 0.036957
0.002808 0.012878 0.005707
0.017883 0.014038 0.006683
0.040009 0.018585 0.008942
0.062775 0.023926 0.010956
0.086670 0.028564 0.012604
0.110962 0.033417 0.014954
0.135956 0.037292 0.016174
0.160675 0.041077 0.018402
0.186890 0.044769 0.020721
0.214050 0.048340 0.022308
0.242004 0.051025 0.022705
0.271393 0.053955 0.022919
0.299957 0.056610 0.023132
0.327881 0.058929 0.023773
0.355621 0.061432 0.024597
0.383789 0.063721 0.025818
0.411835 0.066467 0.027100
0.439575 0.069458 0.028687
0.466766 0.072388 0.029968
0.494141 0.075012 0.031281
0.521759 0.078156 0.032349
0.549377 0.080963 0.033417
0.577209 0.084106 0.034485
0.605133 0.087616 0.035461
0.633362 0.091217 0.036316
0.661774 0.095551 0.037079
0.690063 0.100037 0.037445
0.718384 0.104492 0.037445
0.747101 0.109497 0.037567
0.775848 0.114655 0.037598
0.804596 0.119873 0.037384
0.833130 0.125031 0.037140
0.861816 0.129181 0.036804
0.005554 0.027710 0.011383
0.018127 0.030640 0.012756
0.036377 0.032410 0.014496
0.062469 0.036072 0.014069
0.088776 0.041534 0.015045
0.115601 0.047607 0.018188
0.142761 0.052185 0.019928
0.169922 0.054871 0.021210
0.196472 0.057678 0.022949
0.224152 0.060791 0.024017
0.252014 0.062927 0.024597
0.280640 0.064758 0.024445
0.308716 0.067474 0.024567
0.336731 0.069977 0.025055
0.364777 0.072540 0.025848
0.392853 0.074646 0.026459
0.420380 0.077332 0.028015
0.448273 0.080170 0.029327
0.475952 0.083252 0.030212
0.503204 0.086365 0.031464
0.530487 0.089569 0.032501
0.558441 0.093018 0.033600
0.586700 0.096619 0.034546
0.614502 0.100586 0.035522
0.642303 0.104828 0.036469
0.670593 0.109650 0.037109
0.699036 0.114899 0.037292
0.727173 0.119995 0.037231
0.755371 0.125397 0.037415
0.783966 0.130737 0.037537
0.812469 0.136536 0.037018
0.840790 0.142273 0.036835
0.869049 0.147675 0.036621
0.006409 0.044250 0.017609
0.017151 0.048157 0.019745
0.036835 0.051178 0.020782
0.059753 0.051575 0.020905
0.089233 0.054749 0.017456
0.119080 0.062836 0.020691
0.148163 0.069244 0.023285
0.176819 0.073395 0.024719
0.206177 0.074921 0.024689
0.235291 0.076843 0.024689
0.263214 0.078308 0.024872
0.291351 0.080383 0.024963
0.319275 0.082275 0.025299
0.347076 0.084717 0.025757
0.374634 0.087097 0.026581
0.402435 0.089447 0.027161
0.429840 0.092133 0.028900
0.457214 0.094788 0.030060
0.484344 0.097137 0.031128
0.511688 0.100250 0.032166
0.539093 0.103851 0.033142
0.566833 0.107300 0.034119
0.594482 0.110992 0.035004
0.622314 0.114716 0.035828
0.650848 0.119080 0.036530
0.679108 0.124420 0.036926
0.707367 0.130219 0.037109
0.735382 0.135895 0.037262
0.764038 0.141724 0.037201
0.792389 0.147308 0.037140
0.820831 0.153778 0.036774
0.848663 0.160095 0.036621
0.876648 0.165649 0.036346
0.008026 0.061249 0.026215
0.015594 0.066162 0.028168
0.032257 0.070221 0.029419
0.058502 0.071442 0.029083
0.087250 0.071198 0.025940
0.120178 0.077637 0.024078
0.152405 0.086212 0.026062
0.183380 0.092072 0.027100
0.213898 0.095551 0.027405
0.244080 0.097656 0.027039
0.274567 0.097687 0.025360
0.303741 0.098816 0.024902
0.331543 0.100647 0.025543
0.358826 0.102875 0.025970
0.386169 0.105133 0.026703
0.413605 0.107880 0.027771
0.440704 0.110626 0.029572
0.467743 0.113373 0.030914
0.494812 0.116119 0.031952
0.521790 0.119080 0.032715
0.548859 0.122375 0.033569
0.576080 0.125671 0.034607
0.603516 0.129303 0.035278
0.630981 0.133179 0.035736
0.658630 0.137146 0.036407
0.686310 0.141907 0.036804
0.714417 0.147125 0.036774
0.742737 0.152740 0.036713
0.770844 0.158630 0.036682
0.798889 0.164551 0.036591
0.827209 0.170868 0.036346
0.856171 0.177063 0.036102
0.884247 0.183868 0.035675
0.008606 0.079376 0.034912
0.013550 0.083801 0.037567
0.025787 0.088379 0.039246
0.056366 0.092102 0.039368
0.084595 0.092865 0.037994
0.119537 0.093719 0.031921
0.154541 0.102448 0.030792
0.188171 0.110474 0.030273
0.220673 0.116150 0.029480
0.251648 0.119659 0.029297
0.282349 0.122375 0.028809
0.313324 0.122772 0.026733
0.343414 0.122925 0.025940
0.371582 0.124451 0.026428
0.398834 0.126556 0.027039
0.426056 0.128784 0.028564
0.452881 0.131561 0.030243
0.479828 0.134247 0.031525
0.506531 0.137238 0.032562
0.533203 0.140533 0.033447
0.559845 0.143921 0.034271
0.586700 0.147400 0.034973
0.613831 0.150940 0.035828
0.640839 0.154846 0.036011
0.667969 0.158630 0.036407
0.695190 0.163055 0.036713
0.722687 0.167786 0.036499
0.750000 0.173126 0.036316
0.777954 0.178009 0.036438
0.805695 0.183685 0.036194
0.833618 0.189575 0.035553
0.861359 0.195496 0.035217
0.889130 0.201050 0.034790
0.008667 0.098358 0.045135
0.013916 0.102509 0.048218
0.020233 0.107330 0.050598
0.046692 0.112030 0.051483
0.083557 0.114868 0.051483
0.114960 0.114471 0.045471
0.153534 0.117828 0.039520
0.190704 0.128082 0.036926
0.225800 0.136292 0.034088
0.258545 0.141876 0.031738
0.290222 0.145996 0.030365
0.321442 0.148865 0.029449
0.352020 0.149872 0.028687
0.382233 0.150055 0.028381
0.411041 0.150604 0.028412
0.438354 0.152222 0.029816
0.465424 0.154663 0.031311
0.492065 0.157440 0.032288
0.518768 0.160431 0.033142
0.545258 0.163391 0.034149
0.571564 0.166687 0.034729
0.598206 0.170197 0.035706
0.624817 0.173737 0.036041
0.651550 0.177673 0.036285
0.678101 0.181549 0.036682
0.704712 0.185944 0.036377
0.731628 0.190399 0.036469
0.758636 0.195160 0.036285
0.785980 0.200043 0.035980
0.813293 0.205261 0.035675
0.840668 0.210388 0.035095
0.867981 0.215668 0.034546
0.894867 0.221100 0.033905
0.010803 0.118530 0.056946
0.016022 0.122681 0.060150
0.022339 0.126984 0.062561
0.039764 0.132111 0.064026
0.079681 0.136139 0.063690
0.111969 0.138977 0.064331
0.147369 0.134674 0.051697
0.189087 0.142761 0.047485
0.228302 0.155029 0.042480
0.264252 0.163300 0.036743
0.297852 0.169586 0.033417
0.329681 0.174072 0.031067
0.360352 0.176758 0.030609
0.390411 0.178680 0.030701
0.419403 0.180206 0.031616
0.448700 0.180115 0.031464
0.477173 0.180420 0.031860
0.504303 0.182648 0.032867
0.530884 0.185272 0.033936
0.557343 0.187958 0.034576
0.583527 0.191101 0.035614
0.609802 0.194275 0.036133
0.636078 0.197784 0.036224
0.662292 0.201416 0.036285
0.688385 0.205231 0.036591
0.714661 0.209351 0.036285
0.741241 0.213806 0.036163
0.767792 0.218292 0.035919
0.794586 0.223022 0.035645
0.821411 0.227905 0.035400
0.848267 0.232544 0.034485
0.875244 0.237183 0.033997
0.901886 0.242065 0.033234
0.014923 0.139252 0.069153
0.019379 0.143188 0.072021
0.024048 0.147552 0.074799
0.034119 0.152832 0.077240
0.073639 0.158020 0.076599
0.111572 0.161163 0.078186
0.144958 0.162201 0.073486
0.182312 0.159058 0.061615
0.227661 0.170685 0.056274
0.268311 0.183350 0.047455
0.304718 0.192139 0.039154
0.337830 0.198608 0.034821
0.368774 0.203125 0.032471
0.398621 0.206238 0.032684
0.427673 0.208771 0.033600
0.456299 0.210663 0.034607
0.484772 0.211945 0.035004
0.514099 0.211609 0.034637
0.542084 0.212402 0.034637
0.568848 0.214233 0.035095
0.594879 0.217072 0.035828
0.621094 0.219849 0.036194
0.647034 0.222961 0.036438
0.672882 0.226410 0.036560
0.698730 0.229828 0.036377
0.724731 0.233673 0.036163
0.750977 0.237701 0.036102
0.777313 0.241699 0.035889
0.803619 0.246399 0.035309
0.829987 0.250824 0.034851
0.856415 0.255035 0.033905
0.882721 0.259613 0.033142
0.908752 0.264221 0.032379
0.017975 0.160736 0.082031
0.022034 0.164673 0.084778
0.026459 0.168945 0.087769
0.032745 0.174316 0.091034
0.058960 0.180725 0.092072
0.107300 0.184265 0.091614
0.146484 0.187988 0.091766
0.179230 0.184631 0.082092
0.221161 0.184692 0.071289
0.269104 0.200592 0.064758
0.310150 0.213043 0.051422
0.345551 0.221802 0.042328
0.377380 0.228241 0.037384
0.407074 0.233154 0.036285
0.435852 0.236786 0.035553
0.464355 0.239471 0.036133
0.492737 0.241547 0.036682
0.521057 0.243042 0.037476
0.549042 0.244293 0.037598
0.577454 0.244385 0.037018
0.605164 0.244812 0.036285
0.631531 0.246765 0.036530
0.657410 0.249603 0.036682
0.683258 0.252563 0.036652
0.708923 0.255737 0.036377
0.734741 0.259125 0.036560
0.760773 0.262665 0.036163
0.786652 0.266479 0.035583
0.812653 0.270355 0.035187
0.838806 0.274323 0.034424
0.864868 0.278351 0.033691
0.890686 0.282501 0.032867
0.916626 0.286499 0.031677
0.020355 0.183746 0.095978
0.023987 0.187378 0.098572
0.028473 0.191895 0.101807
0.033661 0.197083 0.105377
0.053986 0.203735 0.107666
0.100555 0.208282 0.107056
0.146698 0.211609 0.107147
0.181488 0.214478 0.104706
0.217224 0.207336 0.089050
0.264648 0.214569 0.083252
0.312256 0.230988 0.072510
0.351929 0.242767 0.054810
0.385864 0.251648 0.045654
0.415985 0.258392 0.041809
0.444611 0.263458 0.039764
0.472443 0.267334 0.039246
0.500244 0.270294 0.038727
0.528198 0.272461 0.038849
0.556061 0.274261 0.038971
0.583496 0.276001 0.039154
0.611023 0.277039 0.038910
0.638824 0.277374 0.037903
0.666412 0.277863 0.036682
0.692719 0.280151 0.036835
0.718475 0.282837 0.036621
0.744263 0.285614 0.036530
0.770050 0.288696 0.036011
0.795746 0.291962 0.035553
0.821594 0.295380 0.034912
0.847382 0.299042 0.034271
0.873322 0.302460 0.033112
0.898895 0.306183 0.032166
0.924622 0.309875 0.031036
0.023010 0.207489 0.111481
0.026550 0.211243 0.114044
0.030731 0.215576 0.117126
0.035095 0.220825 0.120911
0.047424 0.227478 0.124695
0.099976 0.232910 0.123901
0.143616 0.236511 0.123444
0.187439 0.240051 0.122833
0.220673 0.240326 0.114594
0.257324 0.230377 0.098053
0.308990 0.245178 0.095093
0.354919 0.261169 0.080536
0.392883 0.272644 0.060089
0.424835 0.281555 0.050262
0.453613 0.288483 0.046326
0.480835 0.293762 0.044250
0.508026 0.297882 0.042572
0.535126 0.301147 0.040985
0.562347 0.303650 0.040222
0.589783 0.305634 0.040192
0.616913 0.307343 0.040161
0.643982 0.308960 0.039642
0.671265 0.310181 0.039337
0.699097 0.310822 0.038055
0.726379 0.311523 0.037109
0.752808 0.313141 0.036407
0.778564 0.315674 0.036041
0.804382 0.318390 0.035492
0.830139 0.321228 0.034729
0.855774 0.324341 0.033905
0.881500 0.327454 0.032928
0.907043 0.330688 0.031952
0.932648 0.333954 0.030273
0.026215 0.231873 0.127747
0.029846 0.236053 0.130676
0.033783 0.240387 0.133514
0.038086 0.246216 0.137756
0.053223 0.253021 0.141846
0.099945 0.258942 0.141937
0.143707 0.262573 0.140747
0.190186 0.265259 0.140839
0.228027 0.268250 0.136108
0.259247 0.260101 0.121674
0.303284 0.258850 0.110474
0.354187 0.275696 0.106781
0.396729 0.290558 0.088623
0.432648 0.302277 0.063995
0.462219 0.311310 0.056152
0.489471 0.318237 0.051819
0.515839 0.323883 0.048431
0.542175 0.328278 0.045715
0.568756 0.331940 0.043121
0.595520 0.334656 0.041870
0.622314 0.336731 0.040741
0.649292 0.338501 0.040436
0.676575 0.340118 0.040009
0.703644 0.341827 0.039795
0.730804 0.343048 0.038727
0.758423 0.343445 0.037262
0.785797 0.344208 0.036407
0.812195 0.345825 0.035400
0.838074 0.348114 0.034637
0.863831 0.350739 0.033783
0.889557 0.353180 0.032776
0.915070 0.355927 0.031219
0.940826 0.358795 0.030029
0.031158 0.258636 0.145294
0.034515 0.262238 0.147827
0.039734 0.267242 0.151337
0.052490 0.273010 0.154999
0.074707 0.279266 0.158295
0.106842 0.284912 0.160217
0.146057 0.288940 0.159485
0.192291 0.291412 0.158600
0.235046 0.294067 0.156891
0.267456 0.293060 0.146454
0.300018 0.280426 0.128540
0.349884 0.289520 0.123260
0.397980 0.306641 0.117340
0.436859 0.320038 0.096802
0.469666 0.331360 0.074341
0.497650 0.340240 0.062805
0.523743 0.347443 0.057068
0.549316 0.353302 0.052399
0.575043 0.358063 0.048370
0.601318 0.361847 0.045715
0.627747 0.365021 0.043091
0.654572 0.367432 0.041443
0.681427 0.369232 0.040588
0.708771 0.370911 0.040222
0.735840 0.372681 0.039429
0.762848 0.374207 0.038422
0.790100 0.375366 0.037598
0.817688 0.375885 0.036011
0.844818 0.376678 0.034485
0.871185 0.378113 0.033264
0.897095 0.380035 0.032135
0.922882 0.382233 0.031036
0.948914 0.384460 0.029755
0.037689 0.285431 0.163818
0.047546 0.289642 0.166473
0.062408 0.294769 0.169678
0.077820 0.300171 0.172882
0.087494 0.306915 0.178101
0.112915 0.312347 0.180115
0.153900 0.316101 0.178223
0.198212 0.318817 0.176819
0.243378 0.320953 0.175659
0.278625 0.322601 0.168396
0.306396 0.312683 0.152802
0.346283 0.307220 0.138794
0.395447 0.320923 0.136597
0.438232 0.336212 0.128723
0.473511 0.348389 0.105255
0.504395 0.359100 0.079315
0.530670 0.368164 0.069031
0.556061 0.375610 0.062195
0.581146 0.381866 0.056396
0.606781 0.387024 0.051636
0.632965 0.391388 0.047852
0.659607 0.394928 0.044434
0.686462 0.397705 0.041779
0.713654 0.399780 0.040680
0.740723 0.401459 0.039856
0.767883 0.403015 0.039185
0.794983 0.404724 0.038025
0.822144 0.406281 0.036652
0.849396 0.407379 0.035675
0.876709 0.407837 0.033813
0.903839 0.408386 0.032288
0.930237 0.409698 0.030884
0.956604 0.411377 0.029602
0.063019 0.314911 0.182709
0.073090 0.318695 0.185089
0.085663 0.323547 0.188385
0.093506 0.328857 0.192505
0.105499 0.335052 0.196960
0.127197 0.340759 0.199677
0.163788 0.344177 0.198212
0.205627 0.346771 0.195618
0.251923 0.348145 0.195679
0.292236 0.350647 0.188690
0.318848 0.346100 0.177460
0.348145 0.333038 0.159576
0.393097 0.335876 0.151154
0.437775 0.350647 0.150238
0.474915 0.364044 0.139893
0.507202 0.375397 0.116058
0.536652 0.385834 0.088867
0.562042 0.395050 0.075409
0.586731 0.402924 0.067383
0.611755 0.409607 0.060333
0.637634 0.415436 0.054657
0.664001 0.420380 0.049988
0.690796 0.424408 0.046021
0.717957 0.427612 0.042725
0.745270 0.430176 0.040497
0.772522 0.431824 0.039612
0.799683 0.433350 0.038269
0.827118 0.434875 0.037354
0.854340 0.436432 0.036041
0.881500 0.437866 0.034546
0.908813 0.438934 0.033173
0.936462 0.439209 0.031067
0.963745 0.439697 0.029236
0.088165 0.344971 0.203491
0.094940 0.348541 0.206207
0.102356 0.352875 0.209412
0.109253 0.358368 0.213959
0.121002 0.364319 0.218414
0.140533 0.369568 0.221100
0.178009 0.372070 0.218628
0.216400 0.374268 0.216034
0.257935 0.375916 0.212891
0.303650 0.376526 0.209625
0.332672 0.375183 0.198730
0.356354 0.364288 0.184662
0.389679 0.355225 0.169128
0.434387 0.364075 0.166260
0.473938 0.377930 0.164276
0.508331 0.390442 0.152435
0.539062 0.401276 0.126892
0.567200 0.411591 0.099121
0.591766 0.421143 0.081573
0.616302 0.429535 0.072052
0.641785 0.436951 0.064240
0.667725 0.443512 0.057373
0.694366 0.448975 0.051727
0.721527 0.453491 0.046997
0.749023 0.457184 0.043640
0.776825 0.460266 0.040558
0.804474 0.462250 0.038574
0.832031 0.463684 0.037689
0.859436 0.465027 0.036499
0.886963 0.466461 0.034851
0.914459 0.467896 0.033783
0.942139 0.469177 0.032074
0.969818 0.469757 0.029480
0.106354 0.374786 0.225739
0.112244 0.378265 0.228546
0.118439 0.382568 0.232208
0.126007 0.387695 0.236359
0.136536 0.392883 0.240295
0.155060 0.397827 0.243011
0.191833 0.399933 0.240082
0.228607 0.401764 0.236786
0.268127 0.402740 0.234192
0.312408 0.402985 0.229736
0.346344 0.401245 0.220001
0.369324 0.394806 0.208099
0.392151 0.382080 0.193787
0.431152 0.380371 0.181976
0.472015 0.390900 0.181335
0.507172 0.403900 0.179199
0.538940 0.415833 0.164978
0.568298 0.426361 0.138275
0.596039 0.436829 0.107880
0.620636 0.446655 0.087860
0.645264 0.455688 0.076965
0.670990 0.463745 0.067719
0.697296 0.470917 0.060059
0.724304 0.477081 0.053802
0.752045 0.482208 0.048309
0.780151 0.486481 0.044098
0.808319 0.490021 0.040314
0.836456 0.492615 0.037903
0.864441 0.494110 0.036285
0.892548 0.495392 0.034943
0.920624 0.496735 0.033630
0.948883 0.498108 0.031525
0.975830 0.499512 0.030121
0.123260 0.404785 0.249390
0.128571 0.408203 0.252228
0.134155 0.412170 0.255615
0.141754 0.417023 0.259644
0.150299 0.422333 0.264038
0.174591 0.425293 0.264313
0.207581 0.426971 0.261108
0.241089 0.428467 0.257568
0.277802 0.429535 0.252869
0.321533 0.429047 0.249664
0.359589 0.428589 0.241791
0.384552 0.423584 0.229645
0.402039 0.411011 0.217041
0.429138 0.401154 0.202393
0.469879 0.405884 0.195465
0.505066 0.416473 0.196075
0.537445 0.428802 0.193024
0.567322 0.440491 0.177856
0.596100 0.450958 0.150177
0.623627 0.461365 0.117279
0.648560 0.471588 0.093170
0.673370 0.481232 0.081360
0.699768 0.490021 0.071106
0.726501 0.497864 0.062866
0.754059 0.504761 0.055420
0.782349 0.510559 0.049438
0.810883 0.515442 0.044464
0.839966 0.519562 0.040405
0.868988 0.522888 0.036652
0.897919 0.524933 0.034637
0.926849 0.526215 0.033234
0.955353 0.527496 0.030609
0.980896 0.528809 0.032654
0.138977 0.434113 0.273315
0.143921 0.437408 0.276093
0.149445 0.441193 0.279266
0.156403 0.445892 0.283203
0.169250 0.450165 0.286133
0.188995 0.453400 0.287079
0.220551 0.453979 0.283264
0.255463 0.454773 0.278168
0.289154 0.455536 0.274414
0.326508 0.455505 0.269928
0.371674 0.453583 0.263641
0.398315 0.451080 0.252228
0.416107 0.441437 0.240356
0.433838 0.428406 0.226654
0.465088 0.424408 0.215729
0.502594 0.430573 0.209717
0.534790 0.440979 0.211090
0.565247 0.452850 0.207031
0.594360 0.464233 0.190430
0.622589 0.474854 0.161652
0.650208 0.485413 0.126587
0.675659 0.495941 0.097961
0.700928 0.506348 0.085358
0.728088 0.515839 0.074402
0.755432 0.524445 0.064636
0.783661 0.532135 0.056549
0.812683 0.538757 0.049805
0.842255 0.544525 0.044189
0.872162 0.549316 0.039093
0.902496 0.553223 0.035522
0.932587 0.555847 0.032684
0.961182 0.557281 0.029175
0.984406 0.558929 0.039825
0.153503 0.463318 0.297485
0.158295 0.466553 0.300293
0.163055 0.469757 0.302948
0.169952 0.474945 0.307343
0.183807 0.478027 0.309326
0.208923 0.479309 0.307800
0.238373 0.480164 0.304382
0.269073 0.480682 0.299408
0.300995 0.481476 0.295349
0.334747 0.481628 0.290985
0.376434 0.479950 0.285004
0.411652 0.477600 0.275482
0.430389 0.469543 0.263123
0.445129 0.457794 0.251038
0.465485 0.448395 0.238312
0.497162 0.447571 0.229340
0.531769 0.454163 0.224792
0.561676 0.464325 0.226196
0.591278 0.476044 0.220276
0.619843 0.487274 0.201813
0.647949 0.497986 0.173248
0.675964 0.508820 0.136139
0.702026 0.519989 0.104523
0.728088 0.531097 0.088348
0.756012 0.541595 0.076385
0.784515 0.551270 0.065247
0.813629 0.559875 0.056274
0.843567 0.567413 0.048859
0.874390 0.573975 0.042664
0.905457 0.579346 0.038208
0.936920 0.583679 0.033508
0.965973 0.586945 0.033569
0.987183 0.589935 0.062744
0.166962 0.492096 0.321503
0.171112 0.495453 0.324432
0.175232 0.498749 0.327240
0.184998 0.502350 0.329987
0.196716 0.505646 0.332336
0.221558 0.506714 0.331329
0.250549 0.506866 0.327698
0.283875 0.506256 0.320618
0.311279 0.507050 0.316528
0.343811 0.507172 0.311554
0.383301 0.505310 0.306305
0.419800 0.503021 0.298309
0.447388 0.499756 0.285339
0.459045 0.486420 0.273590
0.473450 0.475800 0.262115
0.495636 0.468414 0.249756
0.527161 0.469604 0.242188
0.559174 0.476807 0.238861
0.587341 0.486938 0.239288
0.616028 0.498627 0.231201
0.644348 0.509918 0.211060
0.673126 0.521057 0.180359
0.701874 0.532532 0.140259
0.728577 0.544434 0.106781
0.755432 0.556458 0.089233
0.784241 0.567963 0.076111
0.813812 0.578491 0.064484
0.844177 0.588043 0.054932
0.875427 0.596344 0.047272
0.907349 0.603638 0.041199
0.939545 0.609589 0.034668
0.968689 0.614624 0.041962
0.988922 0.620239 0.094788
0.179688 0.519989 0.344818
0.183167 0.523407 0.347748
0.185577 0.527161 0.351074
0.192841 0.530823 0.354065
0.211670 0.531830 0.354095
0.236023 0.532318 0.352722
0.266785 0.531067 0.347595
0.296295 0.531036 0.341797
0.323730 0.531433 0.336792
0.351898 0.531769 0.332275
0.386963 0.530304 0.327606
0.427338 0.527283 0.319550
0.457611 0.524170 0.308350
0.473724 0.514313 0.295502
0.486633 0.503387 0.283264
0.501099 0.493622 0.271698
0.525360 0.488831 0.259369
0.555786 0.491821 0.252960
0.585541 0.499207 0.249725
0.612671 0.509369 0.248260
0.640747 0.521088 0.237762
0.669250 0.532745 0.215698
0.698761 0.544464 0.182556
0.727936 0.556732 0.138885
0.755280 0.569458 0.106049
0.783203 0.582367 0.088135
0.812988 0.594788 0.074402
0.843964 0.606201 0.062469
0.875580 0.616516 0.053223
0.908112 0.625641 0.045349
0.940887 0.633453 0.036743
0.970062 0.640472 0.048981
0.989685 0.648224 0.118774
0.190765 0.547272 0.367737
0.193756 0.550201 0.370178
0.200378 0.552673 0.372253
0.211395 0.554871 0.373718
0.229340 0.556000 0.373901
0.252319 0.556366 0.372528
0.278168 0.555756 0.368713
0.308472 0.554749 0.362244
0.334229 0.555389 0.357117
0.361664 0.555389 0.352325
0.392670 0.554657 0.346375
0.429352 0.551971 0.340118
0.465698 0.549103 0.329224
0.487213 0.542175 0.316101
0.500214 0.531433 0.303406
0.512360 0.520050 0.290588
0.528656 0.513092 0.278961
0.553070 0.510254 0.266846
0.582550 0.514008 0.260468
0.610199 0.521393 0.256897
0.637146 0.531647 0.253601
0.665527 0.543427 0.241119
0.694672 0.555634 0.217468
0.724579 0.568207 0.180847
0.754639 0.581299 0.134308
0.782349 0.594727 0.102356
0.811432 0.608765 0.085541
0.842377 0.622009 0.071747
0.874908 0.634369 0.059998
0.907867 0.645569 0.050446
0.941223 0.655304 0.039612
0.970551 0.664276 0.052887
0.990143 0.674133 0.126556
0.201355 0.572174 0.388153
0.204102 0.575195 0.390839
0.209534 0.577759 0.392914
0.220734 0.579468 0.394043
0.235748 0.581390 0.395081
0.258148 0.580658 0.392914
0.293243 0.578125 0.386169
0.317932 0.578186 0.381470
0.343231 0.578400 0.375916
0.368927 0.578674 0.370605
0.398163 0.578094 0.364868
0.430908 0.576599 0.356781
0.467499 0.573669 0.347168
0.497772 0.569336 0.334229
0.513428 0.559143 0.320740
0.525024 0.548187 0.308044
0.537445 0.538239 0.296204
0.555389 0.533203 0.283661
0.579742 0.531555 0.272491
0.607147 0.535400 0.265747
0.633850 0.542786 0.261536
0.661560 0.553497 0.256653
0.690277 0.565765 0.242249
0.719940 0.578766 0.216187
0.750793 0.592346 0.175140
0.781189 0.606140 0.127625
0.810120 0.620758 0.097412
0.840393 0.635742 0.081757
0.872681 0.649963 0.067963
0.906799 0.663361 0.056183
0.940521 0.675140 0.044067
0.970398 0.686340 0.055969
0.990479 0.698486 0.132904
0.210541 0.595398 0.404999
0.213470 0.598419 0.407379
0.219330 0.600861 0.409119
0.228363 0.603088 0.410492
0.245392 0.604553 0.410767
0.265106 0.604584 0.409332
0.295563 0.602966 0.404694
0.324371 0.601807 0.398285
0.349365 0.601959 0.392609
0.375977 0.601898 0.386475
0.401428 0.601685 0.381256
0.431824 0.600494 0.374207
0.467255 0.597778 0.363403
0.501648 0.595398 0.351257
0.525269 0.586060 0.337585
0.537231 0.575073 0.323975
0.548676 0.564301 0.311523
0.562469 0.557800 0.299866
0.580933 0.553345 0.286743
0.604736 0.552673 0.276123
0.631653 0.556671 0.268188
0.657806 0.564209 0.263733
0.686096 0.575409 0.257202
0.715118 0.588562 0.240784
0.745483 0.602509 0.211609
0.777710 0.616943 0.166687
0.808929 0.631927 0.118256
0.838623 0.647614 0.091187
0.870209 0.663574 0.076447
0.903778 0.678986 0.063416
0.938599 0.693512 0.049622
0.969757 0.706909 0.060638
0.990662 0.720978 0.137909
0.220703 0.617554 0.418549
0.224457 0.620453 0.420654
0.229675 0.623260 0.422577
0.238373 0.625458 0.423798
0.251251 0.628052 0.424957
0.268311 0.628784 0.424347
0.297760 0.627106 0.419983
0.327271 0.625458 0.414062
0.353241 0.625122 0.407776
0.379608 0.624969 0.401154
0.406769 0.624481 0.395264
0.434357 0.623596 0.389801
0.467499 0.621307 0.379974
0.500732 0.618958 0.366730
0.531281 0.613678 0.352814
0.549255 0.602478 0.338989
0.560181 0.591064 0.326111
0.572327 0.582367 0.314087
0.586761 0.578217 0.302277
0.605713 0.574066 0.288300
0.629456 0.573914 0.276917
0.656158 0.578217 0.268219
0.682526 0.586151 0.263519
0.710724 0.597931 0.255585
0.740295 0.612030 0.237030
