src/assets/luts/ON1 Nature & Wildlife LUTs/CinematicX LUTs - 30 Free Cinematic LUTs - The Resolve Store 2022/Guayo - Rec709.cube
# Copyright: (C) Copyright 2022 The Resolve Store 
# Cannot be resold, shared or otherwise redistributed
TITLE "CinematicX (Rec.709)"
LUT_3D_SIZE 33
0.003540 0.003815 0.003265
0.016754 0.003967 0.002167
0.031799 0.004150 0.002533
0.050568 0.004272 0.002625
0.072540 0.004120 0.002594
0.099060 0.005432 0.004425
0.130768 0.007172 0.005829
0.166748 0.010315 0.007111
0.207123 0.013611 0.009399
0.250641 0.018158 0.012848
0.294647 0.024231 0.016754
0.334045 0.027283 0.020447
0.369934 0.028778 0.024139
0.402252 0.029388 0.027863
0.430725 0.031555 0.031250
0.456543 0.034515 0.034332
0.479736 0.035339 0.037476
0.501709 0.037048 0.040222
0.522858 0.036407 0.042694
0.544891 0.037140 0.045532
0.568237 0.038391 0.048615
0.592773 0.042725 0.051483
0.618347 0.052795 0.053619
0.644348 0.063293 0.055573
0.671021 0.075897 0.056885
0.698090 0.086884 0.057739
0.725494 0.098419 0.058136
0.753662 0.108856 0.057922
0.782318 0.119568 0.057007
0.811462 0.129730 0.055481
0.840088 0.140625 0.053192
0.869476 0.148865 0.050232
0.898773 0.156464 0.046539
0.005615 0.011475 0.004730
0.016388 0.011597 0.003174
0.032654 0.013550 0.002869
0.052673 0.014709 0.003448
0.076874 0.015198 0.003479
0.106842 0.015442 0.003326
0.139038 0.015930 0.003662
0.174896 0.019562 0.005371
0.216187 0.024200 0.007965
0.263092 0.028778 0.011719
0.306793 0.034576 0.015381
0.344269 0.038727 0.018677
0.377625 0.040375 0.022278
0.407837 0.041321 0.025787
0.435333 0.043488 0.029205
0.460449 0.046112 0.031952
0.484619 0.048920 0.034973
0.507446 0.050781 0.037750
0.529358 0.051208 0.040588
0.552002 0.051758 0.043671
0.575287 0.053619 0.046906
0.599182 0.058136 0.049652
0.624420 0.066681 0.051971
0.649872 0.076752 0.054047
0.675903 0.087921 0.055695
0.702637 0.098572 0.056702
0.729675 0.109772 0.057159
0.757385 0.120575 0.057098
0.785645 0.131500 0.056274
0.814056 0.142700 0.054840
0.842926 0.152893 0.052734
0.871826 0.162231 0.049713
0.900543 0.171082 0.046265
0.008636 0.019684 0.005280
0.018341 0.020325 0.004089
0.033844 0.022461 0.003693
0.053223 0.025513 0.003967
0.078003 0.028229 0.004059
0.107544 0.029053 0.003723
0.139587 0.029633 0.003418
0.173737 0.031525 0.003479
0.212311 0.035492 0.004547
0.256256 0.040619 0.007080
0.298981 0.045776 0.009644
0.338165 0.050354 0.012573
0.375183 0.054535 0.016357
0.408722 0.057434 0.020416
0.438263 0.059784 0.024048
0.464539 0.061371 0.027557
0.489441 0.062958 0.030823
0.513458 0.066101 0.033936
0.536865 0.068909 0.037048
0.559845 0.069855 0.040344
0.583435 0.072540 0.043671
0.607391 0.077820 0.046783
0.631531 0.083649 0.049255
0.656281 0.091309 0.051453
0.681702 0.100586 0.053345
0.707794 0.111450 0.054596
0.734650 0.121674 0.055359
0.761902 0.132568 0.055511
0.789429 0.144379 0.054840
0.817383 0.155914 0.053741
0.845703 0.166260 0.051819
0.874176 0.176270 0.049072
0.902679 0.185577 0.045654
0.013031 0.030579 0.004517
0.022247 0.031555 0.004211
0.036835 0.032471 0.003815
0.055237 0.036163 0.004120
0.078064 0.040253 0.004089
0.106354 0.044922 0.003876
0.135956 0.047607 0.003784
0.168304 0.050049 0.003601
0.203033 0.052307 0.003510
0.240234 0.055847 0.003937
0.278992 0.059174 0.004547
0.318878 0.063416 0.005829
0.358582 0.067810 0.007568
0.396454 0.072205 0.009674
0.431030 0.076385 0.012695
0.461823 0.079590 0.016022
0.490204 0.082367 0.019806
0.516724 0.085419 0.024109
0.541870 0.087311 0.028229
0.566467 0.089386 0.032227
0.591003 0.092072 0.036682
0.615112 0.095947 0.040619
0.639008 0.102020 0.043884
0.663361 0.108307 0.046906
0.688446 0.116608 0.049133
0.714050 0.126038 0.051117
0.740387 0.135895 0.052368
0.767029 0.146576 0.052887
0.794067 0.157745 0.052734
0.821472 0.169220 0.052002
0.849243 0.179779 0.050293
0.877319 0.190155 0.048065
0.905609 0.199951 0.044800
0.018066 0.041718 0.005157
0.027283 0.043793 0.005341
0.040314 0.045349 0.005524
0.057831 0.047150 0.005188
0.079193 0.051727 0.004578
0.107086 0.059082 0.004120
0.135223 0.066132 0.003967
0.166504 0.071564 0.003784
0.199982 0.075134 0.003510
0.232483 0.077972 0.003693
0.267578 0.081818 0.004181
0.305267 0.085358 0.004852
0.343536 0.089935 0.005615
0.382202 0.095001 0.006439
0.419586 0.099792 0.007629
0.453003 0.104462 0.008881
0.483704 0.107727 0.010132
0.512756 0.109772 0.011414
0.540771 0.110931 0.013092
0.568542 0.111542 0.014984
0.595612 0.113586 0.019836
0.621338 0.116852 0.026245
0.646179 0.120667 0.032562
0.670807 0.126312 0.037384
0.695709 0.133636 0.041412
0.720947 0.141968 0.044678
0.746643 0.151245 0.046997
0.772827 0.161102 0.048553
0.799622 0.171631 0.049255
0.826569 0.183105 0.049103
0.853790 0.194000 0.048035
0.881165 0.205048 0.045898
0.908630 0.221222 0.044403
0.024078 0.057434 0.003754
0.035095 0.058929 0.004150
0.045746 0.061157 0.004578
0.061615 0.062592 0.004852
0.082153 0.065125 0.004730
0.108551 0.071960 0.004669
0.136963 0.080963 0.004242
0.168518 0.089294 0.003815
0.201355 0.096588 0.003571
0.233490 0.101624 0.003784
0.266907 0.106506 0.004211
0.302979 0.110931 0.004761
0.340240 0.115479 0.005493
0.377502 0.121002 0.006348
0.414368 0.126862 0.007385
0.448730 0.133179 0.008392
0.480011 0.138428 0.009430
0.509674 0.142822 0.010468
0.539062 0.145508 0.011475
0.568054 0.148315 0.012482
0.596375 0.149139 0.013611
0.623444 0.149628 0.014648
0.649811 0.149902 0.016174
0.675690 0.151337 0.018707
0.701782 0.153625 0.022766
0.727539 0.159943 0.030487
0.753448 0.167786 0.036499
0.779388 0.176880 0.040375
0.805634 0.186859 0.043060
0.832031 0.197754 0.044128
0.858856 0.209167 0.044159
0.885742 0.221558 0.043243
0.912079 0.244690 0.045105
0.032867 0.073853 0.004456
0.044647 0.076416 0.004822
0.054474 0.079926 0.004791
0.069550 0.081757 0.005219
0.090057 0.083313 0.005310
0.114319 0.086884 0.004730
0.143616 0.096313 0.004883
0.175903 0.106537 0.004364
0.208496 0.115997 0.003998
0.241638 0.124786 0.004272
0.274445 0.131714 0.004486
0.308655 0.136749 0.004852
0.343933 0.141479 0.005615
0.378937 0.146973 0.006439
0.413330 0.152252 0.007385
0.446838 0.158691 0.008301
0.478882 0.164917 0.009430
0.509033 0.170319 0.010468
0.538513 0.175018 0.011475
0.567841 0.178894 0.012451
0.596863 0.182129 0.013428
0.624939 0.185150 0.014648
0.652527 0.188202 0.015625
0.679810 0.190186 0.016815
0.706482 0.192413 0.017822
0.732635 0.192688 0.018768
0.758606 0.195038 0.020660
0.784851 0.200134 0.025116
0.811310 0.206421 0.029297
0.837708 0.214325 0.033081
0.864075 0.225189 0.036224
0.890717 0.244110 0.041382
0.915863 0.267395 0.046326
0.042633 0.092590 0.003754
0.052887 0.095642 0.004242
0.065125 0.099457 0.004669
0.078094 0.102905 0.004913
0.097870 0.104980 0.005249
0.124237 0.106201 0.005920
0.151672 0.112122 0.006042
0.182831 0.123505 0.005188
0.215942 0.135010 0.004578
0.249359 0.145203 0.004639
0.283417 0.154510 0.004974
0.316681 0.162445 0.005432
0.349365 0.168701 0.005890
0.382324 0.173920 0.006683
0.414825 0.179413 0.007629
0.447571 0.184753 0.008362
0.479797 0.190826 0.009399
0.510925 0.196625 0.010437
0.540924 0.201721 0.011505
0.569794 0.206329 0.012451
0.598511 0.210693 0.013458
0.627014 0.214874 0.014557
0.655060 0.218903 0.015594
0.682922 0.222168 0.016754
0.710541 0.225861 0.017670
0.737640 0.229309 0.018677
0.764130 0.233124 0.019592
0.790619 0.236359 0.020599
0.817047 0.239899 0.021393
0.843109 0.243683 0.022308
0.869415 0.249634 0.024841
0.895416 0.270081 0.039886
0.919769 0.290405 0.047150
0.051971 0.112061 0.003876
0.061127 0.115509 0.004181
0.074005 0.119690 0.004425
0.086823 0.123932 0.004547
0.105591 0.128204 0.004944
0.130615 0.129883 0.005127
0.161194 0.132935 0.006073
0.190369 0.140656 0.006470
0.222260 0.152740 0.005463
0.256348 0.165039 0.005341
0.290894 0.176453 0.005798
0.325378 0.186005 0.006134
0.357880 0.194336 0.006561
0.388855 0.201172 0.007324
0.419464 0.207672 0.008148
0.450195 0.213196 0.008789
0.482025 0.218597 0.009674
0.513550 0.224091 0.010620
0.544067 0.229034 0.011658
0.573273 0.233368 0.012634
0.601898 0.237640 0.013672
0.630493 0.242340 0.014618
0.658966 0.246857 0.015686
0.686981 0.250916 0.016632
0.714752 0.255157 0.017639
0.742126 0.259552 0.018555
0.769257 0.263855 0.019470
0.796051 0.268250 0.020233
0.822693 0.273102 0.021118
0.848999 0.278168 0.021820
0.875519 0.283783 0.023621
0.900330 0.297363 0.039673
0.923920 0.313873 0.048065
0.060425 0.132202 0.004211
0.070068 0.135803 0.004364
0.082336 0.140045 0.004700
0.096283 0.145081 0.004974
0.112701 0.150513 0.005249
0.136322 0.155426 0.005432
0.167114 0.158661 0.006104
0.199829 0.161987 0.006531
0.229553 0.170807 0.006805
0.263916 0.184265 0.006195
0.298523 0.197693 0.006836
0.332977 0.209320 0.007172
0.366272 0.219208 0.007660
0.397614 0.227509 0.008362
0.428040 0.235077 0.009003
0.457489 0.241608 0.009766
0.487030 0.247803 0.010468
0.517212 0.253479 0.011322
0.547791 0.258087 0.012146
0.577454 0.262177 0.013000
0.606476 0.265808 0.013855
0.635315 0.270020 0.014832
0.663818 0.274628 0.015839
0.692078 0.278870 0.016724
0.719788 0.283173 0.017548
0.747437 0.287537 0.018463
0.774902 0.291931 0.019226
0.801727 0.296753 0.019989
0.828400 0.301666 0.020813
0.854919 0.306793 0.021515
0.881104 0.312531 0.023865
0.905518 0.324371 0.040283
0.928375 0.337616 0.048950
0.067627 0.154022 0.004669
0.078766 0.158051 0.004913
0.090820 0.162537 0.005219
0.106232 0.167816 0.005493
0.122375 0.174164 0.005859
0.142975 0.181122 0.006073
0.171692 0.186829 0.006531
0.205017 0.189392 0.007385
0.238831 0.193268 0.007477
0.271484 0.203430 0.007446
0.305725 0.217468 0.007935
0.340729 0.231567 0.008453
0.374451 0.243439 0.009094
0.406769 0.253784 0.009644
0.437500 0.262665 0.010345
0.467316 0.270081 0.011078
0.496307 0.276337 0.011719
0.525238 0.282379 0.012421
0.554016 0.287964 0.013123
0.582855 0.292389 0.013794
0.611847 0.295715 0.014465
0.640839 0.299438 0.015228
0.669495 0.303406 0.015991
0.697784 0.307526 0.016815
0.725708 0.311462 0.017548
0.753296 0.315430 0.018280
0.780670 0.319733 0.019012
0.807831 0.324036 0.019714
0.834747 0.328705 0.020508
0.861145 0.333588 0.021149
0.887177 0.339294 0.024689
0.910828 0.349915 0.041595
0.933411 0.361450 0.050018
0.075348 0.177216 0.004974
0.087494 0.181885 0.005432
0.099884 0.186859 0.005676
0.115143 0.192169 0.006012
0.132019 0.198700 0.006348
0.151215 0.207062 0.006744
0.177490 0.215790 0.007172
0.207886 0.220734 0.007935
0.243225 0.222473 0.009003
0.279541 0.226715 0.009247
0.313629 0.237579 0.009399
0.347992 0.252075 0.009888
0.382324 0.266663 0.010956
0.415070 0.279388 0.011627
0.446442 0.290070 0.012207
0.476562 0.298615 0.012970
0.505920 0.305725 0.013458
0.534790 0.311615 0.013916
0.563171 0.316803 0.014435
0.591309 0.321472 0.014893
0.619019 0.325958 0.015472
0.647156 0.330048 0.016052
0.675446 0.333832 0.016663
0.703827 0.337097 0.017242
0.731812 0.340515 0.017853
0.759521 0.344055 0.018494
0.786835 0.347809 0.019104
0.813995 0.351746 0.019684
0.840820 0.356110 0.020233
0.867279 0.360565 0.020721
0.893219 0.365845 0.025726
0.916290 0.375458 0.043335
0.938599 0.385803 0.051392
0.084473 0.202545 0.005280
0.096497 0.207520 0.005737
0.109985 0.212952 0.006195
0.124268 0.218658 0.006500
0.141815 0.225647 0.006836
0.162140 0.234833 0.007385
0.186279 0.245178 0.008118
0.214630 0.253143 0.009247
0.246887 0.256714 0.009918
0.284821 0.258240 0.011261
0.322266 0.262878 0.012146
0.356750 0.273651 0.011871
0.390533 0.288879 0.013031
0.423431 0.303925 0.014130
0.454987 0.316620 0.014893
0.485504 0.326599 0.015594
0.515228 0.334686 0.015930
0.544312 0.341339 0.016144
0.572845 0.346680 0.016418
0.601013 0.351074 0.016632
0.628632 0.354919 0.016724
0.655640 0.359161 0.017151
0.682617 0.363586 0.017609
0.709747 0.367401 0.017792
0.737549 0.370392 0.018188
0.765350 0.373352 0.018677
0.792755 0.376648 0.019073
0.819794 0.380096 0.019531
0.846680 0.383881 0.019928
0.873138 0.387909 0.020264
0.898926 0.392792 0.026672
0.921539 0.401520 0.045074
0.943604 0.410950 0.053101
0.093689 0.229828 0.005859
0.105377 0.234833 0.006165
0.119965 0.241180 0.006683
0.135315 0.247955 0.007172
0.153748 0.255859 0.007568
0.174683 0.265656 0.008331
0.199158 0.276733 0.009430
0.226166 0.287079 0.010925
0.256653 0.293701 0.011963
0.291229 0.296356 0.012939
0.328522 0.297852 0.015076
0.365601 0.301697 0.015778
0.400024 0.311981 0.015686
0.432159 0.327118 0.016876
0.463562 0.341522 0.018066
0.494019 0.353180 0.018585
0.523987 0.362793 0.019043
0.553223 0.370422 0.019073
0.581787 0.376343 0.019043
0.610199 0.380981 0.018890
0.637939 0.384735 0.018646
0.664856 0.388367 0.018585
0.691101 0.392426 0.018829
0.717468 0.396301 0.018799
0.743683 0.399963 0.018951
0.770538 0.403229 0.019196
0.797791 0.406067 0.019440
0.824951 0.409119 0.019623
0.851837 0.412354 0.019867
0.878418 0.415833 0.020050
0.904175 0.420258 0.027527
0.926514 0.428223 0.046936
0.948364 0.436676 0.054626
0.104187 0.261475 0.006622
0.116241 0.267029 0.007050
0.132507 0.274261 0.007721
0.149597 0.281982 0.008423
0.168732 0.290405 0.009094
0.190887 0.300140 0.010162
0.215332 0.311340 0.011383
0.242493 0.322815 0.013214
0.271240 0.332489 0.015076
0.301575 0.336914 0.016846
0.334412 0.338043 0.018616
0.370392 0.338470 0.020203
0.406158 0.341675 0.021118
0.440155 0.350525 0.020538
0.471497 0.364319 0.021576
0.501617 0.377655 0.022552
0.531281 0.388824 0.022614
0.560608 0.397858 0.022491
0.589630 0.404999 0.022186
0.618195 0.410309 0.021637
0.646271 0.414307 0.021057
0.673431 0.418091 0.020660
0.699585 0.421692 0.020538
0.725525 0.425049 0.020233
0.751373 0.428467 0.020050
0.776978 0.432068 0.020050
0.802917 0.435547 0.020050
0.829437 0.438507 0.019989
0.856384 0.441284 0.020020
0.883057 0.444336 0.020050
0.908722 0.448364 0.028442
0.930695 0.455750 0.049072
0.952393 0.463348 0.056244
0.118469 0.299133 0.008057
0.132782 0.305389 0.008698
0.148773 0.312164 0.009369
0.167206 0.319550 0.010345
0.186584 0.327087 0.011383
0.208679 0.336029 0.012665
0.232605 0.345612 0.014343
0.258545 0.356476 0.016571
0.286499 0.367371 0.019135
0.313873 0.374908 0.021912
0.342529 0.377289 0.023804
0.374084 0.377594 0.025299
0.408508 0.378052 0.027039
0.443176 0.380951 0.027649
0.476837 0.388062 0.026245
0.508331 0.400177 0.026764
0.538055 0.413147 0.027161
0.567200 0.423767 0.026611
0.596161 0.432129 0.026031
0.624908 0.438446 0.025177
0.653229 0.442963 0.024200
0.680511 0.447083 0.023407
0.707062 0.450958 0.022705
0.733063 0.454315 0.021973
0.758667 0.457336 0.021484
0.784058 0.460419 0.021088
0.809448 0.463745 0.020996
0.834839 0.467224 0.020752
0.860565 0.470490 0.020538
0.886932 0.473419 0.020325
0.912567 0.476990 0.029968
0.934387 0.483704 0.051239
0.956055 0.490570 0.057983
0.137329 0.337708 0.010162
0.152832 0.344208 0.011292
0.169342 0.350739 0.012390
0.187164 0.357025 0.013458
0.206299 0.363434 0.014954
0.227661 0.370819 0.016541
0.250519 0.379486 0.018524
0.275055 0.388794 0.021057
0.301422 0.398895 0.024445
0.328491 0.407349 0.027893
0.354523 0.412445 0.030365
0.382111 0.414246 0.032440
0.412262 0.414886 0.033936
0.444794 0.415833 0.035217
0.477997 0.418610 0.035461
0.510437 0.426422 0.033356
0.542969 0.436615 0.032623
0.573212 0.447998 0.031860
0.602173 0.457642 0.030853
0.630707 0.465088 0.029633
0.659088 0.470642 0.028076
0.686615 0.475433 0.026764
0.713287 0.479706 0.025635
0.739471 0.483337 0.024536
0.765198 0.486603 0.023621
0.790466 0.489410 0.022858
0.815582 0.492401 0.022186
0.840759 0.495544 0.021759
0.865936 0.498688 0.021301
0.891266 0.502014 0.020844
0.915894 0.506012 0.031891
0.937622 0.512085 0.053345
0.959473 0.518250 0.059814
0.157043 0.373718 0.013489
0.172974 0.380371 0.015045
0.190399 0.387207 0.016693
0.208588 0.393341 0.018158
0.227783 0.399170 0.020233
0.248077 0.405182 0.022156
0.269958 0.412384 0.024384
0.293640 0.420746 0.027466
0.318207 0.429321 0.031372
0.343811 0.437805 0.035339
0.369354 0.444122 0.038452
0.393433 0.448120 0.041321
0.420502 0.449921 0.043121
0.448853 0.450714 0.044128
0.479095 0.451874 0.044342
0.510315 0.456482 0.044556
0.542145 0.463928 0.041840
0.574738 0.472839 0.039459
0.606903 0.481720 0.036713
0.635956 0.490204 0.034821
0.664276 0.496918 0.032928
0.691895 0.502869 0.030975
0.718628 0.507843 0.029236
0.744995 0.511902 0.027710
0.770782 0.515350 0.026276
0.796204 0.518463 0.025055
0.821350 0.521332 0.024017
0.846161 0.524139 0.023163
0.871124 0.527222 0.022400
0.896271 0.530273 0.022003
0.919769 0.534546 0.037323
0.940613 0.540680 0.056885
0.962524 0.546326 0.061890
0.178467 0.407440 0.018585
0.194702 0.414062 0.020325
0.212799 0.421051 0.022583
0.231140 0.427490 0.024872
0.250488 0.433105 0.027344
0.270538 0.438690 0.029968
0.292023 0.444794 0.032684
0.314423 0.452118 0.036102
0.337799 0.459686 0.040375
0.361084 0.467377 0.044861
0.384949 0.474091 0.048645
0.408295 0.479004 0.052155
0.431519 0.482269 0.054565
0.457153 0.483643 0.055634
0.483215 0.484741 0.055328
0.511230 0.487274 0.054626
0.541473 0.492188 0.053802
0.573090 0.499298 0.050659
0.605255 0.507843 0.046204
0.638458 0.515015 0.041656
0.669159 0.521667 0.038422
0.696686 0.528870 0.036133
0.723541 0.535065 0.033722
0.749847 0.539856 0.031616
0.775635 0.543732 0.029663
0.801056 0.547089 0.027954
0.826233 0.550110 0.026428
0.851288 0.553070 0.024994
0.876160 0.555847 0.023804
0.901001 0.558777 0.023560
0.923401 0.563232 0.042786
0.943359 0.569397 0.063385
0.965271 0.574677 0.065186
0.201660 0.439148 0.025238
0.217468 0.445221 0.027679
0.235718 0.451843 0.030640
0.254059 0.458069 0.033478
0.273682 0.464172 0.036560
0.293732 0.469971 0.040039
0.315125 0.476166 0.043640
0.337006 0.482758 0.047516
0.358643 0.489655 0.051849
0.380157 0.496246 0.056396
0.401886 0.502625 0.060791
0.423889 0.507904 0.064575
0.445801 0.511902 0.067383
0.467834 0.514496 0.068939
0.491516 0.515656 0.068451
0.515717 0.517090 0.066589
0.542755 0.520355 0.064697
0.572174 0.525543 0.062836
0.602692 0.533295 0.058929
0.634674 0.541443 0.052979
0.668243 0.547424 0.046783
0.700165 0.553589 0.042297
0.727631 0.560791 0.039246
0.754028 0.566833 0.036438
0.779877 0.571564 0.033966
0.805359 0.575348 0.031494
0.830719 0.578644 0.029266
0.855743 0.581665 0.027313
0.880676 0.584534 0.025543
0.905212 0.587555 0.028809
0.926483 0.592285 0.049561
0.945709 0.598297 0.068878
0.967590 0.603241 0.068665
0.226898 0.468964 0.034882
0.242065 0.474487 0.037415
0.259094 0.480316 0.040741
0.277191 0.486206 0.044128
0.296326 0.492279 0.047607
0.316864 0.498688 0.051849
0.337250 0.505188 0.056274
0.358643 0.511780 0.060822
0.379547 0.518341 0.065460
0.400208 0.524506 0.070068
0.420105 0.530090 0.074341
0.439972 0.535156 0.078033
0.460297 0.539368 0.080994
0.480560 0.542480 0.082794
0.500916 0.544708 0.082764
0.523163 0.545990 0.080750
0.546631 0.547882 0.077637
0.573090 0.551392 0.074219
0.601440 0.557434 0.071472
0.631256 0.565430 0.067505
0.662964 0.573395 0.059387
0.696533 0.579956 0.052124
0.729431 0.585785 0.046082
0.757660 0.592407 0.042023
0.783783 0.598267 0.038727
0.809509 0.602905 0.035522
0.834839 0.606689 0.032501
0.859955 0.609955 0.029877
0.884979 0.613068 0.027466
0.908600 0.616455 0.036865
0.928711 0.621582 0.061584
0.947815 0.627350 0.073517
0.969727 0.632050 0.071838
0.253204 0.497314 0.046692
0.268219 0.502686 0.049622
0.284149 0.508118 0.052917
0.301392 0.513641 0.056702
0.319458 0.519501 0.060883
0.339233 0.525757 0.065430
0.358826 0.532074 0.070160
0.378906 0.538391 0.075073
0.399628 0.544769 0.080048
0.419098 0.550720 0.084747
0.437714 0.555908 0.088867
0.456177 0.560699 0.092407
0.474701 0.564911 0.095215
0.493378 0.568085 0.096863
0.512085 0.570679 0.097015
0.531555 0.572937 0.095734
0.553253 0.574463 0.092102
0.576294 0.576782 0.087616
0.601776 0.580963 0.083038
0.629425 0.587677 0.079102
0.658875 0.596039 0.074371
0.690430 0.605042 0.066223
0.724274 0.612000 0.057068
0.757690 0.617798 0.049438
0.787201 0.623596 0.043976
0.813232 0.629425 0.039886
0.838898 0.634125 0.036194
0.864014 0.637939 0.032898
0.888947 0.641449 0.029968
0.912109 0.645203 0.040802
0.930878 0.650696 0.069489
0.949860 0.656311 0.077576
0.971680 0.660919 0.074615
0.279694 0.525299 0.060547
0.294403 0.530212 0.063782
0.309906 0.535400 0.067352
0.326019 0.540405 0.071320
0.343170 0.545837 0.075745
0.360962 0.551483 0.080505
0.379517 0.557251 0.085236
0.398438 0.563171 0.090240
0.417725 0.569153 0.095184
0.436676 0.574890 0.099854
0.454163 0.580078 0.103790
0.471497 0.584564 0.107269
0.488831 0.588684 0.109955
0.506195 0.592010 0.111389
0.523987 0.594666 0.111450
0.541687 0.597443 0.110382
0.560822 0.599792 0.107574
0.582092 0.601501 0.102417
0.604492 0.604248 0.096405
0.629059 0.609314 0.090668
0.656281 0.617004 0.086090
0.685577 0.626862 0.080902
0.717255 0.636597 0.072296
0.751404 0.643921 0.060760
0.785980 0.649353 0.051422
0.816315 0.654846 0.044891
0.842499 0.660614 0.040436
0.867828 0.665344 0.036346
0.892731 0.669434 0.033539
0.915283 0.673767 0.047699
0.933044 0.679626 0.075531
0.952057 0.685089 0.081207
0.973969 0.689697 0.077301
0.307465 0.552582 0.076843
0.320465 0.556854 0.080170
0.334686 0.561584 0.083923
0.349731 0.566040 0.087585
0.365631 0.570679 0.091827
0.382141 0.575684 0.096375
0.399414 0.580963 0.101227
0.416840 0.586395 0.106140
0.434479 0.591919 0.110870
0.452332 0.597412 0.115448
0.469360 0.602386 0.119476
0.485992 0.606964 0.122772
0.502533 0.611053 0.125244
0.519257 0.614594 0.126556
0.535706 0.617676 0.126556
0.552704 0.620544 0.125336
0.569763 0.623535 0.123260
0.588562 0.625946 0.118927
0.609253 0.627899 0.112061
0.630829 0.631348 0.104980
0.654877 0.637512 0.098633
0.682037 0.647003 0.093170
0.712006 0.657837 0.087158
0.744141 0.667847 0.076599
0.778442 0.675537 0.063416
0.813812 0.680908 0.052643
0.845093 0.686157 0.045349
0.871277 0.691895 0.040344
0.896210 0.696869 0.037323
0.918091 0.701904 0.054901
0.935425 0.708099 0.079773
0.954376 0.713745 0.083771
0.976593 0.718414 0.079132
0.333771 0.578186 0.094666
0.345459 0.581879 0.097839
0.358215 0.585876 0.101379
0.372040 0.589874 0.105103
0.386566 0.594116 0.109131
0.401825 0.598572 0.113464
0.418030 0.603210 0.117889
0.434235 0.608063 0.122528
0.450439 0.613098 0.126892
0.466858 0.618225 0.131073
0.483490 0.623230 0.135162
0.499420 0.628021 0.138580
0.515289 0.632446 0.140991
0.531281 0.636292 0.142273
0.547363 0.639679 0.142303
0.563446 0.643036 0.141235
0.579773 0.646332 0.139130
0.596069 0.649506 0.135956
0.614410 0.652008 0.130005
0.634430 0.654449 0.121765
0.655670 0.658783 0.113617
0.679932 0.666870 0.106445
0.707977 0.677521 0.099762
0.738739 0.688690 0.091614
0.771240 0.698853 0.079834
0.805756 0.706879 0.064819
0.841034 0.712646 0.053467
0.873169 0.717743 0.044983
0.899384 0.723511 0.041290
0.920715 0.729523 0.060211
0.937897 0.736206 0.083160
0.956909 0.742065 0.085876
0.979248 0.746887 0.080627
0.359680 0.602814 0.114075
0.369873 0.605835 0.116974
0.381042 0.609131 0.120148
0.392914 0.612549 0.123444
0.406555 0.616394 0.127197
0.420990 0.620575 0.131287
0.435028 0.624573 0.135162
0.450348 0.628906 0.139313
0.465576 0.633392 0.143311
0.481079 0.638092 0.147278
0.496857 0.643005 0.151093
0.512543 0.647827 0.154297
0.527740 0.652374 0.156616
0.543091 0.656616 0.157990
0.558502 0.660339 0.158020
0.574188 0.664062 0.157013
0.589691 0.667633 0.154755
0.605194 0.670990 0.151428
0.620972 0.674164 0.146637
0.638824 0.677216 0.139099
0.658508 0.680450 0.129700
0.680389 0.686859 0.121094
0.705597 0.696472 0.113129
0.734375 0.707642 0.104279
0.765564 0.719025 0.094543
0.798340 0.729614 0.081299
0.832947 0.738037 0.065216
0.868164 0.744385 0.053101
0.900574 0.749695 0.045929
0.923370 0.756348 0.064392
0.940399 0.763672 0.085571
0.959229 0.769958 0.087982
0.981354 0.775116 0.082092
0.384521 0.626282 0.134491
0.393707 0.628754 0.137024
0.403778 0.631592 0.139893
0.414124 0.634552 0.142853
0.425659 0.637909 0.146057
0.439087 0.641754 0.149780
0.452698 0.645447 0.153351
0.466248 0.649200 0.156860
0.480469 0.653259 0.160461
0.494934 0.657501 0.163879
0.509827 0.662048 0.167114
0.524780 0.666718 0.170044
0.539612 0.671326 0.172394
0.554321 0.675781 0.173706
0.569366 0.679871 0.173767
0.584167 0.683746 0.172516
0.598907 0.687317 0.169647
0.613525 0.690796 0.165649
0.628113 0.694153 0.160645
0.643646 0.697968 0.154297
0.661621 0.701599 0.145569
0.682220 0.706970 0.136200
0.705261 0.715149 0.127075
0.731415 0.725616 0.117401
0.760651 0.737549 0.107178
