src/assets/luts/ON1 Nature & Wildlife LUTs/CinematicX LUTs - 30 Free Cinematic LUTs - The Resolve Store 2022/Guayo - Rec709.cube
# Copyright: (C) Copyright 2022 The Resolve Store 
# Cannot be resold, shared or otherwise redistributed
TITLE "CinematicX (Rec.709)"
LUT_3D_SIZE 9
0.003540 0.003815 0.003265
0.072540 0.004120 0.002594
0.207123 0.013611 0.009399
0.369934 0.028778 0.024139
0.479736 0.035339 0.037476
0.568237 0.038391 0.048615
0.671021 0.075897 0.056885
0.782318 0.119568 0.057007
0.898773 0.156464 0.046539
0.018066 0.041718 0.005157
0.079193 0.051727 0.004578
0.199982 0.075134 0.003510
0.343536 0.089935 0.005615
0.483704 0.107727 0.010132
0.595612 0.113586 0.019836
0.695709 0.133636 0.041412
0.799622 0.171631 0.049255
0.908630 0.221222 0.044403
0.051971 0.112061 0.003876
0.105591 0.128204 0.004944
0.222260 0.152740 0.005463
0.357880 0.194336 0.006561
0.482025 0.218597 0.009674
0.601898 0.237640 0.013672
0.714752 0.255157 0.017639
0.822693 0.273102 0.021118
0.923920 0.313873 0.048065
0.084473 0.202545 0.005280
0.141815 0.225647 0.006836
0.246887 0.256714 0.009918
0.390533 0.288879 0.013031
0.515228 0.334686 0.015930
0.628632 0.354919 0.016724
0.737549 0.370392 0.018188
0.846680 0.383881 0.019928
0.943604 0.410950 0.053101
0.137329 0.337708 0.010162
0.206299 0.363434 0.014954
0.301422 0.398895 0.024445
0.412262 0.414886 0.033936
0.542969 0.436615 0.032623
0.659088 0.470642 0.028076
0.765198 0.486603 0.023621
0.865936 0.498688 0.021301
0.959473 0.518250 0.059814
0.226898 0.468964 0.034882
0.296326 0.492279 0.047607
0.379547 0.518341 0.065460
0.460297 0.539368 0.080994
0.546631 0.547882 0.077637
0.662964 0.573395 0.059387
0.783783 0.598267 0.038727
0.884979 0.613068 0.027466
0.969727 0.632050 0.071838
0.333771 0.578186 0.094666
0.386566 0.594116 0.109131
0.450439 0.613098 0.126892
0.515289 0.632446 0.140991
0.579773 0.646332 0.139130
0.655670 0.658783 0.113617
0.771240 0.698853 0.079834
0.899384 0.723511 0.041290
0.979248 0.746887 0.080627
0.428528 0.668488 0.175262
0.463989 0.679169 0.185669
0.509857 0.691437 0.195740
0.559601 0.706726 0.201599
0.612457 0.723663 0.195679
0.669525 0.739349 0.171417
0.755920 0.772552 0.132507
0.881226 0.822876 0.077667
0.981445 0.857117 0.090912
0.479034 0.741302 0.239777
0.504852 0.749298 0.243134
0.540466 0.759430 0.244873
0.583496 0.772705 0.241882
0.630737 0.787872 0.230194
0.684967 0.806488 0.205811
0.756378 0.845764 0.170013
0.864014 0.900391 0.122772
0.963898 0.940521 0.265991
0.005676 0.013092 0.028229
0.061584 0.007721 0.039307
0.203674 0.000549 0.044556
0.366058 0.000153 0.065460
0.472687 0.000427 0.083099
0.564484 0.002197 0.095825
0.664734 0.004120 0.099304
0.780304 0.022705 0.093781
0.908203 0.104828 0.096161
0.007996 0.049042 0.044067
0.095612 0.054565 0.038239
0.247070 0.049927 0.043457
0.398834 0.048492 0.046143
0.507080 0.044250 0.053986
0.602631 0.031189 0.063751
0.699005 0.049469 0.078430
0.808258 0.107727 0.089874
0.918976 0.184509 0.097565
0.037933 0.125549 0.038727
0.114655 0.141602 0.038300
0.252625 0.160492 0.034760
0.394165 0.197662 0.041321
0.515472 0.214386 0.038879
0.627014 0.226746 0.028839
0.732635 0.233490 0.040375
0.833557 0.242950 0.058319
0.933685 0.295441 0.105988
0.060242 0.219910 0.017578
0.136200 0.245056 0.022644
0.263062 0.275024 0.025787
0.412170 0.296478 0.033447
0.534546 0.340210 0.039154
0.645020 0.354645 0.031097
0.751953 0.364227 0.043060
0.856049 0.376312 0.061157
0.949615 0.404999 0.116058
0.099945 0.346832 0.009705
0.183838 0.374390 0.014740
0.294983 0.410187 0.026093
0.419952 0.419403 0.035248
0.553314 0.440125 0.044312
0.667877 0.472412 0.038849
0.772644 0.484772 0.046387
0.872253 0.495728 0.062653
0.964813 0.514862 0.125244
0.196381 0.473541 0.035187
0.278412 0.499390 0.049347
0.372986 0.526947 0.068970
0.460419 0.547211 0.085175
0.551971 0.553802 0.079712
0.669830 0.576721 0.071716
0.788757 0.598846 0.053925
0.889252 0.611847 0.063751
0.975250 0.629913 0.132568
0.311462 0.580597 0.094879
0.370483 0.597443 0.110474
0.442230 0.618347 0.130615
0.512695 0.638367 0.146240
0.579926 0.651611 0.143677
0.658081 0.663116 0.116058
0.775055 0.700928 0.090515
0.902374 0.723755 0.067505
0.982849 0.746094 0.130310
0.409546 0.669739 0.176483
0.450134 0.681091 0.187958
0.501068 0.695068 0.199921
0.554688 0.710815 0.207275
0.609161 0.727234 0.203583
0.668671 0.742920 0.181183
0.756622 0.775085 0.144379
0.882904 0.824402 0.101410
0.981598 0.857727 0.130585
0.465271 0.742981 0.245697
0.493408 0.751526 0.250305
0.533173 0.762238 0.253693
0.578857 0.775970 0.253296
0.628448 0.790771 0.243774
0.684998 0.809418 0.221710
0.757782 0.848572 0.192810
0.864777 0.902069 0.153442
0.966003 0.945129 0.276093
0.000610 0.029938 0.083221
0.046265 0.036224 0.122009
0.182465 0.001190 0.110626
0.340027 0.000000 0.119995
0.457153 0.000427 0.152039
0.550873 0.001282 0.175323
0.650421 0.003693 0.194427
0.767303 0.008179 0.203461
0.890747 0.013702 0.195587
0.002655 0.070526 0.126190
0.063934 0.089233 0.143250
0.273376 0.031219 0.129822
0.404083 0.025299 0.142792
0.493805 0.022827 0.165771
0.585815 0.018219 0.182251
0.682159 0.021118 0.192413
0.792908 0.038391 0.195709
0.905853 0.093781 0.194855
0.002625 0.137451 0.124420
0.087006 0.166840 0.149231
0.315643 0.166199 0.119598
0.440674 0.183441 0.142914
0.551208 0.186462 0.146667
0.653442 0.172241 0.148956
0.745605 0.170593 0.166870
0.842712 0.179962 0.175446
0.933990 0.248108 0.198120
0.047607 0.247925 0.118927
0.148773 0.285522 0.127686
0.305450 0.299347 0.117035
0.441650 0.310669 0.127563
0.554169 0.347717 0.150818
0.667908 0.344727 0.128571
0.778107 0.341187 0.126709
0.879120 0.346649 0.134735
0.959076 0.383209 0.193848
0.066193 0.377136 0.094299
0.178192 0.407257 0.101379
0.301636 0.432037 0.111786
0.446045 0.432556 0.128235
0.570862 0.452637 0.120819
0.682098 0.473969 0.115356
0.787079 0.479370 0.126740
0.886871 0.487122 0.140015
0.974487 0.506836 0.191071
0.109192 0.486755 0.056122
0.231750 0.512177 0.077637
0.353577 0.537567 0.107422
0.457367 0.555847 0.130280
0.561890 0.556976 0.135437
0.681610 0.579590 0.119263
0.798828 0.598907 0.110046
0.899445 0.608398 0.130829
0.981812 0.625885 0.201172
0.221832 0.581421 0.093353
0.311707 0.600830 0.110321
0.411255 0.623535 0.134399
0.496277 0.645325 0.154755
0.572784 0.659729 0.154541
0.660400 0.668732 0.120392
0.783295 0.703491 0.105835
0.909119 0.724030 0.115631
0.983795 0.744385 0.201782
0.353302 0.669617 0.176819
0.411011 0.682770 0.190430
0.473358 0.697876 0.204956
0.537567 0.714722 0.216370
0.598206 0.731445 0.216919
0.664032 0.747070 0.196381
0.757080 0.778564 0.160400
0.886017 0.826752 0.128845
0.981018 0.858124 0.232544
0.427765 0.742584 0.251434
0.466278 0.752106 0.258301
0.513519 0.763245 0.264099
0.565338 0.777649 0.267487
0.620453 0.793182 0.261383
0.680298 0.812347 0.243286
0.755066 0.851196 0.221619
0.864288 0.904297 0.190308
0.970612 0.954681 0.272614
0.000000 0.050262 0.154053
0.013855 0.072205 0.236664
0.177063 0.033264 0.196594
0.324219 0.001617 0.188599
0.420013 0.000000 0.210907
0.522491 0.000641 0.255005
0.618683 0.001617 0.289642
0.734192 0.005585 0.313232
0.862579 0.012299 0.324921
0.000061 0.115265 0.247345
0.019714 0.130280 0.277161
0.258606 0.113586 0.271606
0.401276 0.028992 0.236145
0.460510 0.009857 0.246704
0.545685 0.009705 0.281677
0.641144 0.012512 0.305847
0.756287 0.028503 0.319733
0.883301 0.091827 0.333130
0.000275 0.174377 0.220490
0.061218 0.207733 0.263824
0.266449 0.221222 0.298187
0.482178 0.153900 0.245728
0.552917 0.156830 0.296143
0.633484 0.148376 0.308990
0.722198 0.140778 0.315369
0.818848 0.140686 0.319336
0.915710 0.250641 0.347290
0.000641 0.279083 0.239746
0.012360 0.311371 0.272583
0.300171 0.345795 0.301636
0.494995 0.326080 0.228271
0.583252 0.342163 0.285217
0.690216 0.322449 0.294281
0.780853 0.320679 0.307007
0.870453 0.332153 0.318146
0.942261 0.383545 0.350006
0.026428 0.393738 0.241119
0.135559 0.423370 0.261963
0.327911 0.460754 0.272095
0.492584 0.433441 0.234741
0.583313 0.459198 0.258972
0.685425 0.479126 0.284943
0.793396 0.477386 0.283936
0.895142 0.479065 0.296600
0.967041 0.505249 0.345245
0.088928 0.512024 0.240692
0.217834 0.532837 0.249512
0.357300 0.552094 0.263336
0.472260 0.566650 0.282257
0.577606 0.557709 0.276428
0.692230 0.583130 0.271851
0.802002 0.601501 0.272552
0.903778 0.606781 0.287170
0.978882 0.625092 0.347870
0.160400 0.598877 0.240417
0.290466 0.615875 0.242462
0.402893 0.635803 0.267883
0.494934 0.652771 0.290802
0.574188 0.663696 0.297089
0.668915 0.669739 0.276276
0.790497 0.705383 0.279572
0.907562 0.725861 0.294708
0.981201 0.743774 0.360565
0.222046 0.671509 0.242279
0.345276 0.687286 0.248138
0.437042 0.702728 0.266663
0.517609 0.719482 0.292358
0.589172 0.736176 0.298431
0.662842 0.751984 0.282745
0.764008 0.781097 0.258057
0.891052 0.828522 0.259186
0.977234 0.856689 0.387024
0.314270 0.737854 0.263489
0.385162 0.748901 0.267639
0.462677 0.764526 0.279877
0.534302 0.779846 0.289124
0.604431 0.796448 0.288147
0.672577 0.816406 0.272858
0.751038 0.854614 0.260132
0.864136 0.906799 0.242889
0.967651 0.953705 0.415466
0.000000 0.072327 0.230438
0.000763 0.072632 0.329315
0.151733 0.061859 0.330597
0.299896 0.005524 0.263641
0.411926 0.001709 0.260040
0.487152 0.001129 0.299713
0.571136 0.001465 0.356079
0.683197 0.006226 0.406067
0.817566 0.016571 0.441772
0.000000 0.123535 0.343109
0.002411 0.135010 0.396240
0.199127 0.112396 0.424591
0.369934 0.047729 0.344788
0.453857 0.009430 0.316132
0.508911 0.003876 0.341888
0.588470 0.008209 0.379028
0.702759 0.019592 0.417816
0.841156 0.084991 0.455383
0.001373 0.201935 0.358734
0.039490 0.227020 0.393463
0.210480 0.263458 0.430115
0.466248 0.197449 0.410248
0.551788 0.136047 0.365936
0.610626 0.113037 0.397278
0.670013 0.054504 0.414948
0.764282 0.055878 0.434875
0.884430 0.250214 0.478882
0.000977 0.302063 0.331635
0.004791 0.329681 0.368317
0.246948 0.363281 0.442719
0.515198 0.326630 0.406891
0.620422 0.317749 0.354645
0.687958 0.304810 0.438141
0.762299 0.297455 0.463501
0.848022 0.308563 0.469147
0.915833 0.385071 0.486542
0.011627 0.416016 0.369446
0.018463 0.439850 0.394440
0.223724 0.473602 0.439178
0.501312 0.478210 0.426849
0.622437 0.454926 0.337372
0.695679 0.475403 0.424164
0.806519 0.456757 0.438507
0.870972 0.480652 0.468811
0.944489 0.507385 0.486084
0.056763 0.518829 0.375763
0.160797 0.543549 0.402710
0.328094 0.561707 0.417969
0.481720 0.582123 0.427765
0.614258 0.544189 0.350922
0.707947 0.578430 0.370728
0.801086 0.601624 0.414307
0.886749 0.612000 0.453949
0.970642 0.625031 0.478485
0.137146 0.606506 0.382568
0.254822 0.628906 0.400452
0.384674 0.645752 0.408081
0.493439 0.657074 0.420929
0.585571 0.663086 0.423920
0.681183 0.663391 0.402649
0.797089 0.703369 0.408936
0.891113 0.728943 0.465057
0.976624 0.743195 0.487488
0.221130 0.680511 0.395081
0.312592 0.697296 0.408173
0.416351 0.711426 0.409698
0.514832 0.726013 0.424469
0.594330 0.738617 0.433105
0.666107 0.752411 0.427277
0.765259 0.781189 0.412903
0.883545 0.826447 0.455048
0.971710 0.854675 0.512512
0.291504 0.746582 0.404724
0.352417 0.758331 0.412903
0.435059 0.770996 0.416077
0.525360 0.788239 0.427734
0.603760 0.803619 0.432159
0.673828 0.822845 0.425995
0.752747 0.858337 0.421722
0.862274 0.907837 0.423584
0.964539 0.954803 0.514343
0.000000 0.079193 0.296936
0.000000 0.084717 0.396454
0.083954 0.070831 0.432648
0.254669 0.037628 0.403229
0.392212 0.000519 0.332886
0.473877 0.000519 0.340729
0.534729 0.002869 0.401154
0.630707 0.014709 0.464966
0.763458 0.036163 0.525177
0.000031 0.145569 0.413635
0.000244 0.152557 0.462402
0.143097 0.117798 0.484131
0.328827 0.078369 0.453827
0.440582 0.026367 0.391113
0.493469 0.001770 0.382172
0.552246 0.005768 0.426636
0.651855 0.022522 0.482727
0.784210 0.080231 0.540314
0.000458 0.223694 0.419678
0.001129 0.244720 0.465973
0.196716 0.269958 0.512543
0.412445 0.216461 0.504395
0.514008 0.150604 0.447632
0.579132 0.119843 0.436676
0.634705 0.088196 0.482727
0.714630 0.050720 0.517944
0.837555 0.250244 0.580383
0.002808 0.332123 0.431488
0.006256 0.357483 0.462463
0.252594 0.390869 0.531891
0.422333 0.400726 0.533051
0.611664 0.323364 0.497620
0.697571 0.300293 0.487640
0.745667 0.300232 0.550781
0.814789 0.289673 0.581818
0.874359 0.389374 0.601776
0.015198 0.424316 0.442322
0.022308 0.446045 0.466492
0.215088 0.478607 0.522797
0.442047 0.499725 0.545929
0.628906 0.466980 0.476746
0.736176 0.455475 0.464630
0.792328 0.442688 0.574860
0.849060 0.464691 0.603088
0.908752 0.510345 0.612244
0.059753 0.517822 0.479645
0.072418 0.535095 0.498108
0.150726 0.563904 0.523682
0.451080 0.586670 0.550262
0.611603 0.571320 0.506195
0.736908 0.567871 0.447052
0.787689 0.601593 0.561401
0.863647 0.610046 0.598846
0.942535 0.625244 0.612793
0.137054 0.607361 0.498108
0.196045 0.626648 0.512939
0.340546 0.649048 0.528900
0.477722 0.657104 0.532898
0.597046 0.669281 0.543457
0.714203 0.645233 0.470459
0.804993 0.696838 0.516754
0.877350 0.728577 0.591339
0.967926 0.742188 0.609711
0.224792 0.685059 0.499084
0.292145 0.700958 0.511261
0.388611 0.717377 0.526459
0.504364 0.729309 0.534241
0.602539 0.741272 0.550781
0.677368 0.747162 0.542175
0.772858 0.772827 0.536621
0.870453 0.819641 0.598785
0.964722 0.851746 0.627869
0.289062 0.751892 0.504486
0.338074 0.764862 0.514130
0.415100 0.780151 0.529236
0.515228 0.795197 0.541870
0.614532 0.814087 0.558960
0.687134 0.831299 0.571075
0.755737 0.861969 0.578400
0.853149 0.908417 0.563599
0.956726 0.948212 0.632996
0.000000 0.087769 0.368561
0.000061 0.107239 0.450775
0.017151 0.105103 0.504669
0.201813 0.082794 0.518372
0.364929 0.018524 0.461731
0.449097 0.004730 0.425934
0.518036 0.011749 0.457733
0.611938 0.035980 0.522858
0.727905 0.075958 0.591370
0.000763 0.168518 0.465820
0.001434 0.174316 0.512878
0.056183 0.151459 0.540070
0.282867 0.138245 0.560120
0.429077 0.084839 0.514008
0.473816 0.019653 0.462616
0.536346 0.019287 0.483917
0.630707 0.046234 0.543060
0.742859 0.100128 0.604736
0.001831 0.244263 0.474976
0.004456 0.269104 0.521698
0.105011 0.281036 0.577911
0.330902 0.251007 0.596802
0.474365 0.198944 0.561096
0.552063 0.162445 0.529816
0.620331 0.141296 0.553375
0.686279 0.096802 0.587585
0.788025 0.248596 0.645721
0.010254 0.356934 0.528473
0.025452 0.377502 0.559143
0.163818 0.410400 0.601013
0.362091 0.419373 0.619293
0.532745 0.402191 0.614197
0.630402 0.348450 0.588348
0.718414 0.330383 0.612671
0.778137 0.329895 0.656372
0.828369 0.404083 0.677155
0.028046 0.446716 0.534271
0.037750 0.466095 0.555511
0.215637 0.498932 0.607025
0.421021 0.523010 0.634918
0.558441 0.520050 0.623016
0.702209 0.468048 0.598450
0.780182 0.448120 0.635559
0.815247 0.475311 0.682556
0.860138 0.519501 0.699677
0.075745 0.536926 0.553986
0.087097 0.551270 0.570801
0.171753 0.578430 0.603058
0.393555 0.601593 0.634521
0.573364 0.612885 0.643494
0.694824 0.600983 0.617188
0.785828 0.597961 0.649780
0.835297 0.603882 0.703674
0.895691 0.626404 0.719818
0.150116 0.623413 0.588196
0.161285 0.635590 0.600037
0.176544 0.653137 0.614655
0.377655 0.676422 0.637665
0.570221 0.682220 0.646362
0.684906 0.679016 0.634888
0.792694 0.701996 0.642090
0.854858 0.723785 0.705688
0.937042 0.735809 0.728455
0.228058 0.701202 0.614166
0.239166 0.711304 0.620728
0.343323 0.733063 0.629700
0.466003 0.745300 0.641327
0.586823 0.750122 0.645294
0.681000 0.762146 0.660370
0.764374 0.773712 0.664642
0.863007 0.814880 0.699280
0.955902 0.847626 0.734894
0.289398 0.774048 0.610382
0.307098 0.783630 0.615784
0.392792 0.801208 0.627441
0.493042 0.816467 0.646332
0.600647 0.829163 0.659271
0.691193 0.846710 0.680084
0.761414 0.865082 0.694244
0.841370 0.900879 0.708954
0.944977 0.937225 0.745026
0.000000 0.123138 0.454132
0.001068 0.149750 0.513397
0.004425 0.166779 0.582428
0.122223 0.161377 0.622406
0.361847 0.124481 0.625793
0.459351 0.040894 0.561218
0.532135 0.049286 0.558685
0.618103 0.084656 0.594116
0.719696 0.141632 0.654633
0.002472 0.203766 0.523529
0.003845 0.209320 0.556396
0.010437 0.215881 0.614075
0.190552 0.219086 0.655182
0.402740 0.188446 0.654419
0.500854 0.128937 0.614685
0.554138 0.071320 0.588654
0.636810 0.105347 0.615326
0.730804 0.161011 0.666656
0.005615 0.273773 0.535614
0.008972 0.289581 0.567810
0.019653 0.300171 0.627441
0.197449 0.298065 0.671112
0.414764 0.276184 0.678802
0.534424 0.238739 0.654785
0.614014 0.212189 0.650360
0.677338 0.160736 0.654572
0.764130 0.279175 0.701385
0.022186 0.391052 0.588989
0.028870 0.404114 0.612305
0.046082 0.423187 0.658020
0.261810 0.440247 0.700012
0.458862 0.430695 0.713379
0.586639 0.408203 0.700165
0.671722 0.389008 0.699799
0.746552 0.374176 0.715302
0.800934 0.422638 0.733612
0.057892 0.477234 0.638641
0.072205 0.492828 0.660461
0.201385 0.518097 0.700195
0.343536 0.542297 0.721588
0.485687 0.548157 0.725464
0.616089 0.538910 0.719513
0.705353 0.527283 0.725250
0.782349 0.506042 0.743805
0.829285 0.532471 0.758820
0.109131 0.566956 0.650177
0.120056 0.578613 0.665466
0.147186 0.598175 0.695435
0.385620 0.617981 0.727081
0.536835 0.627716 0.733765
0.636169 0.628876 0.724609
0.723633 0.627991 0.736572
0.801514 0.617950 0.762207
0.854797 0.631927 0.781219
0.171387 0.652679 0.667877
0.179657 0.663177 0.679138
0.191315 0.678070 0.697021
0.352600 0.697418 0.724091
0.523499 0.706055 0.737915
0.655640 0.713806 0.747925
0.731628 0.717682 0.756256
0.818085 0.714020 0.780304
0.883453 0.726746 0.803864
0.233154 0.734863 0.700043
0.243591 0.743195 0.707916
0.259247 0.755280 0.718933
0.308228 0.771515 0.733276
0.506897 0.781158 0.749603
0.647705 0.783783 0.756958
0.744232 0.791321 0.773560
0.833740 0.809387 0.795837
0.927612 0.833954 0.829834
0.269501 0.814606 0.731140
0.288910 0.821533 0.734833
0.319794 0.832794 0.739899
0.449677 0.849945 0.750732
0.570770 0.861145 0.765594
0.673035 0.866638 0.773651
0.756866 0.877655 0.790405
0.832855 0.893372 0.806885
0.932617 0.927155 0.836670
0.004395 0.203705 0.567169
0.008179 0.222504 0.598053
0.020142 0.244904 0.650360
0.045746 0.270325 0.726624
0.292542 0.264679 0.761383
0.487061 0.223450 0.756012
0.590912 0.187439 0.731171
0.667450 0.204651 0.717804
0.729919 0.237335 0.720245
0.010834 0.258759 0.599365
0.015350 0.266510 0.621368
0.028076 0.282074 0.665680
0.056641 0.305328 0.735596
0.316559 0.305542 0.773743
0.498932 0.278992 0.772675
0.604584 0.233856 0.749878
0.678619 0.229523 0.730682
0.737823 0.259827 0.729736
0.019775 0.325684 0.618744
0.025391 0.333893 0.638306
0.040436 0.345123 0.679565
0.074890 0.363770 0.745361
0.309479 0.370239 0.785187
0.503967 0.353638 0.791534
0.623260 0.335724 0.779449
0.705536 0.313904 0.756744
0.763397 0.351044 0.755157
0.046661 0.424561 0.658661
0.055511 0.431610 0.676544
0.076538 0.446594 0.711914
0.114105 0.462402 0.769196
0.340851 0.468384 0.805634
0.525574 0.458740 0.812439
0.647369 0.449860 0.805511
0.733643 0.440430 0.789185
0.789825 0.455475 0.781708
0.108673 0.516266 0.720703
0.118958 0.526031 0.732452
0.136841 0.540680 0.755188
0.162140 0.555420 0.794495
0.370300 0.565979 0.821930
0.543243 0.566589 0.826233
0.663116 0.558350 0.822937
0.752472 0.549042 0.811890
0.815826 0.550049 0.809296
0.165100 0.602722 0.759369
0.173828 0.610840 0.773315
0.188812 0.620514 0.802917
0.346222 0.632568 0.829163
0.438843 0.647522 0.838989
0.561340 0.653473 0.841187
0.679657 0.651978 0.838074
0.770325 0.644287 0.835754
0.839478 0.639435 0.834686
0.199646 0.690308 0.775604
0.204437 0.696259 0.785461
0.214386 0.706177 0.806610
0.325104 0.717896 0.836426
0.496460 0.725128 0.850525
0.625336 0.731140 0.857635
0.698914 0.735046 0.859741
0.787354 0.730591 0.859741
0.864166 0.726562 0.861053
0.224823 0.777618 0.801422
0.238373 0.783234 0.808319
0.254669 0.791718 0.820679
0.282104 0.804779 0.842041
0.482483 0.813660 0.860077
0.620300 0.817139 0.869568
0.730286 0.819366 0.880493
0.809021 0.819702 0.885803
0.889832 0.815735 0.888123
0.243378 0.866516 0.835388
0.270386 0.871796 0.840240
0.299866 0.880188 0.848206
0.353577 0.890961 0.860474
0.505676 0.899872 0.874908
0.635956 0.903900 0.884735
0.739136 0.906647 0.893250
0.829102 0.910034 0.904266
0.915253 0.913635 0.912872
