src/assets/luts/ON1 Nature & Wildlife LUTs/CinematicX LUTs - 30 Free Cinematic LUTs - The Resolve Store 2022/Guayo - Rec709.cube
# Copyright: (C) Copyright 2022 The Resolve Store 
# Cannot be resold, shared or otherwise redistributed
TITLE "CinematicX (Rec.709)"
LUT_3D_SIZE 5
0.003540 0.003815 0.003265
0.207123 0.013611 0.009399
0.479736 0.035339 0.037476
0.671021 0.075897 0.056885
0.898773 0.156464 0.046539
0.051971 0.112061 0.003876
0.222260 0.152740 0.005463
0.482025 0.218597 0.009674
0.714752 0.255157 0.017639
0.923920 0.313873 0.048065
0.137329 0.337708 0.010162
0.301422 0.398895 0.024445
0.542969 0.436615 0.032623
0.765198 0.486603 0.023621
0.959473 0.518250 0.059814
0.333771 0.578186 0.094666
0.450439 0.613098 0.126892
0.579773 0.646332 0.139130
0.771240 0.698853 0.079834
0.979248 0.746887 0.080627
0.479034 0.741302 0.239777
0.540466 0.759430 0.244873
0.630737 0.787872 0.230194
0.756378 0.845764 0.170013
0.963898 0.940521 0.265991
0.000610 0.029938 0.083221
0.182465 0.001190 0.110626
0.457153 0.000427 0.152039
0.650421 0.003693 0.194427
0.890747 0.013702 0.195587
0.002625 0.137451 0.124420
0.315643 0.166199 0.119598
0.551208 0.186462 0.146667
0.745605 0.170593 0.166870
0.933990 0.248108 0.198120
0.066193 0.377136 0.094299
0.301636 0.432037 0.111786
0.570862 0.452637 0.120819
0.787079 0.479370 0.126740
0.974487 0.506836 0.191071
0.221832 0.581421 0.093353
0.411255 0.623535 0.134399
0.572784 0.659729 0.154541
0.783295 0.703491 0.105835
0.983795 0.744385 0.201782
0.427765 0.742584 0.251434
0.513519 0.763245 0.264099
0.620453 0.793182 0.261383
0.755066 0.851196 0.221619
0.970612 0.954681 0.272614
0.000000 0.072327 0.230438
0.151733 0.061859 0.330597
0.411926 0.001709 0.260040
0.571136 0.001465 0.356079
0.817566 0.016571 0.441772
0.001373 0.201935 0.358734
0.210480 0.263458 0.430115
0.551788 0.136047 0.365936
0.670013 0.054504 0.414948
0.884430 0.250214 0.478882
0.011627 0.416016 0.369446
0.223724 0.473602 0.439178
0.622437 0.454926 0.337372
0.806519 0.456757 0.438507
0.944489 0.507385 0.486084
0.137146 0.606506 0.382568
0.384674 0.645752 0.408081
0.585571 0.663086 0.423920
0.797089 0.703369 0.408936
0.976624 0.743195 0.487488
0.291504 0.746582 0.404724
0.435059 0.770996 0.416077
0.603760 0.803619 0.432159
0.752747 0.858337 0.421722
0.964539 0.954803 0.514343
0.000000 0.087769 0.368561
0.017151 0.105103 0.504669
0.364929 0.018524 0.461731
0.518036 0.011749 0.457733
0.727905 0.075958 0.591370
0.001831 0.244263 0.474976
0.105011 0.281036 0.577911
0.474365 0.198944 0.561096
0.620331 0.141296 0.553375
0.788025 0.248596 0.645721
0.028046 0.446716 0.534271
0.215637 0.498932 0.607025
0.558441 0.520050 0.623016
0.780182 0.448120 0.635559
0.860138 0.519501 0.699677
0.150116 0.623413 0.588196
0.176544 0.653137 0.614655
0.570221 0.682220 0.646362
0.792694 0.701996 0.642090
0.937042 0.735809 0.728455
0.289398 0.774048 0.610382
0.392792 0.801208 0.627441
0.600647 0.829163 0.659271
0.761414 0.865082 0.694244
0.944977 0.937225 0.745026
0.004395 0.203705 0.567169
0.020142 0.244904 0.650360
0.292542 0.264679 0.761383
0.590912 0.187439 0.731171
0.729919 0.237335 0.720245
0.019775 0.325684 0.618744
0.040436 0.345123 0.679565
0.309479 0.370239 0.785187
0.623260 0.335724 0.779449
0.763397 0.351044 0.755157
0.108673 0.516266 0.720703
0.136841 0.540680 0.755188
0.370300 0.565979 0.821930
0.663116 0.558350 0.822937
0.815826 0.550049 0.809296
0.199646 0.690308 0.775604
0.214386 0.706177 0.806610
0.496460 0.725128 0.850525
0.698914 0.735046 0.859741
0.864166 0.726562 0.861053
0.243378 0.866516 0.835388
0.299866 0.880188 0.848206
0.505676 0.899872 0.874908
0.739136 0.906647 0.893250
0.915253 0.913635 0.912872
