src/assets/luts/ON1 Nature & Wildlife LUTs/CinematicX LUTs - 30 Free Cinematic LUTs - The Resolve Store 2022/Gurabo - Rec709.cube
# Copyright: (C) Copyright 2022 The Resolve Store 
# Cannot be resold, shared or otherwise redistributed
TITLE "CinematicX (Rec.709)"
LUT_3D_SIZE 5
0.000580 0.000000 0.000000
0.220673 0.057312 0.054138
0.489990 0.082214 0.072266
0.750549 0.137909 0.121063
0.982300 0.275452 0.252747
0.071259 0.177460 0.047760
0.257599 0.209229 0.067932
0.521759 0.218292 0.073425
0.776367 0.229767 0.131714
0.986694 0.365051 0.294891
0.202667 0.398102 0.150665
0.337524 0.436066 0.172150
0.550171 0.468597 0.175629
0.783539 0.482635 0.167419
0.992737 0.542358 0.329071
0.344421 0.595734 0.267578
0.436432 0.626556 0.286438
0.596130 0.664703 0.296783
0.793121 0.702332 0.296783
0.996216 0.740509 0.381775
0.402008 0.765869 0.339844
0.483368 0.797577 0.362457
0.616760 0.834137 0.373505
0.808441 0.881195 0.386047
0.991699 0.911652 0.491028
0.000427 0.026764 0.107330
0.185211 0.046448 0.158600
0.465546 0.069031 0.132690
0.740784 0.115601 0.167358
0.982056 0.244507 0.292450
0.008942 0.178711 0.148895
0.201843 0.195190 0.185059
0.535278 0.217346 0.181000
0.788422 0.206177 0.186707
0.989258 0.366425 0.354309
0.113007 0.390900 0.175446
0.281738 0.431000 0.239594
0.543701 0.478851 0.269348
0.794250 0.485809 0.256317
0.995453 0.548462 0.391663
0.264130 0.585724 0.261658
0.387695 0.614594 0.317139
0.571350 0.665253 0.343231
0.788849 0.706726 0.339294
0.997375 0.743103 0.437592
0.352997 0.771942 0.352722
0.462006 0.794403 0.409180
0.595032 0.832825 0.433350
0.797394 0.882355 0.444977
0.990784 0.916992 0.562469
0.001984 0.077759 0.237640
0.033417 0.097046 0.311951
0.389862 0.083618 0.330811
0.653992 0.093018 0.329498
0.941559 0.161316 0.342682
0.002045 0.202576 0.331635
0.034363 0.226227 0.376343
0.474701 0.237579 0.417725
0.733917 0.194305 0.386200
0.981476 0.285492 0.413330
0.086517 0.401672 0.352386
0.182281 0.437653 0.387054
0.467834 0.462677 0.447662
0.774811 0.504822 0.469574
0.991394 0.533630 0.493103
0.202698 0.593872 0.378448
0.319336 0.626984 0.415436
0.517883 0.649963 0.486298
0.761810 0.706146 0.515320
0.996399 0.747498 0.557434
0.293640 0.771637 0.424438
0.388977 0.799713 0.460022
0.556915 0.823700 0.524902
0.765808 0.880890 0.548096
0.994507 0.932404 0.628021
0.004150 0.121338 0.340118
0.022888 0.172089 0.445160
0.298615 0.177094 0.516052
0.587708 0.149597 0.506805
0.820984 0.183411 0.537720
0.004578 0.248322 0.449432
0.024994 0.277954 0.497589
0.334686 0.326752 0.577576
0.650024 0.272949 0.574738
0.864258 0.345398 0.599945
0.022430 0.410461 0.540985
0.057922 0.438110 0.588623
0.376190 0.499084 0.640045
0.688599 0.515747 0.641296
0.919281 0.551361 0.669830
0.177551 0.599854 0.540680
0.228333 0.625214 0.565887
0.433105 0.666840 0.615082
0.694794 0.692322 0.675201
0.967651 0.760559 0.732605
0.224976 0.780151 0.538788
0.324066 0.813110 0.574310
0.497772 0.842010 0.626160
0.722992 0.879150 0.703522
0.974762 0.937653 0.795654
0.006683 0.174530 0.442444
0.027496 0.245789 0.567352
0.169434 0.278473 0.634003
0.555115 0.291199 0.700867
0.768738 0.287903 0.694489
0.010101 0.304199 0.572235
0.032227 0.335266 0.616028
0.187561 0.371948 0.683624
0.581787 0.401764 0.734711
0.797211 0.410034 0.734100
0.023407 0.442383 0.655151
0.046600 0.469574 0.691101
0.223022 0.508820 0.753326
0.594330 0.551605 0.763977
0.835236 0.572388 0.787720
0.121735 0.602783 0.712952
0.139740 0.629242 0.755981
0.359192 0.670074 0.832031
0.632843 0.711517 0.837341
0.888733 0.750305 0.857178
0.185150 0.779694 0.725403
0.228577 0.815216 0.764008
0.404602 0.852386 0.807220
0.663788 0.895599 0.863678
0.928497 0.933350 0.928375
