src/assets/luts/ON1 Nature & Wildlife LUTs/CinematicX LUTs - 30 Free Cinematic LUTs - The Resolve Store 2022/Gurabo - Rec709.cube
# Copyright: (C) Copyright 2022 The Resolve Store 
# Cannot be resold, shared or otherwise redistributed
TITLE "CinematicX (Rec.709)"
LUT_3D_SIZE 9
0.000580 0.000000 0.000000
0.099030 0.030457 0.029968
0.220673 0.057312 0.054138
0.353668 0.070892 0.064301
0.489990 0.082214 0.072266
0.623413 0.102112 0.088684
0.750549 0.137909 0.121063
0.869019 0.191254 0.171295
0.982300 0.275452 0.252747
0.021362 0.071869 0.003601
0.114990 0.093384 0.033447
0.240997 0.108124 0.054474
0.372955 0.108246 0.065338
0.506500 0.109161 0.073975
0.637421 0.127960 0.091675
0.762543 0.164886 0.125916
0.879608 0.219208 0.177551
0.984558 0.317871 0.273834
0.071259 0.177460 0.047760
0.140289 0.191589 0.059814
0.257599 0.209229 0.067932
0.387329 0.216522 0.062988
0.521759 0.218292 0.073425
0.652924 0.219208 0.095184
0.776367 0.229767 0.131714
0.893097 0.259338 0.181610
0.986694 0.365051 0.294891
0.129730 0.286469 0.096313
0.183380 0.302246 0.106476
0.290375 0.325623 0.116821
0.412292 0.340973 0.116455
0.531189 0.345032 0.102081
0.657623 0.348938 0.097778
0.784058 0.356873 0.139038
0.901581 0.375610 0.196594
0.990051 0.447418 0.315186
0.202667 0.398102 0.150665
0.250000 0.413818 0.160553
0.337524 0.436066 0.172150
0.444000 0.457214 0.179443
0.550171 0.468597 0.175629
0.662781 0.474365 0.165192
0.783539 0.482635 0.167419
0.905365 0.495270 0.202454
0.992737 0.542358 0.329071
0.278656 0.502594 0.209442
0.320068 0.517578 0.219147
0.390076 0.536407 0.229980
0.478607 0.557037 0.238739
0.573975 0.574738 0.240967
0.674408 0.587372 0.235840
0.786133 0.599335 0.235962
0.903900 0.614349 0.255524
0.994476 0.641327 0.345184
0.344421 0.595734 0.267578
0.380737 0.610474 0.276947
0.436432 0.626556 0.286438
0.511353 0.645142 0.293335
0.596130 0.664703 0.296783
0.689301 0.683685 0.295654
0.793121 0.702332 0.296783
0.909363 0.721191 0.303833
0.996216 0.740509 0.381775
0.385925 0.679565 0.314636
0.418060 0.695648 0.322571
0.463898 0.710815 0.330872
0.530029 0.727997 0.336792
0.609894 0.747711 0.340210
0.700317 0.769562 0.342194
0.801392 0.793457 0.347321
0.916412 0.818146 0.338409
0.996918 0.835602 0.415527
0.402008 0.765869 0.339844
0.440063 0.782837 0.356445
0.483368 0.797577 0.362457
0.538788 0.814972 0.370026
0.616760 0.834137 0.373505
0.707092 0.856140 0.377167
0.808441 0.881195 0.386047
0.919800 0.909760 0.383331
0.991699 0.911652 0.491028
0.000244 0.007782 0.035889
0.083160 0.023468 0.070801
0.209198 0.051758 0.082520
0.350281 0.063324 0.087646
0.488556 0.070892 0.094269
0.623169 0.087128 0.108337
0.752777 0.123840 0.140686
0.876251 0.186310 0.194519
0.984161 0.282501 0.285828
0.002380 0.079193 0.062256
0.089447 0.085510 0.078705
0.243317 0.109680 0.096100
0.381470 0.099518 0.089630
0.516113 0.101196 0.096313
0.646759 0.119751 0.112854
0.771149 0.159607 0.148407
0.887268 0.217072 0.201874
0.986328 0.325775 0.306732
0.005402 0.170471 0.053955
0.116089 0.191956 0.096710
0.253265 0.215210 0.112915
0.394257 0.219055 0.104340
0.531128 0.212708 0.095154
0.661499 0.210815 0.117706
0.784210 0.221436 0.155640
0.901947 0.252197 0.203491
0.988373 0.372345 0.326721
0.068359 0.279358 0.081909
0.146454 0.295715 0.117401
0.267212 0.326691 0.135712
0.409882 0.345978 0.139923
0.536987 0.346588 0.131104
0.663849 0.348694 0.126373
0.789398 0.355835 0.162689
0.909241 0.371246 0.212280
0.991028 0.451080 0.344116
0.155945 0.391571 0.142334
0.219696 0.406189 0.170013
0.312744 0.434204 0.187134
0.433411 0.460388 0.198822
0.548920 0.472382 0.195038
0.666168 0.476471 0.189697
0.787933 0.484009 0.197968
0.910278 0.495361 0.225067
0.993622 0.545349 0.357574
0.255371 0.497955 0.216736
0.301086 0.512573 0.231049
0.371490 0.534515 0.245789
0.467773 0.558136 0.257385
0.568939 0.577667 0.260803
0.673553 0.590332 0.254181
0.788635 0.601532 0.257141
0.907623 0.615753 0.280151
0.995331 0.643890 0.375122
0.332306 0.593933 0.281342
0.369385 0.607666 0.291748
0.423584 0.625305 0.303589
0.501617 0.645386 0.312561
0.589905 0.666260 0.317413
0.686218 0.686066 0.316132
0.792755 0.704895 0.315704
0.912048 0.723053 0.321259
0.996735 0.742401 0.406403
0.373779 0.682404 0.326202
0.411621 0.694641 0.341888
0.457428 0.710052 0.350372
0.521973 0.728424 0.358795
0.604309 0.748901 0.363159
0.696716 0.771362 0.365295
0.799957 0.795685 0.369232
0.916718 0.820618 0.358856
0.996918 0.837311 0.436829
0.385498 0.772736 0.346619
0.430573 0.784882 0.371521
0.479828 0.798004 0.385834
0.535309 0.815918 0.393524
0.611664 0.835754 0.399048
0.703857 0.858307 0.402802
0.807007 0.883636 0.410828
0.919800 0.912384 0.407898
0.990997 0.913574 0.526672
0.000427 0.026764 0.107330
0.017700 0.033997 0.149231
0.185211 0.046448 0.158600
0.320892 0.059326 0.149811
0.465546 0.069031 0.132690
0.607117 0.083771 0.136108
0.740784 0.115601 0.167358
0.865723 0.167511 0.217682
0.982056 0.244507 0.292450
0.000549 0.089447 0.156738
0.018341 0.096344 0.176514
0.212067 0.106232 0.185699
0.366058 0.090881 0.167542
0.501282 0.092041 0.139801
0.632721 0.109009 0.140900
0.758026 0.141541 0.172974
0.878082 0.193817 0.223846
0.985229 0.298828 0.321503
0.008942 0.178711 0.148895
0.069397 0.200165 0.167419
0.201843 0.195190 0.185059
0.393127 0.227234 0.205261
0.535278 0.217346 0.181000
0.664703 0.204163 0.158173
0.788422 0.206177 0.186707
0.906830 0.242950 0.234070
0.989258 0.366425 0.354309
0.052887 0.287384 0.150696
0.121826 0.307831 0.171875
0.239990 0.321899 0.210083
0.398682 0.351501 0.232574
0.537811 0.356201 0.227722
0.669281 0.354218 0.209778
0.795929 0.355011 0.203491
0.929474 0.350128 0.210602
0.993317 0.453644 0.380890
0.113007 0.390900 0.175446
0.168182 0.408600 0.193695
0.281738 0.431000 0.239594
0.411163 0.460541 0.261444
0.543701 0.478851 0.269348
0.667877 0.481903 0.263245
0.794250 0.485809 0.256317
0.921539 0.491302 0.255096
0.995453 0.548462 0.391663
0.168488 0.484650 0.198883
0.223633 0.500214 0.220123
0.329987 0.524719 0.267761
0.438660 0.555450 0.292389
0.553833 0.579712 0.302643
0.669220 0.594360 0.299622
0.790466 0.603973 0.306122
0.915161 0.614838 0.309967
0.996857 0.645660 0.414398
0.264130 0.585724 0.261658
0.317108 0.596710 0.290039
0.387695 0.614594 0.317139
0.471466 0.640289 0.333832
0.571350 0.665253 0.343231
0.675690 0.687469 0.343109
0.788849 0.706726 0.339294
0.915344 0.723694 0.342957
0.997375 0.743103 0.437592
0.328857 0.679688 0.320160
0.375153 0.690735 0.345612
0.435944 0.702576 0.372070
0.498596 0.723450 0.384613
0.585876 0.746185 0.392548
0.683868 0.770325 0.395996
0.791534 0.795715 0.398499
0.912323 0.821472 0.389465
0.996948 0.838043 0.461761
0.352997 0.771942 0.352722
0.395844 0.785126 0.375031
0.462006 0.794403 0.409180
0.522217 0.811035 0.423950
0.595032 0.832825 0.433350
0.690765 0.856232 0.438019
0.797394 0.882355 0.444977
0.913391 0.911957 0.441345
0.990784 0.916992 0.562469
0.001068 0.054016 0.177460
0.011322 0.068268 0.229401
0.117950 0.067322 0.256104
0.288696 0.064728 0.245728
0.425537 0.062347 0.236420
0.566376 0.076904 0.228058
0.707153 0.105377 0.221436
0.840271 0.154358 0.238220
0.977661 0.196228 0.277954
0.001007 0.107208 0.217468
0.011444 0.114716 0.245941
0.125244 0.127380 0.277893
0.321350 0.108490 0.277466
0.452759 0.078003 0.250488
0.590057 0.093323 0.237183
0.727112 0.127075 0.228302
0.857086 0.179932 0.246857
0.982117 0.271423 0.327881
0.001312 0.185822 0.262604
0.017273 0.194000 0.282867
0.149841 0.223846 0.313995
0.351501 0.222443 0.313751
0.523651 0.212524 0.305450
0.652954 0.199554 0.284088
0.775391 0.201965 0.268951
0.891632 0.237183 0.277679
0.986389 0.344086 0.368530
0.028809 0.290161 0.247925
0.066528 0.303864 0.260284
0.189270 0.334442 0.293243
0.337128 0.329498 0.316864
0.522858 0.362549 0.338104
0.668457 0.365234 0.328217
0.793701 0.363922 0.316864
0.916901 0.363434 0.307373
0.990753 0.440643 0.403473
0.091370 0.397278 0.253540
0.140686 0.415161 0.269012
0.248474 0.440643 0.302734
0.372864 0.448547 0.341339
0.519440 0.475983 0.362457
0.660126 0.489532 0.363281
0.790375 0.495178 0.358551
0.922974 0.495758 0.344147
0.994843 0.545227 0.437531
0.156433 0.496277 0.280273
0.205505 0.512726 0.296387
0.299225 0.533539 0.326111
0.408539 0.547607 0.367645
0.528473 0.573395 0.385956
0.657410 0.596558 0.394714
0.784180 0.609253 0.398102
0.916962 0.617188 0.388153
0.996704 0.645081 0.466644
0.222443 0.587036 0.310242
0.261749 0.600159 0.325409
0.344482 0.618530 0.352081
0.443176 0.632385 0.394562
0.544098 0.659576 0.413696
0.657532 0.684723 0.422089
0.779968 0.708618 0.427032
0.910065 0.726166 0.429474
0.997131 0.744812 0.493591
0.279572 0.673950 0.337860
0.309296 0.685822 0.350525
0.382324 0.702118 0.377655
0.474030 0.714783 0.421906
0.557770 0.740784 0.440552
0.663757 0.767456 0.450226
0.778473 0.794983 0.457092
0.905426 0.823029 0.454346
0.996643 0.840179 0.518585
0.321472 0.766846 0.372192
0.356842 0.781647 0.387268
0.412018 0.794556 0.406647
0.500610 0.804596 0.451019
0.574951 0.827148 0.467621
0.672211 0.852783 0.476501
0.783905 0.880493 0.482819
0.904724 0.911469 0.480957
0.990753 0.921783 0.604340
0.001984 0.077759 0.237640
0.011475 0.092804 0.283447
0.033417 0.097046 0.311951
0.231903 0.095886 0.340302
0.389862 0.083618 0.330811
0.519379 0.070801 0.327698
0.653992 0.093018 0.329498
0.793060 0.138306 0.341125
0.941559 0.161316 0.342682
0.001770 0.128448 0.283569
0.011719 0.137329 0.306427
0.033569 0.145569 0.337982
0.250854 0.153168 0.373383
0.409668 0.111694 0.351257
0.539124 0.093414 0.341736
0.672760 0.109985 0.340729
0.809967 0.160095 0.352844
0.974396 0.177063 0.357880
0.002045 0.202576 0.331635
0.011902 0.213043 0.347443
0.034363 0.226227 0.376343
0.264862 0.252075 0.405273
0.474701 0.237579 0.417725
0.613098 0.214783 0.402374
0.733917 0.194305 0.386200
0.850861 0.208099 0.380646
0.981476 0.285492 0.413330
0.027954 0.296936 0.354950
0.036743 0.306641 0.373016
0.158234 0.336395 0.423096
0.293427 0.357880 0.440033
0.478210 0.360321 0.438324
0.648010 0.371124 0.449097
0.775513 0.368561 0.440063
0.889923 0.378357 0.436951
0.986481 0.414703 0.455109
0.086517 0.401672 0.352386
0.109955 0.413513 0.363678
0.182281 0.437653 0.387054
0.323242 0.459930 0.416779
0.467834 0.462677 0.447662
0.629578 0.490326 0.464722
0.774811 0.504822 0.469574
0.909576 0.505188 0.459625
0.991394 0.533630 0.493103
0.135742 0.501190 0.353455
0.167145 0.514862 0.365417
0.265228 0.541382 0.394745
0.374268 0.556519 0.427887
0.493225 0.563171 0.467316
0.625824 0.589203 0.484528
0.768219 0.612915 0.493011
0.905182 0.625000 0.490631
0.995514 0.644531 0.527893
0.202698 0.593872 0.378448
0.236694 0.607635 0.391815
0.319336 0.626984 0.415436
0.411011 0.640045 0.444550
0.517883 0.649963 0.486298
0.632294 0.676727 0.503540
0.761810 0.706146 0.515320
0.899506 0.730072 0.519318
0.996399 0.747498 0.557434
0.258087 0.682007 0.402710
0.287933 0.695160 0.416565
0.358795 0.710083 0.436981
0.439056 0.722748 0.462769
0.539459 0.733398 0.505493
0.641632 0.761200 0.526306
0.761230 0.790619 0.537506
0.894562 0.823669 0.541016
0.995697 0.843079 0.584778
0.293640 0.771637 0.424438
0.328888 0.787140 0.441010
0.388977 0.799713 0.460022
0.460510 0.812500 0.482727
0.556915 0.823700 0.524902
0.649872 0.848938 0.549377
0.765808 0.880890 0.548096
0.893921 0.912048 0.566681
0.994507 0.932404 0.628021
0.002960 0.099365 0.291504
0.011841 0.120209 0.341461
0.022339 0.134216 0.382355
0.155334 0.133728 0.413940
0.345490 0.123230 0.422424
0.486725 0.109039 0.415161
0.611542 0.100677 0.419830
0.740387 0.125275 0.431976
0.870697 0.184998 0.455933
0.002777 0.154053 0.348511
0.012115 0.165375 0.369507
0.022675 0.180450 0.406708
0.166901 0.192780 0.442291
0.372009 0.177795 0.460022
0.504669 0.137909 0.433624
0.630280 0.129547 0.435883
0.756744 0.146790 0.446014
0.888916 0.223480 0.483307
0.003082 0.223785 0.388519
0.012543 0.236206 0.407349
0.023499 0.251556 0.440155
0.181519 0.278168 0.484467
0.400177 0.283295 0.503723
0.570312 0.253906 0.501129
0.686951 0.228119 0.487823
0.792358 0.198120 0.472534
0.928192 0.305084 0.516724
0.004791 0.309387 0.446472
0.014618 0.321442 0.463623
0.032684 0.333618 0.480865
0.219910 0.372192 0.524353
0.401978 0.381256 0.516418
0.595795 0.387115 0.540131
0.731842 0.386597 0.543457
0.846741 0.384155 0.540771
0.957947 0.408905 0.545044
0.066345 0.404083 0.442810
0.082642 0.416931 0.458862
0.160706 0.439575 0.493622
0.306366 0.468842 0.540741
0.426300 0.477631 0.546326
0.587280 0.490417 0.550751
0.736725 0.508545 0.569824
0.874817 0.513123 0.574463
0.972839 0.527710 0.574951
0.137207 0.504791 0.450134
0.160431 0.518372 0.463165
0.189087 0.529327 0.473907
0.316803 0.560547 0.507111
0.448486 0.572235 0.528503
0.584961 0.582336 0.565277
0.730988 0.609955 0.584106
0.881805 0.631653 0.596558
0.986359 0.641235 0.603485
0.178619 0.597321 0.443878
0.203735 0.610870 0.455261
0.281525 0.631439 0.476990
0.377655 0.649475 0.506134
0.486816 0.659027 0.539764
0.602173 0.669006 0.581787
0.730774 0.698853 0.601257
0.883636 0.734680 0.615662
0.993225 0.751221 0.633636
0.231567 0.685944 0.463135
0.259033 0.700165 0.476349
0.329193 0.716827 0.496063
0.412262 0.731049 0.521606
0.509552 0.742401 0.553680
0.619965 0.753876 0.597382
0.738373 0.784363 0.619141
0.878143 0.823303 0.630646
0.991241 0.848145 0.662445
0.265808 0.777252 0.482452
0.301636 0.794006 0.499237
0.363708 0.807587 0.517853
0.438538 0.820068 0.540619
0.527771 0.832947 0.569977
0.629913 0.848419 0.606476
0.746094 0.881012 0.627869
0.880676 0.912506 0.650696
0.990570 0.935608 0.698425
0.004150 0.121338 0.340118
0.012360 0.151306 0.401276
0.022888 0.172089 0.445160
0.056915 0.181213 0.475830
0.298615 0.177094 0.516052
0.460052 0.160950 0.513428
0.587708 0.149597 0.506805
0.707092 0.156555 0.519562
0.820984 0.183411 0.537720
0.003967 0.184296 0.413696
0.012878 0.197845 0.434601
0.023682 0.214996 0.468262
0.057709 0.227570 0.501251
0.320953 0.242096 0.549103
0.479584 0.200592 0.539764
0.605804 0.182953 0.525757
0.723053 0.190186 0.536530
0.835602 0.238373 0.561401
0.004578 0.248322 0.449432
0.013672 0.262665 0.469116
0.024994 0.277954 0.497589
0.057098 0.294586 0.533661
0.334686 0.326752 0.577576
0.520416 0.316376 0.592316
0.650024 0.272949 0.574738
0.747192 0.238983 0.560883
0.864258 0.345398 0.599945
0.006927 0.326996 0.498260
0.016418 0.340668 0.515015
0.028168 0.352844 0.535065
0.062897 0.371094 0.569916
0.349335 0.415192 0.608765
0.528229 0.414154 0.611115
0.684937 0.410675 0.622345
0.796906 0.408630 0.625519
0.893158 0.446777 0.635376
0.022430 0.410461 0.540985
0.031494 0.423859 0.559509
0.057922 0.438110 0.588623
0.241669 0.471191 0.622833
0.376190 0.499084 0.640045
0.528168 0.503601 0.620422
0.688599 0.515747 0.641296
0.812622 0.527039 0.657104
0.919281 0.551361 0.669830
0.110291 0.506714 0.533905
0.138794 0.522308 0.551178
0.166901 0.533386 0.568878
0.296082 0.562958 0.610168
0.431152 0.581146 0.642212
0.548065 0.589478 0.647705
0.688721 0.607208 0.656158
0.835236 0.626740 0.681976
0.941559 0.657898 0.704407
0.177551 0.599854 0.540680
0.200134 0.614502 0.555176
0.228333 0.625214 0.565887
0.306946 0.645355 0.587036
0.433105 0.666840 0.615082
0.565033 0.676971 0.636383
0.694794 0.692322 0.675201
0.851166 0.729675 0.702850
0.967651 0.760559 0.732605
0.201324 0.688721 0.530792
0.226227 0.704498 0.544128
0.279785 0.719208 0.556091
0.371704 0.737457 0.579254
0.476196 0.753052 0.609955
0.591034 0.762573 0.646667
0.707245 0.780457 0.688354
0.851624 0.818085 0.714905
0.979645 0.856598 0.756531
0.224976 0.780151 0.538788
0.260132 0.798370 0.556000
0.324066 0.813110 0.574310
0.404205 0.827515 0.597107
0.497772 0.842010 0.626160
0.602356 0.856537 0.659698
0.722992 0.879150 0.703522
0.861053 0.911713 0.736267
0.974762 0.937653 0.795654
0.005371 0.146210 0.390076
0.013153 0.185272 0.462402
0.024445 0.209900 0.507660
0.038239 0.231110 0.550323
0.238281 0.243591 0.595612
0.429962 0.227264 0.617065
0.576569 0.218231 0.612305
0.688965 0.215851 0.606354
0.789093 0.231537 0.618439
0.005463 0.217896 0.479584
0.014252 0.233032 0.500916
0.025940 0.250549 0.531281
0.040405 0.270447 0.570404
0.250092 0.291382 0.612610
0.451965 0.288147 0.644196
0.594238 0.258636 0.635254
0.703796 0.253357 0.623962
0.799377 0.279449 0.636078
0.006622 0.275330 0.510529
0.015747 0.290863 0.530579
0.027802 0.306152 0.556610
0.043762 0.326080 0.596161
0.257477 0.355194 0.638885
0.465363 0.364349 0.666290
0.621216 0.350891 0.671509
0.722565 0.305389 0.648102
0.824554 0.375488 0.670288
0.009705 0.346893 0.551483
0.019409 0.362030 0.570312
0.031982 0.374725 0.591370
0.048248 0.391144 0.624298
0.270935 0.427765 0.673279
0.471588 0.445038 0.681915
0.634003 0.444611 0.693970
0.756378 0.436432 0.694275
0.844025 0.470581 0.700592
0.018738 0.426239 0.608917
0.029541 0.440887 0.626770
0.042023 0.451508 0.641083
0.056793 0.463470 0.660217
0.299255 0.504425 0.705231
0.483368 0.529541 0.705994
0.638702 0.532623 0.707153
0.768921 0.537811 0.718781
0.872742 0.562347 0.734619
0.081940 0.509827 0.626099
0.093109 0.525024 0.645233
0.096863 0.535248 0.667969
0.251465 0.561310 0.714630
0.386414 0.587555 0.736633
0.505707 0.607330 0.737854
0.644531 0.616089 0.721985
0.781372 0.630219 0.741852
0.896729 0.660004 0.768036
0.142883 0.601135 0.622192
0.162323 0.617279 0.640533
0.193573 0.628784 0.656952
0.273590 0.647766 0.685303
0.406433 0.671600 0.720612
0.547607 0.685455 0.747345
0.665741 0.698456 0.753296
0.802002 0.716370 0.768463
0.920471 0.755798 0.800995
0.184998 0.689941 0.630157
0.206635 0.706543 0.647186
0.240601 0.718506 0.659393
0.282440 0.730530 0.672150
0.410065 0.755035 0.701385
0.543671 0.773102 0.727570
0.676941 0.788574 0.749969
0.811371 0.807098 0.789429
0.954498 0.857819 0.839905
0.171783 0.781555 0.621704
0.202240 0.800690 0.639648
0.268158 0.816193 0.653412
0.357269 0.833099 0.669800
0.454315 0.850616 0.689056
0.568390 0.867737 0.717560
0.691895 0.887329 0.759430
0.830750 0.907715 0.813751
0.956512 0.938751 0.876190
0.006683 0.174530 0.442444
0.014923 0.220459 0.523407
0.027496 0.245789 0.567352
0.042175 0.266205 0.605927
0.169434 0.278473 0.634003
0.398590 0.296387 0.686401
0.555115 0.291199 0.700867
0.676392 0.284912 0.698883
0.768738 0.287903 0.694489
0.008301 0.253448 0.546082
0.017212 0.268707 0.566071
0.029785 0.285034 0.592407
0.044586 0.301788 0.623932
0.186768 0.317963 0.655243
0.411957 0.339111 0.700165
0.570404 0.337341 0.716400
0.691559 0.327423 0.712646
0.777893 0.332031 0.708344
0.010101 0.304199 0.572235
0.019440 0.320587 0.592651
0.032227 0.335266 0.616028
0.048462 0.352783 0.648804
0.187561 0.371948 0.683624
0.419098 0.399506 0.716614
0.581787 0.401764 0.734711
0.706604 0.396240 0.733124
0.797211 0.410034 0.734100
0.014160 0.368896 0.608093
0.024261 0.385193 0.627930
0.037506 0.398468 0.649017
0.053528 0.413391 0.677368
0.197296 0.437378 0.717499
0.426178 0.471313 0.736969
0.589935 0.475342 0.750702
0.719055 0.477356 0.754486
0.813477 0.491272 0.758301
0.023407 0.442383 0.655151
0.034088 0.458374 0.674622
0.046600 0.469574 0.691101
0.060852 0.481293 0.713043
0.223022 0.508820 0.753326
0.438232 0.543915 0.772125
0.594330 0.551605 0.763977
0.730194 0.560028 0.774933
0.835236 0.572388 0.787720
0.035095 0.519775 0.710907
0.044861 0.534973 0.730072
0.056610 0.544739 0.747131
0.095886 0.560486 0.770996
0.286285 0.586884 0.793549
0.454865 0.616852 0.808746
0.608276 0.632324 0.791534
0.749634 0.641571 0.808563
0.866241 0.659515 0.825348
0.121735 0.602783 0.712952
0.132172 0.618744 0.734375
0.139740 0.629242 0.755981
0.162445 0.643707 0.791687
0.359192 0.670074 0.832031
0.514984 0.694946 0.844269
0.632843 0.711517 0.837341
0.766571 0.727264 0.844116
0.888733 0.750305 0.857178
0.165131 0.690460 0.715759
0.178375 0.707977 0.736328
0.193573 0.719849 0.752625
0.210083 0.731537 0.771820
0.360992 0.758331 0.809875
0.508850 0.781250 0.845642
0.671326 0.796417 0.871613
0.788940 0.818268 0.880768
0.911469 0.840210 0.889191
0.185150 0.779694 0.725403
0.203979 0.799347 0.747131
0.228577 0.815216 0.764008
0.294495 0.832977 0.783386
0.404602 0.852386 0.807220
0.526794 0.873413 0.834473
0.663788 0.895599 0.863678
0.806854 0.917358 0.892609
0.928497 0.933350 0.928375
