src/assets/luts/ON1 Nature & Wildlife LUTs/CinematicX LUTs - 30 Free Cinematic LUTs - The Resolve Store 2022/Gurabo - Rec709.cube
# Copyright: (C) Copyright 2022 The Resolve Store 
# Cannot be resold, shared or otherwise redistributed
TITLE "CinematicX (Rec.709)"
LUT_3D_SIZE 33
0.000580 0.000000 0.000000
0.019928 0.006622 0.006317
0.042053 0.013397 0.013153
0.070923 0.021851 0.021667
0.099030 0.030457 0.029968
0.128357 0.038849 0.038055
0.158661 0.046082 0.044708
0.189636 0.052185 0.049988
0.220673 0.057312 0.054138
0.253326 0.061646 0.057587
0.286194 0.065430 0.060455
0.319702 0.068298 0.062500
0.353668 0.070892 0.064301
0.387695 0.073822 0.066376
0.421661 0.076385 0.068085
0.455963 0.079041 0.069946
0.489990 0.082214 0.072266
0.523712 0.085999 0.075256
0.557281 0.090363 0.078705
0.590668 0.095673 0.083221
0.623413 0.102112 0.088684
0.655914 0.109283 0.094940
0.687866 0.117706 0.102509
0.719421 0.127167 0.111145
0.750549 0.137909 0.121063
0.780945 0.149628 0.131989
0.810852 0.162445 0.144012
0.840179 0.176300 0.157104
0.869019 0.191254 0.171295
0.897339 0.207275 0.186584
0.961517 0.140381 0.118988
0.974976 0.209503 0.187439
0.982300 0.275452 0.252747
0.001434 0.013489 0.001282
0.022583 0.017944 0.007660
0.047668 0.024170 0.015289
0.076019 0.032593 0.023407
0.105377 0.040558 0.031616
0.135223 0.048462 0.039459
0.166168 0.054810 0.046021
0.196472 0.060150 0.051086
0.227753 0.064484 0.055084
0.259430 0.068481 0.058350
0.292480 0.071625 0.060913
0.325134 0.074493 0.062927
0.359344 0.077179 0.065094
0.393036 0.079681 0.066833
0.427795 0.082062 0.068665
0.461334 0.084778 0.070618
0.495483 0.087921 0.072998
0.529114 0.091797 0.076111
0.563263 0.096466 0.080078
0.596161 0.101868 0.084595
0.629486 0.108185 0.090240
0.662231 0.115631 0.096954
0.694275 0.124298 0.104858
0.726166 0.134216 0.114075
0.757233 0.145111 0.124207
0.788239 0.157166 0.135742
0.817993 0.170258 0.148041
0.847626 0.184509 0.161652
0.876343 0.199738 0.176147
0.910400 0.204346 0.180237
0.966736 0.162109 0.137451
0.977173 0.235474 0.210297
0.984131 0.293945 0.268372
0.005981 0.029877 0.003174
0.029510 0.036804 0.008606
0.051056 0.039948 0.015930
0.078766 0.046997 0.023926
0.109375 0.054932 0.032806
0.139404 0.061005 0.040161
0.170441 0.066498 0.046570
0.201050 0.070526 0.051453
0.232178 0.073639 0.055359
0.264069 0.076324 0.058807
0.296539 0.078491 0.061127
0.329773 0.080872 0.063263
0.363159 0.083557 0.065277
0.396820 0.085907 0.067047
0.430634 0.088257 0.068756
0.464661 0.090881 0.070770
0.498413 0.094116 0.073273
0.532074 0.097992 0.076416
0.565521 0.102539 0.080261
0.598602 0.107880 0.084869
0.631439 0.114349 0.090546
0.664246 0.121826 0.097412
0.695801 0.130432 0.105133
0.727264 0.140320 0.114288
0.757996 0.151154 0.124359
0.788757 0.163239 0.135803
0.818878 0.176422 0.148376
0.848145 0.190582 0.161804
0.877014 0.205872 0.176422
0.911560 0.209290 0.179413
0.966827 0.167328 0.136719
0.977081 0.241791 0.210663
0.984314 0.302094 0.270508
0.011902 0.048492 0.002533
0.035614 0.054077 0.006927
0.058716 0.061676 0.017609
0.082489 0.066711 0.024811
0.112061 0.072693 0.032867
0.142365 0.078674 0.039978
0.174500 0.083099 0.046326
0.205048 0.086365 0.051239
0.236938 0.088379 0.055298
0.268982 0.089813 0.058777
0.301239 0.090302 0.061188
0.334290 0.090607 0.063477
0.367676 0.091400 0.065369
0.401123 0.093475 0.067169
0.434784 0.095367 0.068939
0.468628 0.097595 0.071014
0.502014 0.100861 0.073700
0.535522 0.104523 0.076721
0.568878 0.109039 0.080627
0.601562 0.114410 0.085266
0.634125 0.120972 0.091064
0.666168 0.128418 0.097717
0.698151 0.137177 0.105835
0.729095 0.146942 0.114807
0.759766 0.157806 0.124939
0.790253 0.169830 0.136383
0.819794 0.182831 0.148621
0.848969 0.197021 0.162109
0.877777 0.212280 0.176727
0.911194 0.216461 0.180298
0.967163 0.174408 0.137695
0.977051 0.248779 0.211456
0.984406 0.309723 0.271851
0.021362 0.071869 0.003601
0.044952 0.079132 0.011597
0.066406 0.085052 0.020233
0.089294 0.088623 0.026764
0.114990 0.093384 0.033447
0.144745 0.098114 0.039734
0.176605 0.102661 0.045471
0.208618 0.106049 0.050385
0.240997 0.108124 0.054474
0.273499 0.109283 0.057892
0.306580 0.109558 0.060699
0.339661 0.108978 0.063110
0.372955 0.108246 0.065338
0.406067 0.107727 0.067047
0.439758 0.107269 0.069153
0.473083 0.107880 0.071289
0.506500 0.109161 0.073975
0.539642 0.111603 0.077118
0.572540 0.116150 0.081207
0.605133 0.121521 0.085907
0.637421 0.127960 0.091675
0.669464 0.135468 0.098480
0.701019 0.144287 0.106659
0.731995 0.154053 0.115692
0.762543 0.164886 0.125916
0.792572 0.176849 0.137207
0.821991 0.189911 0.149536
0.851013 0.203949 0.162964
0.879608 0.219208 0.177551
0.914825 0.218842 0.176605
0.967773 0.183258 0.140350
0.977264 0.258331 0.214935
0.984558 0.317871 0.273834
0.034454 0.102142 0.015442
0.054260 0.105469 0.021240
0.073639 0.108643 0.025787
0.095856 0.112122 0.030731
0.120789 0.116394 0.036041
0.148743 0.120178 0.041138
0.178772 0.124390 0.045868
0.211121 0.128113 0.049835
0.244049 0.130737 0.053070
0.277130 0.132324 0.056671
0.310242 0.133118 0.059723
0.343597 0.133118 0.062347
0.377136 0.132507 0.064484
0.411011 0.131622 0.066620
0.444824 0.130219 0.069061
0.478180 0.128967 0.071533
0.511475 0.127747 0.074158
0.544373 0.127411 0.077637
0.577148 0.127991 0.081787
0.609558 0.129852 0.086487
0.641510 0.135956 0.092499
0.673157 0.143280 0.099487
0.704346 0.151733 0.107513
0.735199 0.161591 0.116791
0.765594 0.172516 0.127136
0.795502 0.184418 0.138397
0.824982 0.197449 0.150848
0.853546 0.211578 0.164246
0.882202 0.226318 0.178436
0.920380 0.218842 0.170380
0.968689 0.195099 0.146057
0.977600 0.269348 0.219666
0.984924 0.328064 0.277863
0.046356 0.126923 0.026642
0.063385 0.129761 0.030487
0.081177 0.133026 0.034180
0.102631 0.136292 0.037964
0.127167 0.140167 0.042023
0.153839 0.144775 0.046082
0.183533 0.148346 0.049622
0.214600 0.151917 0.051697
0.247253 0.154938 0.053802
0.280304 0.157349 0.056213
0.313538 0.158722 0.058716
0.347107 0.159485 0.061127
0.380890 0.159485 0.063599
0.414856 0.159180 0.065948
0.448486 0.158356 0.068420
0.482330 0.157227 0.071198
0.515625 0.156219 0.074158
0.548767 0.155212 0.077820
0.581665 0.154724 0.082184
0.613922 0.154694 0.087280
0.645905 0.156067 0.093414
0.677429 0.159058 0.100647
0.708588 0.164368 0.108856
0.739166 0.172089 0.118103
0.769165 0.180939 0.128357
0.798828 0.192322 0.139740
0.827942 0.205414 0.152252
0.856476 0.219482 0.165710
0.885529 0.233582 0.179291
0.926849 0.217834 0.162994
0.969727 0.208008 0.152557
0.978180 0.282654 0.226746
0.985443 0.339294 0.282806
0.058594 0.151520 0.037140
0.073212 0.154663 0.040466
0.088928 0.157806 0.043549
0.109833 0.161163 0.046906
0.133301 0.165436 0.050079
0.160095 0.170074 0.053680
0.189117 0.174561 0.056458
0.219818 0.178223 0.058228
0.251709 0.181152 0.058990
0.284271 0.183716 0.059174
0.317139 0.185608 0.059967
0.350189 0.186920 0.060333
0.383881 0.187622 0.062134
0.417908 0.187988 0.064972
0.451782 0.187897 0.067566
0.485718 0.187408 0.070648
0.519104 0.186920 0.073853
0.552368 0.186401 0.077820
0.585236 0.186066 0.082367
0.617828 0.185974 0.087921
0.649780 0.186646 0.094360
0.681427 0.188202 0.101807
0.712280 0.191010 0.110138
0.742920 0.195221 0.119598
0.772888 0.201019 0.130005
0.802490 0.208923 0.141479
0.831451 0.217987 0.154114
0.859955 0.229065 0.167725
0.889374 0.241547 0.179993
0.934448 0.216431 0.154297
0.970795 0.222931 0.161011
0.978760 0.296173 0.233826
0.986023 0.351562 0.288727
0.071259 0.177460 0.047760
0.084351 0.180481 0.050995
0.098602 0.183685 0.053864
0.117798 0.187195 0.056702
0.140289 0.191589 0.059814
0.166718 0.196472 0.062897
0.195770 0.201569 0.065521
0.226288 0.205750 0.067291
0.257599 0.209229 0.067932
0.289856 0.211700 0.067444
0.322205 0.213898 0.066010
0.354523 0.215424 0.064148
0.387329 0.216522 0.062988
0.420593 0.217377 0.063782
0.454285 0.217957 0.066498
0.488220 0.218170 0.069794
0.521759 0.218292 0.073425
0.554962 0.218292 0.077667
0.588043 0.218262 0.082581
0.620850 0.218475 0.088440
0.652924 0.219208 0.095184
0.684509 0.220367 0.102783
0.715698 0.222351 0.111481
0.746185 0.225525 0.121033
0.776367 0.229767 0.131714
0.805817 0.235535 0.143463
0.834778 0.242737 0.156219
0.863373 0.251465 0.170105
0.893097 0.259338 0.181610
0.941559 0.225006 0.146210
0.971893 0.244110 0.170746
0.979462 0.312561 0.241669
0.986694 0.365051 0.294891
0.084625 0.203552 0.059723
0.096100 0.206818 0.062134
0.109528 0.210052 0.064636
0.126495 0.214142 0.067688
0.148621 0.218506 0.070435
0.174500 0.223450 0.073151
0.202667 0.228973 0.075989
0.233032 0.234070 0.078125
0.264679 0.238190 0.078613
0.296417 0.241425 0.078278
0.328674 0.243744 0.076721
0.360474 0.245361 0.074310
0.392242 0.246490 0.071198
0.424194 0.247559 0.068298
0.456818 0.248413 0.067535
0.490173 0.249207 0.069580
0.523590 0.249817 0.072998
0.556976 0.250336 0.077423
0.590210 0.250610 0.082764
0.622864 0.251190 0.088806
0.655334 0.251801 0.095886
0.687073 0.253082 0.103729
0.718445 0.254791 0.112671
0.749237 0.257324 0.122650
0.779266 0.260956 0.133606
0.808807 0.265717 0.145599
0.837891 0.271790 0.158661
0.866455 0.279297 0.172668
0.895538 0.286591 0.185577
0.947906 0.248596 0.138947
0.972748 0.276184 0.179474
0.980255 0.334473 0.248322
0.987518 0.382446 0.300934
0.098755 0.230743 0.071289
0.109680 0.233459 0.073456
0.122314 0.237122 0.076141
0.137543 0.241425 0.079163
0.158600 0.246094 0.081818
0.183502 0.251099 0.084473
0.211182 0.256805 0.087219
0.241028 0.262573 0.089600
0.272430 0.267639 0.090912
0.303925 0.271606 0.091095
0.335602 0.274567 0.090240
0.367340 0.276581 0.088196
0.398468 0.277771 0.084900
0.429352 0.278809 0.081177
0.460632 0.279724 0.077362
0.492554 0.280518 0.074554
0.525208 0.281250 0.074493
0.558289 0.281982 0.077332
0.591278 0.282837 0.082611
0.624237 0.283600 0.089081
0.656769 0.284485 0.096405
0.688782 0.285797 0.104645
0.720276 0.287354 0.113861
0.751099 0.289734 0.124207
0.781555 0.292786 0.135559
0.811401 0.296967 0.147827
0.840515 0.302155 0.161072
0.869232 0.308563 0.175385
0.897430 0.316437 0.190582
0.953766 0.277344 0.131622
0.973785 0.308411 0.186096
0.981110 0.359192 0.253723
0.988373 0.402893 0.305969
0.113251 0.258423 0.083160
0.124146 0.261353 0.085663
0.135986 0.265015 0.087952
0.150818 0.269073 0.090912
0.170380 0.274017 0.093872
0.194031 0.279266 0.096558
0.220856 0.285034 0.099243
0.250336 0.290985 0.101685
0.281067 0.296844 0.103607
0.312195 0.301605 0.104584
0.343323 0.305084 0.104248
0.374268 0.307831 0.102844
0.405151 0.309753 0.100647
0.435608 0.310822 0.097198
0.465912 0.311554 0.092987
0.496368 0.312225 0.088684
0.527649 0.312958 0.084625
0.559601 0.313843 0.082275
0.591949 0.314697 0.083374
0.624695 0.315918 0.089355
0.657410 0.317017 0.096863
0.689606 0.318268 0.105408
0.721405 0.319855 0.115143
0.752594 0.322021 0.125671
0.783112 0.324921 0.137299
0.813202 0.328400 0.149933
0.842651 0.332977 0.163544
0.871429 0.338715 0.178040
0.899628 0.345703 0.193573
0.959686 0.307343 0.123413
0.974731 0.338806 0.189117
0.981964 0.384399 0.258026
0.989197 0.424652 0.310486
0.129730 0.286469 0.096313
0.139771 0.289429 0.098114
0.151245 0.292938 0.100220
0.165710 0.297302 0.103149
0.183380 0.302246 0.106476
0.206604 0.307678 0.109161
0.232208 0.313477 0.111938
0.260498 0.319580 0.114624
0.290375 0.325623 0.116821
0.321381 0.330933 0.118225
0.351990 0.335236 0.118652
0.382202 0.338501 0.117920
0.412292 0.340973 0.116455
0.442291 0.342834 0.114075
0.471649 0.343750 0.110657
0.501312 0.344330 0.106354
0.531189 0.345032 0.102081
0.562012 0.345825 0.097992
0.593414 0.346741 0.094421
0.625305 0.347778 0.093384
0.657623 0.348938 0.097778
0.689819 0.350433 0.106354
0.721771 0.352142 0.116241
0.753204 0.354187 0.127228
0.784058 0.356873 0.139038
0.814209 0.360107 0.151886
0.844055 0.364105 0.165833
0.873077 0.369293 0.180725
0.901581 0.375610 0.196594
0.959717 0.344574 0.130402
0.975525 0.369202 0.190826
0.982758 0.410095 0.261597
0.990051 0.447418 0.315186
0.146301 0.314270 0.108490
0.156494 0.317291 0.110901
0.167877 0.321320 0.113342
0.181610 0.325531 0.116058
0.198212 0.330444 0.119293
0.220001 0.335907 0.122314
0.245361 0.341766 0.125031
0.272339 0.347809 0.127655
0.301056 0.353973 0.130157
0.330658 0.359833 0.132141
0.360718 0.364746 0.133209
0.390320 0.368683 0.133331
0.419556 0.371582 0.132416
0.448669 0.373962 0.130798
0.477875 0.375671 0.128510
0.506531 0.376465 0.124908
0.535706 0.377014 0.120819
0.565277 0.377869 0.116852
0.595612 0.378754 0.112976
0.626648 0.379700 0.109985
0.658081 0.380981 0.108795
0.689850 0.382324 0.110626
0.721649 0.384033 0.117706
0.753204 0.386169 0.128601
0.784363 0.388641 0.140808
0.814972 0.391571 0.153992
0.844849 0.395416 0.168152
0.874115 0.400055 0.183289
0.903656 0.404968 0.197388
0.955750 0.383972 0.147156
0.976227 0.399384 0.190826
0.983521 0.436127 0.264465
0.990814 0.470642 0.319397
0.164551 0.342743 0.122437
0.174500 0.345398 0.124298
0.185699 0.349426 0.126740
0.198975 0.353638 0.129272
0.215302 0.358612 0.132629
0.235016 0.364014 0.135712
0.259491 0.369843 0.138428
0.285248 0.375916 0.141205
0.312592 0.381989 0.143951
0.341217 0.387817 0.146118
0.369965 0.393219 0.147705
0.398895 0.397797 0.148590
0.427460 0.401337 0.148407
0.455536 0.404114 0.147400
0.483795 0.406128 0.145599
0.512085 0.407776 0.143158
0.540344 0.408783 0.139893
0.569214 0.409363 0.135895
0.598450 0.410370 0.132416
0.628510 0.411377 0.129120
0.659149 0.412659 0.126862
0.690216 0.414185 0.126099
0.721649 0.415741 0.127563
0.752869 0.417694 0.132568
0.784058 0.420135 0.142548
0.814850 0.423035 0.155884
0.845123 0.426575 0.170380
0.874695 0.430908 0.185913
0.905457 0.434235 0.196960
0.952240 0.420288 0.158813
0.976807 0.429169 0.188538
0.984161 0.462341 0.266449
0.991486 0.494110 0.322815
0.183350 0.370453 0.136383
0.193085 0.373108 0.137848
0.204132 0.377258 0.140442
0.216583 0.381531 0.143036
0.231964 0.386505 0.146454
0.251190 0.391785 0.149536
0.273926 0.397278 0.152283
0.298431 0.403229 0.155151
0.325073 0.409332 0.157990
0.351959 0.415253 0.160339
0.379822 0.420715 0.162292
0.407745 0.425751 0.163696
0.435638 0.429840 0.164124
0.463165 0.433105 0.163635
0.490265 0.435608 0.162354
0.517487 0.437653 0.160461
0.545258 0.439392 0.158264
0.573242 0.440460 0.155090
0.601807 0.441345 0.151733
0.630890 0.442444 0.148560
0.660736 0.443848 0.146057
0.691101 0.445465 0.144745
0.721832 0.447235 0.144836
0.752808 0.449158 0.146729
0.783661 0.451538 0.151306
0.814545 0.454224 0.159973
0.844788 0.457581 0.172668
0.874664 0.461578 0.188446
0.906006 0.464478 0.198822
0.949677 0.454193 0.164734
0.977325 0.458893 0.183716
0.984741 0.488861 0.267426
0.992126 0.518127 0.325958
0.202667 0.398102 0.150665
0.211975 0.400787 0.152191
0.222504 0.404663 0.154541
0.234924 0.409027 0.157288
0.250000 0.413818 0.160553
0.267731 0.419037 0.163879
0.289490 0.424377 0.166504
0.312683 0.430115 0.169373
0.337524 0.436066 0.172150
0.363434 0.441895 0.174713
0.390015 0.447418 0.176819
0.416840 0.452667 0.178467
0.444000 0.457214 0.179443
0.470764 0.461060 0.179626
0.497101 0.464081 0.178864
0.523560 0.466461 0.177429
0.550171 0.468597 0.175629
0.577576 0.470459 0.173401
0.605225 0.471802 0.170715
0.633606 0.473022 0.167725
0.662781 0.474365 0.165192
0.692352 0.476135 0.163666
0.722473 0.478027 0.163330
0.752930 0.480225 0.164459
0.783539 0.482635 0.167419
0.814117 0.485291 0.172638
0.844391 0.488495 0.180756
0.874237 0.492218 0.192444
0.905365 0.495270 0.202454
0.947205 0.487518 0.170319
0.977142 0.489746 0.182465
0.985229 0.515472 0.267578
0.992737 0.542358 0.329071
0.222137 0.424988 0.165009
0.231262 0.427673 0.166534
0.241547 0.431854 0.169128
0.253662 0.435944 0.171692
0.267456 0.440552 0.174835
0.284637 0.445557 0.178009
0.305328 0.450928 0.180969
0.327515 0.456421 0.183716
0.350677 0.462036 0.186371
0.375183 0.467834 0.189087
0.400665 0.473419 0.191498
0.426392 0.478699 0.193390
0.452362 0.483643 0.194733
0.478394 0.487885 0.195312
0.504242 0.491425 0.195190
0.529968 0.494263 0.194061
0.555847 0.496674 0.192413
0.582214 0.498871 0.190521
0.609161 0.501068 0.188812
0.636658 0.502747 0.186401
0.665131 0.504303 0.183990
0.694122 0.506012 0.182343
0.723541 0.508148 0.181854
0.753448 0.510529 0.182617
0.783630 0.513123 0.184845
0.813965 0.515930 0.188965
0.844025 0.519073 0.195221
0.873779 0.522705 0.204010
0.904358 0.526062 0.211609
0.945068 0.520325 0.178070
0.976501 0.520477 0.184113
0.985718 0.542084 0.267609
0.993225 0.566772 0.331848
0.241455 0.451721 0.179688
0.250458 0.454315 0.181213
0.260406 0.458496 0.183807
0.272278 0.462494 0.186401
0.285370 0.466888 0.189453
0.301025 0.471802 0.192810
0.320862 0.476959 0.195648
0.341614 0.482117 0.198273
0.363953 0.487640 0.201019
0.387573 0.493134 0.203674
0.411377 0.498657 0.205963
0.436188 0.503906 0.208008
0.461182 0.508972 0.209625
0.486298 0.513611 0.210541
0.511444 0.517548 0.210785
0.536469 0.520935 0.210327
0.561768 0.523895 0.209198
0.587372 0.526428 0.207520
0.613342 0.528900 0.205719
0.640259 0.531097 0.204010
0.667725 0.533203 0.202179
0.695953 0.535217 0.200562
0.725159 0.537384 0.199768
0.754395 0.539886 0.200317
0.784058 0.542725 0.202332
0.813904 0.545746 0.205963
0.843750 0.549072 0.211365
0.873383 0.552734 0.219055
0.903687 0.556366 0.226196
0.943848 0.551819 0.192230
0.976135 0.550415 0.188263
0.986115 0.568848 0.268036
0.993713 0.591400 0.334473
0.260406 0.477356 0.194397
0.269257 0.480225 0.196106
0.279053 0.484314 0.198669
0.290344 0.488342 0.201355
0.303192 0.492645 0.204346
0.318268 0.497253 0.207489
0.335693 0.501953 0.210205
0.356110 0.507019 0.212799
0.376923 0.512268 0.215424
0.398895 0.517670 0.218048
0.422516 0.523071 0.220337
0.445984 0.528320 0.222473
0.469818 0.533386 0.224274
0.494171 0.538177 0.225464
0.518677 0.542603 0.226074
0.543121 0.546509 0.225952
0.567902 0.549927 0.225311
0.592712 0.552887 0.224030
0.618073 0.555664 0.222473
0.644104 0.558258 0.220764
0.670868 0.560883 0.219452
0.698364 0.563385 0.218201
0.726624 0.565918 0.217468
0.755737 0.568420 0.217682
0.784973 0.571472 0.219299
0.814362 0.574707 0.222565
0.843964 0.578247 0.227722
0.873474 0.582062 0.234741
0.903534 0.585754 0.241058
0.943024 0.582275 0.209045
0.975922 0.579590 0.196655
0.986481 0.595673 0.272217
0.994110 0.616241 0.338104
0.278656 0.502594 0.209442
0.287109 0.505402 0.211029
0.296875 0.509460 0.213623
0.308014 0.513428 0.216248
0.320068 0.517578 0.219147
0.333710 0.521942 0.222260
0.350952 0.526550 0.224915
0.369690 0.531281 0.227417
0.390076 0.536407 0.229980
0.410828 0.541504 0.232483
0.432831 0.546722 0.234802
0.455597 0.551941 0.236938
0.478607 0.557037 0.238739
0.502167 0.561951 0.240112
0.525848 0.566528 0.240936
0.549683 0.570953 0.241302
0.573975 0.574738 0.240967
0.598297 0.578247 0.240173
0.623047 0.581360 0.238800
0.648346 0.584351 0.237213
0.674408 0.587372 0.235840
0.701202 0.590332 0.235077
0.728638 0.593292 0.234558
0.756897 0.596222 0.234711
0.786133 0.599335 0.235962
0.815369 0.602783 0.238892
0.844635 0.606598 0.243713
0.873840 0.610626 0.250397
0.903900 0.614349 0.255524
0.942444 0.612000 0.225647
0.976105 0.608215 0.205170
0.986847 0.622620 0.280304
0.994476 0.641327 0.345184
0.296265 0.526672 0.224121
0.304596 0.529327 0.225708
0.313873 0.533783 0.228455
0.324585 0.537842 0.231232
0.336121 0.541718 0.233948
0.349365 0.546082 0.237122
0.365387 0.550476 0.239685
0.383118 0.554993 0.242035
0.401978 0.559692 0.244354
0.422485 0.564819 0.246826
0.443695 0.569824 0.249023
0.465302 0.574951 0.251129
0.487518 0.580017 0.252991
0.510162 0.584930 0.254425
0.533386 0.589722 0.255432
0.556488 0.594269 0.256012
0.580078 0.598602 0.256042
0.604034 0.602509 0.255585
0.628265 0.606110 0.254669
0.652954 0.609619 0.253479
0.678284 0.612885 0.251953
0.704376 0.616180 0.250946
0.731171 0.619537 0.250702
0.758789 0.622925 0.251038
0.787262 0.626495 0.252136
0.816467 0.630157 0.254791
0.845703 0.634125 0.259369
0.874603 0.638397 0.265747
0.904724 0.642181 0.269257
0.942352 0.640656 0.240875
0.975464 0.637512 0.220001
0.987183 0.649506 0.289581
0.994843 0.666351 0.353577
0.313141 0.550354 0.238831
0.321472 0.553314 0.240601
0.330597 0.557861 0.243469
0.340790 0.561462 0.245911
0.351959 0.565308 0.248566
0.364624 0.569458 0.251465
0.379120 0.573578 0.254150
0.396393 0.578003 0.256470
0.414551 0.582611 0.258759
0.433746 0.587402 0.261017
0.453857 0.592316 0.263245
0.474945 0.597382 0.265320
0.496399 0.602325 0.267059
0.518250 0.607330 0.268585
0.540680 0.612091 0.269684
0.563232 0.616852 0.270386
0.586273 0.621368 0.270508
0.609528 0.625702 0.270294
0.633240 0.629822 0.269623
0.657349 0.633636 0.268646
0.682068 0.637421 0.267487
0.707581 0.641144 0.266418
0.733978 0.644867 0.265930
0.761017 0.648712 0.266541
0.788879 0.652679 0.267853
0.817413 0.656708 0.270386
0.846588 0.660919 0.274597
0.875610 0.665405 0.280701
0.906158 0.669189 0.281921
0.942810 0.668518 0.254974
0.974182 0.666840 0.240326
0.987579 0.676453 0.299927
0.995209 0.691315 0.362610
0.329132 0.573181 0.253296
0.337341 0.576385 0.255188
0.346130 0.580902 0.257996
0.356049 0.584595 0.260498
0.366974 0.588287 0.263062
0.379059 0.592255 0.265900
0.392761 0.596191 0.268402
0.408691 0.600525 0.270844
0.426392 0.604919 0.272949
0.444824 0.609528 0.275024
0.464264 0.614288 0.277039
0.483917 0.619110 0.279053
0.504669 0.624084 0.280762
0.525726 0.628998 0.282104
0.547272 0.633820 0.283203
0.569275 0.638611 0.283844
0.591583 0.643341 0.284088
0.614349 0.647980 0.283997
0.637543 0.652496 0.283661
0.661407 0.656830 0.282806
0.685760 0.661011 0.282013
0.710876 0.665161 0.281311
0.736816 0.669312 0.280792
0.763458 0.673584 0.281158
0.790985 0.677856 0.282684
0.818939 0.682312 0.285339
0.847473 0.686920 0.289429
0.876465 0.691681 0.295410
0.907928 0.695496 0.293427
0.943512 0.695618 0.268433
0.973267 0.695282 0.259644
0.987976 0.703186 0.311523
0.995697 0.716125 0.372406
0.344421 0.595734 0.267578
0.352386 0.598602 0.269226
0.360901 0.603363 0.272156
0.370331 0.606903 0.274567
0.380737 0.610474 0.276947
0.392151 0.614197 0.279510
0.404755 0.618347 0.282410
0.419922 0.622375 0.284546
0.436432 0.626556 0.286438
0.453888 0.630920 0.288300
0.472412 0.635529 0.290100
0.491791 0.640350 0.291840
0.511353 0.645142 0.293335
0.531860 0.650024 0.294586
0.552887 0.654907 0.295593
0.574127 0.659851 0.296387
0.596130 0.664703 0.296783
0.618500 0.669525 0.296844
0.641510 0.674286 0.296631
0.665131 0.679077 0.296204
0.689301 0.683685 0.295654
0.714050 0.688232 0.295197
0.739594 0.692902 0.295074
0.765961 0.697510 0.295380
0.793121 0.702332 0.296783
0.820740 0.707123 0.299591
0.848877 0.712097 0.303772
0.877350 0.717224 0.309631
0.909363 0.721191 0.303833
0.944000 0.722198 0.282471
0.972626 0.722992 0.279053
0.988434 0.729584 0.324829
0.996216 0.740509 0.381775
0.357361 0.617493 0.280945
0.365143 0.620270 0.282501
0.373047 0.624634 0.285004
0.382172 0.628571 0.287506
0.392334 0.632111 0.289703
0.402924 0.635803 0.292053
0.415375 0.639740 0.294586
0.428650 0.643799 0.297119
0.444733 0.647858 0.298859
0.461487 0.652130 0.300629
0.478973 0.656464 0.302277
0.497833 0.661163 0.303741
0.517151 0.665894 0.305115
0.536957 0.670715 0.306427
0.557434 0.675629 0.307434
0.578644 0.680664 0.308197
0.600189 0.685608 0.308716
0.622345 0.690643 0.308929
0.645233 0.695648 0.308868
0.668396 0.700684 0.308716
0.692444 0.705688 0.308472
0.717010 0.710693 0.308350
0.742371 0.715729 0.308441
0.768311 0.720795 0.309052
0.795227 0.726013 0.310455
0.822723 0.731232 0.313141
0.850555 0.736511 0.317474
0.878754 0.741974 0.323334
0.911041 0.746124 0.312775
0.943695 0.748291 0.297302
0.972076 0.749969 0.297699
0.988953 0.755829 0.339630
0.996735 0.764648 0.390717
0.368134 0.638245 0.292877
0.375732 0.641571 0.294647
0.383270 0.646179 0.297150
0.392273 0.649963 0.299316
0.402161 0.653503 0.301483
0.412354 0.656982 0.303589
0.424194 0.660858 0.305939
0.436707 0.664764 0.308319
0.451294 0.668823 0.310394
0.467743 0.673004 0.312103
0.485016 0.677368 0.313629
0.503204 0.681854 0.315002
0.522156 0.686584 0.316345
0.541443 0.691345 0.317535
0.561768 0.696259 0.318542
0.582611 0.701263 0.319305
0.604034 0.706360 0.319885
0.625916 0.711517 0.320251
0.648346 0.716644 0.320435
0.671478 0.721893 0.320435
0.695282 0.727234 0.320526
0.719757 0.732574 0.320648
0.744873 0.737915 0.320984
0.770691 0.743378 0.321838
0.797363 0.748962 0.323547
