src/assets/luts/ON1 Nature & Wildlife LUTs/CinematicX LUTs - 30 Free Cinematic LUTs - The Resolve Store 2022/Indio - Rec709.cube
# Copyright: (C) Copyright 2022 The Resolve Store 
# Cannot be resold, shared or otherwise redistributed
TITLE "CinematicX (Rec.709)"
LUT_3D_SIZE 9
0.001770 0.001190 0.001770
0.085968 0.001740 0.000854
0.186371 0.008606 0.001892
0.303986 0.015320 0.002441
0.421326 0.026123 0.004089
0.535309 0.040863 0.006287
0.649567 0.057281 0.009064
0.765686 0.074768 0.012024
0.883636 0.091705 0.014740
0.014832 0.086151 0.001709
0.092682 0.090424 0.001160
0.206024 0.100189 0.001282
0.321930 0.106537 0.002075
0.434937 0.116821 0.003601
0.546539 0.131378 0.005737
0.659302 0.148438 0.008423
0.774292 0.166992 0.011261
0.891418 0.184814 0.013824
0.027679 0.192993 0.001648
0.106140 0.199677 0.001556
0.218597 0.208923 0.002991
0.341675 0.220551 0.004181
0.455597 0.228394 0.004974
0.567047 0.239594 0.006775
0.678345 0.253479 0.009003
0.791321 0.268738 0.011383
0.906525 0.283997 0.013641
0.052399 0.312531 0.003174
0.130371 0.320526 0.003357
0.241913 0.328247 0.005768
0.364502 0.341736 0.011200
0.476776 0.354065 0.012390
0.586487 0.361298 0.010742
0.698242 0.368683 0.010742
0.811981 0.377472 0.011749
0.927979 0.387878 0.012939
0.116150 0.430603 0.011993
0.188568 0.438385 0.012451
0.295166 0.447540 0.016388
0.400604 0.454102 0.022186
0.498596 0.468781 0.028687
0.602173 0.482391 0.024811
0.712708 0.490356 0.017975
0.828186 0.495544 0.014526
0.947327 0.501617 0.013000
0.214966 0.537292 0.029846
0.278015 0.542847 0.031006
0.362427 0.548492 0.035461
0.446625 0.555237 0.042297
0.525421 0.563202 0.045258
0.612366 0.580444 0.046478
0.719879 0.600769 0.035614
0.839203 0.614655 0.022614
0.962524 0.621979 0.015198
0.308868 0.627533 0.078308
0.358551 0.630035 0.096680
0.421082 0.635071 0.123566
0.488647 0.642456 0.143463
0.556366 0.650299 0.144043
0.628937 0.662781 0.117401
0.722717 0.688904 0.054688
0.841980 0.719482 0.035736
0.972626 0.740082 0.019379
0.345520 0.707428 0.166992
0.392822 0.710815 0.175201
0.451447 0.715698 0.186340
0.513916 0.723267 0.194733
0.579315 0.732788 0.193237
0.648499 0.743927 0.174225
0.729645 0.764160 0.129395
0.837433 0.801636 0.045624
0.966278 0.841125 0.026398
0.343445 0.787537 0.201630
0.398010 0.792145 0.207153
0.459167 0.798431 0.214508
0.524292 0.806030 0.219818
0.592926 0.816589 0.218292
0.665283 0.829712 0.204498
0.743408 0.845612 0.170319
0.836212 0.872650 0.085663
0.930847 0.900330 0.313873
0.016907 0.023071 0.055786
0.086700 0.018921 0.090149
0.182739 0.000031 0.081635
0.302307 0.000000 0.077850
0.421082 0.000092 0.072754
0.536682 0.001556 0.066132
0.653595 0.012634 0.064392
0.776184 0.046753 0.069763
0.893585 0.070892 0.077545
0.014526 0.101990 0.082184
0.081116 0.099243 0.084442
0.216675 0.079010 0.052490
0.338043 0.064972 0.052582
0.449677 0.062469 0.054626
0.559052 0.068176 0.055115
0.670929 0.093750 0.060516
0.784821 0.124542 0.068756
0.900085 0.156708 0.074493
0.000580 0.198029 0.058228
0.040649 0.206757 0.030762
0.212280 0.211456 0.036224
0.350739 0.217133 0.053070
0.467438 0.219177 0.052338
0.577545 0.228363 0.059113
0.687866 0.241272 0.066040
0.800354 0.256287 0.073212
0.914795 0.272217 0.080292
0.002167 0.307281 0.020569
0.039825 0.317780 0.015442
0.211121 0.333527 0.016846
0.360901 0.344421 0.030701
0.483124 0.353333 0.051300
0.593262 0.358215 0.066284
0.704620 0.364929 0.074768
0.817657 0.373749 0.081329
0.932892 0.384308 0.086914
0.034637 0.423798 0.021027
0.112701 0.433228 0.021881
0.257050 0.449921 0.025726
0.388550 0.457855 0.034302
0.496490 0.470856 0.046783
0.605682 0.482666 0.062866
0.717316 0.489105 0.078156
0.832581 0.493683 0.086548
0.951080 0.499878 0.092834
0.143585 0.532593 0.039978
0.229034 0.539703 0.040222
0.333862 0.549622 0.045441
0.434814 0.558838 0.071747
0.521179 0.566864 0.096588
0.611481 0.582550 0.070740
0.722870 0.601868 0.072998
0.843109 0.614685 0.086365
0.966095 0.621185 0.095703
0.275574 0.625122 0.119659
0.330597 0.629913 0.132294
0.403137 0.636078 0.156281
0.478516 0.644592 0.178162
0.551361 0.653290 0.183197
0.626465 0.665283 0.162689
0.722107 0.690796 0.115082
0.844635 0.720978 0.080994
0.975708 0.740479 0.091125
0.328064 0.706970 0.204071
0.379242 0.711456 0.212189
0.438843 0.717133 0.223602
0.505707 0.725250 0.234131
0.575134 0.735382 0.236084
0.646271 0.746796 0.222107
0.728333 0.766388 0.185242
0.837433 0.803497 0.123474
0.967865 0.842590 0.084198
0.332672 0.787964 0.246399
0.389465 0.792816 0.252197
0.451202 0.800629 0.260529
0.518341 0.808441 0.267395
0.589203 0.819183 0.269073
0.663544 0.832794 0.261322
0.743103 0.848877 0.237518
0.836090 0.875244 0.184906
0.931885 0.903198 0.383698
0.038940 0.061859 0.156067
0.069794 0.075836 0.235291
0.184784 0.036377 0.191803
0.289825 0.000000 0.173950
0.407623 0.000000 0.178558
0.525726 0.000366 0.181335
0.643860 0.001892 0.183807
0.765381 0.004852 0.183624
0.882538 0.007874 0.179718
0.036987 0.123199 0.184021
0.059326 0.130402 0.211578
0.206329 0.099945 0.211243
0.340302 0.034485 0.185852
0.447174 0.039276 0.174133
0.553650 0.044800 0.169373
0.662872 0.048645 0.167786
0.778870 0.055756 0.165771
0.898071 0.087921 0.165771
0.026764 0.217529 0.182648
0.046417 0.224548 0.189270
0.189026 0.217926 0.195953
0.352783 0.210724 0.188019
0.479370 0.198578 0.157867
0.590576 0.199036 0.142609
0.699554 0.204834 0.148956
0.811096 0.211212 0.152588
0.920502 0.224701 0.154663
0.004974 0.326569 0.163727
0.030273 0.333282 0.151367
0.184631 0.345184 0.158905
0.358673 0.351318 0.185394
0.487335 0.355713 0.190735
0.601532 0.355621 0.169403
0.714813 0.358032 0.161469
0.830017 0.361084 0.159698
0.944489 0.367523 0.157227
0.013550 0.432251 0.136841
0.039307 0.438110 0.114105
0.200897 0.456848 0.122406
0.373871 0.468994 0.168243
0.497253 0.478699 0.193115
0.611755 0.486359 0.196106
0.726227 0.486847 0.167267
0.843048 0.488678 0.159821
0.961273 0.494385 0.170959
0.032623 0.524750 0.096191
0.055511 0.529022 0.068268
0.259766 0.549652 0.101929
0.406891 0.564789 0.169220
0.511810 0.573669 0.192657
0.610931 0.588104 0.182404
0.729309 0.605011 0.183197
0.852509 0.613495 0.156311
0.974335 0.618591 0.176849
0.120392 0.615753 0.135071
0.236145 0.621735 0.153625
0.342926 0.633789 0.176941
0.447906 0.645599 0.208984
0.537079 0.657227 0.223755
0.619629 0.668884 0.209412
0.719604 0.693146 0.164673
0.849762 0.723206 0.147156
0.980042 0.740417 0.166901
0.277496 0.703033 0.237946
0.335632 0.707855 0.244598
0.404205 0.716461 0.257538
0.482880 0.726135 0.272766
0.561951 0.737732 0.281036
0.639130 0.750092 0.273315
0.723816 0.768768 0.242310
0.835571 0.805420 0.187744
0.969513 0.844421 0.160095
0.307373 0.787476 0.291748
0.366394 0.791840 0.297943
0.431366 0.799896 0.306396
0.501709 0.809845 0.315887
0.578705 0.821167 0.321503
0.657104 0.835266 0.319305
0.739746 0.851959 0.303680
0.834290 0.878143 0.267975
0.933105 0.905792 0.447113
0.048889 0.095703 0.246094
0.064209 0.107697 0.317108
0.153534 0.095703 0.354340
0.289215 0.050995 0.293243
0.396454 0.012604 0.282318
0.505646 0.000000 0.290588
0.621979 0.001068 0.304230
0.743805 0.003387 0.311157
0.865448 0.007111 0.314850
0.044586 0.146057 0.258911
0.058807 0.154755 0.302765
0.139832 0.152771 0.357941
0.325409 0.090393 0.329865
0.425171 0.031158 0.297272
0.529816 0.023865 0.296814
0.642639 0.034790 0.303009
0.762177 0.046570 0.305878
0.889587 0.091919 0.314697
0.040649 0.237457 0.291168
0.060699 0.244751 0.317871
0.133881 0.254974 0.342926
0.350037 0.223022 0.351837
0.489777 0.189301 0.337250
0.598083 0.164673 0.323608
0.701599 0.149414 0.311768
0.808685 0.163177 0.306122
0.914642 0.199890 0.315552
0.039551 0.348145 0.299530
0.050293 0.353302 0.304291
0.132202 0.369873 0.324738
0.342865 0.369934 0.342529
0.484467 0.361328 0.339447
0.601990 0.357025 0.331635
0.714752 0.355652 0.325104
0.828888 0.356079 0.319763
0.938354 0.364624 0.321655
0.039795 0.456604 0.301361
0.056183 0.462708 0.297455
0.198395 0.476898 0.310181
0.370850 0.487427 0.335938
0.494965 0.487823 0.345123
0.609131 0.489166 0.342194
0.723907 0.489319 0.334656
0.843079 0.491791 0.329865
0.961517 0.492462 0.322754
0.048248 0.550262 0.292603
0.067719 0.553131 0.287537
0.255035 0.566132 0.302246
0.396973 0.578186 0.328979
0.508392 0.583618 0.343201
0.610687 0.593506 0.342682
0.729431 0.608246 0.341034
0.853668 0.615326 0.333527
0.975281 0.617523 0.326416
0.077454 0.628326 0.293915
0.142487 0.630432 0.291138
0.314606 0.641724 0.309479
0.426086 0.654022 0.330719
0.527069 0.664886 0.349304
0.617188 0.675507 0.350433
0.720856 0.698700 0.336517
0.851929 0.727325 0.335785
0.980957 0.741028 0.320435
0.191223 0.705719 0.302216
0.243683 0.707367 0.298981
0.357391 0.715271 0.321045
0.451965 0.728607 0.340759
0.544037 0.741119 0.359406
0.630554 0.754791 0.364258
0.720123 0.773102 0.351288
0.835388 0.810059 0.321167
0.970856 0.847778 0.315338
0.243286 0.786713 0.328857
0.313873 0.790894 0.334106
0.397980 0.796783 0.352966
0.476593 0.808411 0.362854
0.560791 0.821381 0.373474
0.646210 0.836334 0.377380
0.733459 0.854309 0.370636
0.830475 0.880341 0.346558
0.936584 0.910645 0.488861
0.053467 0.125671 0.332672
0.066528 0.133240 0.375305
0.098083 0.139893 0.448273
0.270233 0.098328 0.432251
0.391815 0.061615 0.390137
0.492157 0.041595 0.389893
0.596405 0.014771 0.401978
0.715332 0.004822 0.423218
0.840027 0.009796 0.439392
0.050049 0.173035 0.344879
0.063293 0.180145 0.374512
0.094788 0.191803 0.438232
0.287872 0.160614 0.471527
0.414062 0.083649 0.414032
0.512451 0.061859 0.403961
0.615906 0.035339 0.410706
0.733368 0.036865 0.428009
0.868256 0.090881 0.450592
0.048340 0.261627 0.384705
0.061798 0.268738 0.398346
0.095154 0.284607 0.441681
0.294128 0.276306 0.479462
0.476562 0.221100 0.474579
0.588531 0.184082 0.462280
0.687561 0.134949 0.451752
0.785187 0.109100 0.445129
0.897980 0.223022 0.458618
0.050659 0.370575 0.402954
0.064758 0.376038 0.416748
0.136932 0.392273 0.450378
0.310944 0.403442 0.475952
0.490295 0.382019 0.486908
0.608154 0.361420 0.479919
0.713287 0.350281 0.472321
0.819244 0.350800 0.464661
0.919281 0.374023 0.467651
0.068970 0.477203 0.419067
0.080902 0.480682 0.421967
0.118042 0.492950 0.434753
0.341461 0.508728 0.463379
0.487488 0.507507 0.475464
0.599640 0.495819 0.471527
0.713409 0.491302 0.467712
0.829926 0.490692 0.465332
0.941895 0.495422 0.466614
0.093994 0.571259 0.428650
0.104279 0.572052 0.426331
0.255127 0.583252 0.439606
0.394135 0.592865 0.456268
0.509308 0.598328 0.472931
0.606659 0.599701 0.474915
0.722137 0.608185 0.471588
0.844299 0.613068 0.467224
0.966858 0.615845 0.462250
0.127380 0.646973 0.427216
0.172852 0.647858 0.425903
0.313019 0.657013 0.434052
0.422852 0.665588 0.448914
0.526215 0.674744 0.468170
0.617035 0.681824 0.474091
0.716858 0.698883 0.470551
0.846527 0.725128 0.470215
0.975189 0.737946 0.464142
0.206299 0.721893 0.431763
0.253967 0.723053 0.430817
0.350433 0.729279 0.436249
0.448822 0.736572 0.453339
0.540070 0.747986 0.467957
0.629120 0.759552 0.478241
0.718933 0.775085 0.475494
0.832092 0.808319 0.463989
0.966522 0.845764 0.467102
0.237671 0.799103 0.442902
0.311920 0.802673 0.447327
0.383575 0.807648 0.451599
0.470245 0.814209 0.467041
0.552002 0.826538 0.475952
0.639130 0.840485 0.484009
0.731049 0.858307 0.490387
0.830322 0.883270 0.488647
0.946075 0.922363 0.494843
0.056702 0.157349 0.412872
0.069977 0.165283 0.443939
0.087311 0.180084 0.505035
0.215240 0.168335 0.585419
0.384949 0.101166 0.511353
0.490784 0.074249 0.484558
0.589111 0.062317 0.494843
0.694672 0.051178 0.514954
0.811493 0.022217 0.539215
0.054779 0.205017 0.425598
0.068542 0.212646 0.449036
0.087067 0.231201 0.507141
0.211945 0.229889 0.579163
0.420807 0.164001 0.563995
0.510773 0.098572 0.505157
0.607849 0.086151 0.509583
0.711395 0.074615 0.524780
0.838989 0.094574 0.557343
0.054657 0.290253 0.455017
0.069702 0.296967 0.471069
0.090027 0.314758 0.516968
0.221985 0.326508 0.574005
0.443420 0.290192 0.586151
0.577942 0.225983 0.571808
0.670349 0.183014 0.561707
0.754181 0.117889 0.550323
0.866211 0.259338 0.576874
0.065308 0.395111 0.508575
0.081848 0.400177 0.521576
0.106567 0.411560 0.539032
0.252533 0.429230 0.573700
0.455658 0.421173 0.595856
0.599548 0.385986 0.593719
0.700195 0.364899 0.589905
0.800476 0.347290 0.588043
0.888641 0.387482 0.591309
0.083527 0.496185 0.509369
0.098389 0.499542 0.516602
0.139557 0.510284 0.539276
0.340332 0.524658 0.569916
0.469025 0.532349 0.586090
0.602783 0.518188 0.592865
0.707947 0.501129 0.595276
0.816895 0.489136 0.595734
0.914856 0.503052 0.595673
0.118011 0.587860 0.523926
0.130493 0.589203 0.525909
0.145325 0.592865 0.530884
0.343414 0.609039 0.554596
0.491211 0.618011 0.574097
0.600891 0.615540 0.582367
0.704041 0.611725 0.586884
0.822113 0.610748 0.588623
0.940430 0.613495 0.589996
0.156921 0.664459 0.535370
0.193024 0.665863 0.535583
0.301453 0.674072 0.542480
0.419922 0.681824 0.555206
0.526611 0.688507 0.570557
0.617828 0.691986 0.583435
0.707458 0.699890 0.587372
0.834534 0.720886 0.590759
0.963898 0.730988 0.588409
0.223419 0.737854 0.537384
0.268158 0.739502 0.537048
0.353943 0.744995 0.541840
0.448120 0.751099 0.552490
0.540558 0.758148 0.566711
0.628082 0.766083 0.580475
0.714478 0.776703 0.583008
0.822968 0.802765 0.583374
0.959778 0.839661 0.590149
0.260651 0.814758 0.546692
0.321075 0.817230 0.548553
0.392090 0.821472 0.552246
0.465515 0.827393 0.556427
0.547089 0.835327 0.565430
0.636261 0.845947 0.580231
0.728088 0.860840 0.591827
0.826904 0.882660 0.596313
0.941315 0.918610 0.597473
0.061462 0.196777 0.493530
0.075928 0.205231 0.517426
0.095306 0.224182 0.567505
0.159546 0.239624 0.643738
0.386688 0.187561 0.668030
0.507843 0.123444 0.612244
0.600647 0.101379 0.590179
0.696991 0.097900 0.606964
0.795074 0.093353 0.628296
0.061096 0.243622 0.505676
0.076233 0.251404 0.524811
0.096558 0.270630 0.571228
0.159119 0.290375 0.640076
0.395172 0.257233 0.673645
0.532410 0.167755 0.645752
0.618835 0.131409 0.608459
0.712006 0.126465 0.619751
0.811127 0.152039 0.642975
0.064392 0.323517 0.532379
0.080750 0.330353 0.547760
0.102844 0.346039 0.584473
0.160675 0.366882 0.642944
0.405640 0.352142 0.680695
0.564667 0.307861 0.677917
0.662354 0.231720 0.652893
0.739136 0.170563 0.643463
0.835144 0.294067 0.665680
0.078125 0.419647 0.574158
0.094574 0.424164 0.581573
0.116455 0.435028 0.603821
0.172150 0.452362 0.647247
0.415985 0.456360 0.681824
0.576996 0.431061 0.690979
0.689514 0.394379 0.681793
0.778320 0.372894 0.682220
0.854004 0.409790 0.681610
0.103851 0.516266 0.602936
0.121582 0.519501 0.611908
0.159760 0.527496 0.638519
0.306824 0.540344 0.663727
0.436127 0.550354 0.678925
0.582733 0.545624 0.690491
0.696960 0.522125 0.688324
0.792664 0.504181 0.693939
0.877167 0.517822 0.695251
0.136627 0.605072 0.607880
0.151276 0.606689 0.612213
0.169403 0.611206 0.623993
0.345032 0.626038 0.652069
0.490814 0.634277 0.671417
0.592468 0.639343 0.681183
0.697021 0.628235 0.684143
0.800476 0.616852 0.695862
0.905884 0.619751 0.703827
0.174194 0.682556 0.620392
0.206451 0.684540 0.623138
0.244934 0.688873 0.628601
0.342194 0.698883 0.641846
0.494202 0.708344 0.660187
0.607758 0.712341 0.672821
0.695618 0.707306 0.675568
0.808441 0.715240 0.690094
0.931641 0.722717 0.701447
0.235840 0.757782 0.638245
0.276794 0.759583 0.639679
0.327606 0.763092 0.641327
0.443024 0.769989 0.651154
0.538147 0.775482 0.660034
0.624512 0.779602 0.667419
0.708435 0.782562 0.676331
0.808441 0.798279 0.685913
0.946777 0.832520 0.707336
0.270447 0.831329 0.643433
0.333405 0.834473 0.646545
0.403290 0.839111 0.651245
0.472931 0.843658 0.654785
0.552216 0.849731 0.662079
0.622528 0.859070 0.661072
0.717865 0.867493 0.677155
0.818359 0.882935 0.690033
0.930176 0.911407 0.709564
0.070068 0.242737 0.575134
0.086182 0.250580 0.593109
0.109253 0.270386 0.636139
0.148224 0.300690 0.708588
0.350891 0.286774 0.768250
0.524994 0.212128 0.756897
0.634430 0.174286 0.721680
0.713593 0.158447 0.700409
0.793732 0.157257 0.711670
0.071716 0.288177 0.588409
0.088470 0.294830 0.602570
0.111938 0.311981 0.639252
0.154266 0.343079 0.712341
0.354919 0.334381 0.760162
0.533691 0.287628 0.759460
0.647491 0.216339 0.739380
0.722626 0.195007 0.710052
0.799896 0.214966 0.720001
0.078644 0.360046 0.611053
0.096161 0.365326 0.622192
0.121185 0.379456 0.653229
0.165558 0.405945 0.718079
0.360840 0.406311 0.759247
0.543243 0.375397 0.767975
0.665619 0.330811 0.759766
0.739624 0.252686 0.729889
0.818268 0.328033 0.739746
0.094604 0.446106 0.640350
0.113586 0.450623 0.650269
0.138397 0.460541 0.672516
0.178986 0.478729 0.719604
0.370209 0.488037 0.760101
0.550293 0.472839 0.778107
0.677429 0.443848 0.774017
0.766937 0.408051 0.759338
0.835449 0.433502 0.755951
0.135376 0.538422 0.695312
0.153564 0.540955 0.700043
0.175690 0.547363 0.710754
0.203979 0.557617 0.731262
0.393341 0.570038 0.762085
0.557251 0.570618 0.774719
0.683563 0.553223 0.778717
0.778778 0.527771 0.771484
0.855042 0.534821 0.772034
0.163086 0.623505 0.700958
0.180298 0.625153 0.706665
0.205261 0.629913 0.721344
0.344055 0.640411 0.747864
0.479340 0.648010 0.765839
0.573059 0.656342 0.773376
0.688690 0.651459 0.777740
0.785889 0.633545 0.776245
0.875214 0.631836 0.784668
0.191284 0.701752 0.704254
0.220825 0.704010 0.708588
0.256256 0.708984 0.718781
0.338593 0.719086 0.739166
0.496155 0.728394 0.758484
0.611542 0.733246 0.771271
0.696808 0.734619 0.776489
0.790924 0.722595 0.775970
0.890198 0.724823 0.792511
0.245667 0.778381 0.723969
0.284058 0.780579 0.727051
0.324493 0.784637 0.732300
0.367950 0.790405 0.739746
0.500244 0.799774 0.754089
0.609100 0.805817 0.764832
0.700195 0.807404 0.769684
0.790955 0.799713 0.771484
0.915131 0.820496 0.803589
0.287659 0.855957 0.747498
0.328827 0.857361 0.749023
0.404724 0.861938 0.753876
0.483154 0.866974 0.759491
0.544617 0.872467 0.760071
0.612610 0.878204 0.759491
0.711060 0.879242 0.769043
0.809784 0.885376 0.787903
0.916138 0.905640 0.808563
0.086395 0.292969 0.659821
0.105133 0.300659 0.676208
0.132812 0.318115 0.711670
0.170715 0.340088 0.762756
0.335083 0.339478 0.806580
0.512939 0.314545 0.811340
0.638672 0.277557 0.810425
0.730347 0.247803 0.797394
0.796265 0.227173 0.785065
0.089905 0.333954 0.669403
0.109283 0.340698 0.683533
0.136932 0.356201 0.715302
0.177307 0.378082 0.766632
0.339691 0.378174 0.802856
0.515503 0.356232 0.814636
0.641296 0.326447 0.812164
0.734344 0.292206 0.798859
0.803192 0.289886 0.792725
0.099518 0.396973 0.687531
0.118774 0.401733 0.697540
0.147614 0.414978 0.726318
0.191986 0.435883 0.776764
0.348602 0.438812 0.804626
0.522064 0.423004 0.823120
0.648712 0.400085 0.821533
0.744965 0.377136 0.812897
0.815887 0.371674 0.806061
0.119812 0.474701 0.713104
0.140015 0.478394 0.721527
0.168823 0.488312 0.744568
0.209290 0.503479 0.784119
0.360992 0.510040 0.811432
0.530365 0.505280 0.829529
0.657257 0.488861 0.832703
0.755432 0.470947 0.826904
0.830597 0.462585 0.821442
0.158569 0.559265 0.752258
0.177673 0.561829 0.757690
0.200897 0.567230 0.769440
0.235291 0.577301 0.796997
0.385040 0.586609 0.821747
0.542145 0.591278 0.834442
0.665283 0.582642 0.842621
0.765747 0.567230 0.840271
0.849457 0.554779 0.840515
0.200226 0.642334 0.795258
0.219269 0.643738 0.801880
0.247711 0.647247 0.814880
0.345367 0.654205 0.826141
0.440094 0.664001 0.836700
0.561462 0.671295 0.846985
0.674408 0.670227 0.855774
0.779297 0.658264 0.857574
0.867035 0.646423 0.857758
0.218506 0.721527 0.799042
0.247040 0.723633 0.804718
0.282257 0.728485 0.818451
0.341888 0.736267 0.841614
0.495331 0.744385 0.857513
0.604797 0.748016 0.867188
0.686432 0.751953 0.870392
0.789551 0.745514 0.869385
0.879944 0.736084 0.870667
0.257355 0.801605 0.815308
0.293335 0.803955 0.819336
0.331848 0.808441 0.827637
0.373077 0.815613 0.841705
0.500275 0.826172 0.860992
0.593140 0.832306 0.875610
0.704224 0.830811 0.882080
0.799988 0.828125 0.880859
0.891449 0.822021 0.882599
0.304901 0.879211 0.838623
0.366394 0.882507 0.842987
0.422180 0.886505 0.848297
0.472534 0.891449 0.854004
0.530792 0.897430 0.860718
0.614227 0.900513 0.867798
0.712769 0.901215 0.874939
0.809052 0.903381 0.884918
0.900421 0.903931 0.893799
