src/assets/luts/ON1 Nature & Wildlife LUTs/CinematicX LUTs - 30 Free Cinematic LUTs - The Resolve Store 2022/Indio - Rec709.cube
# Copyright: (C) Copyright 2022 The Resolve Store 
# Cannot be resold, shared or otherwise redistributed
TITLE "CinematicX (Rec.709)"
LUT_3D_SIZE 33
0.001770 0.001190 0.001770
0.023438 0.000366 0.001251
0.043793 0.000610 0.001434
0.064758 0.000885 0.000824
0.085968 0.001740 0.000854
0.108734 0.002594 0.001160
0.132111 0.004486 0.001709
0.158722 0.006653 0.001801
0.186371 0.008606 0.001892
0.215424 0.009308 0.001984
0.244537 0.010284 0.001953
0.274200 0.012573 0.002045
0.303986 0.015320 0.002441
0.333466 0.017487 0.002930
0.362823 0.020233 0.003235
0.392365 0.022919 0.003510
0.421326 0.026123 0.004089
0.450104 0.029480 0.004578
0.478546 0.033173 0.005066
0.507141 0.036621 0.005676
0.535309 0.040863 0.006287
0.563751 0.044769 0.006836
0.592194 0.048950 0.007599
0.620911 0.053070 0.008270
0.649567 0.057281 0.009064
0.678345 0.061584 0.009796
0.707245 0.065918 0.010529
0.736359 0.070282 0.011353
0.765686 0.074768 0.012024
0.795044 0.079102 0.012848
0.824493 0.083405 0.013519
0.854004 0.087799 0.014221
0.883636 0.091705 0.014740
0.001740 0.020813 0.001770
0.021149 0.019867 0.000885
0.043823 0.021271 0.000610
0.065857 0.021790 0.000305
0.088928 0.022614 0.000366
0.113220 0.023132 0.000488
0.138245 0.024231 0.000519
0.164795 0.025848 0.000702
0.192657 0.026611 0.000916
0.220917 0.027679 0.001099
0.249664 0.028168 0.001190
0.278381 0.029388 0.001648
0.307922 0.030731 0.001801
0.337341 0.031677 0.002075
0.366608 0.034393 0.002350
0.395325 0.036652 0.003510
0.424072 0.038879 0.003967
0.452515 0.041412 0.004395
0.480957 0.046051 0.004395
0.509186 0.049896 0.005463
0.537506 0.054108 0.006287
0.565887 0.057770 0.006927
0.594208 0.061829 0.007660
0.622620 0.067657 0.008057
0.651276 0.072266 0.008331
0.679962 0.075653 0.009277
0.708801 0.080597 0.010651
0.737854 0.084930 0.011383
0.767059 0.089905 0.012146
0.796356 0.095795 0.012482
0.825684 0.100891 0.012909
0.855194 0.105194 0.013458
0.885132 0.107513 0.014557
0.005157 0.040466 0.001434
0.024231 0.041016 0.000854
0.042664 0.041229 0.000824
0.065674 0.043152 0.000488
0.090363 0.044952 0.000580
0.115906 0.046387 0.000641
0.142426 0.047668 0.000671
0.169556 0.048645 0.000763
0.197266 0.049805 0.000946
0.225159 0.050964 0.001129
0.253845 0.051971 0.001282
0.282928 0.052795 0.001556
0.311768 0.054779 0.001831
0.340942 0.056091 0.002167
0.369995 0.058167 0.002411
0.398651 0.060089 0.002838
0.427002 0.062775 0.003265
0.455200 0.065918 0.003754
0.483521 0.068878 0.004303
0.511719 0.072418 0.005096
0.539825 0.076630 0.005493
0.568054 0.080750 0.006104
0.596375 0.085236 0.006714
0.624786 0.089386 0.007416
0.653290 0.093781 0.008179
0.681885 0.098297 0.008820
0.710693 0.103760 0.009766
0.739655 0.108948 0.010376
0.768860 0.114288 0.011078
0.798218 0.118561 0.011780
0.827576 0.122955 0.012421
0.856934 0.127686 0.013184
0.886414 0.132294 0.014008
0.009918 0.062347 0.001282
0.028259 0.063171 0.000488
0.046417 0.064026 0.000580
0.066437 0.064789 0.000824
0.091095 0.067108 0.000854
0.118317 0.070190 0.000885
0.146027 0.071716 0.000885
0.173737 0.073303 0.000977
0.201813 0.074524 0.001038
0.230103 0.075867 0.001221
0.258636 0.077271 0.001404
0.287231 0.078796 0.001648
0.316345 0.080719 0.001892
0.345184 0.082794 0.002197
0.373810 0.085083 0.002594
0.402435 0.087158 0.002930
0.430542 0.090118 0.003418
0.458710 0.093384 0.003937
0.486816 0.096710 0.004456
0.514862 0.100403 0.005005
0.542755 0.104736 0.005585
0.570953 0.108612 0.006195
0.599121 0.112976 0.006836
0.627472 0.117584 0.007721
0.655975 0.122314 0.008240
0.684540 0.126740 0.009003
0.713257 0.131683 0.009705
0.742096 0.136780 0.010498
0.771332 0.141479 0.011200
0.800568 0.145966 0.011810
0.829834 0.151001 0.012512
0.859039 0.155670 0.013123
0.888702 0.159790 0.013824
0.014832 0.086151 0.001709
0.032806 0.087433 0.000641
0.050446 0.088287 0.000793
0.070312 0.089172 0.000824
0.092682 0.090424 0.001160
0.119415 0.093262 0.001190
0.148346 0.096436 0.001190
0.177124 0.098541 0.001190
0.206024 0.100189 0.001282
0.235107 0.101562 0.001434
0.264038 0.102966 0.001495
0.293030 0.104645 0.001709
0.321930 0.106537 0.002075
0.350403 0.108795 0.002319
0.378723 0.111145 0.002747
0.406891 0.113892 0.003113
0.434937 0.116821 0.003601
0.462799 0.120209 0.004120
0.490692 0.123657 0.004608
0.518555 0.127411 0.005157
0.546539 0.131378 0.005737
0.574585 0.135315 0.006287
0.602692 0.139587 0.007019
0.630859 0.144135 0.007721
0.659302 0.148438 0.008423
0.687683 0.153229 0.009125
0.716431 0.157654 0.009857
0.745392 0.162048 0.010468
0.774292 0.166992 0.011261
0.803314 0.171844 0.011902
0.832397 0.176575 0.012512
0.862091 0.180359 0.013245
0.891418 0.184814 0.013824
0.018219 0.111328 0.000824
0.035248 0.112671 0.000824
0.053162 0.113586 0.000824
0.073303 0.114624 0.000977
0.096069 0.115753 0.001099
0.121613 0.118073 0.001251
0.149658 0.121033 0.001556
0.179718 0.123962 0.001587
0.209534 0.126556 0.001587
0.239227 0.128143 0.001648
0.268738 0.130066 0.001831
0.297974 0.131683 0.001984
0.327057 0.133362 0.002167
0.355835 0.135254 0.002563
0.384003 0.137695 0.002991
0.412354 0.140167 0.003265
0.440216 0.143097 0.003754
0.467957 0.146301 0.004272
0.495605 0.149963 0.004761
0.523285 0.153748 0.005310
0.550964 0.157715 0.005859
0.578796 0.161896 0.006470
0.606812 0.165955 0.007172
0.634796 0.170349 0.007812
0.663147 0.174438 0.008606
0.691620 0.178864 0.009186
0.720276 0.183167 0.009918
0.748779 0.187958 0.010590
0.777924 0.191956 0.011353
0.806824 0.196472 0.011932
0.835968 0.200897 0.012604
0.865082 0.205353 0.013275
0.894592 0.209290 0.013916
0.020874 0.137482 0.000854
0.038269 0.139069 0.000885
0.056427 0.140228 0.001038
0.076843 0.141388 0.001129
0.099304 0.142395 0.001282
0.124207 0.144012 0.001373
0.151733 0.146790 0.001770
0.182007 0.150146 0.002136
0.212952 0.153412 0.002167
0.243317 0.156067 0.002197
0.273071 0.157959 0.002319
0.302765 0.159576 0.002411
0.331879 0.161377 0.002563
0.360779 0.163300 0.002869
0.389221 0.165344 0.003265
0.417450 0.167816 0.003540
0.445618 0.170410 0.003967
0.473328 0.173492 0.004425
0.500977 0.176697 0.004913
0.528687 0.180115 0.005524
0.556244 0.184052 0.006104
0.583923 0.188080 0.006744
0.611725 0.192108 0.007385
0.639648 0.196289 0.008026
0.667786 0.200409 0.008698
0.695862 0.204865 0.009277
0.724426 0.209015 0.010010
0.752960 0.213409 0.010651
0.781860 0.217407 0.011261
0.810699 0.221710 0.012024
0.839752 0.225800 0.012604
0.868896 0.229858 0.013275
0.898041 0.234039 0.013824
0.023529 0.164642 0.000977
0.041534 0.166351 0.001099
0.059296 0.167999 0.001099
0.079926 0.169403 0.001282
0.102753 0.170563 0.001373
0.127167 0.171692 0.001556
0.154541 0.173889 0.001831
0.184296 0.177155 0.002258
0.215790 0.180969 0.002686
0.247406 0.184235 0.002777
0.277618 0.186676 0.003021
0.307281 0.188599 0.003052
0.336548 0.190491 0.003174
0.365509 0.192230 0.003418
0.394165 0.194275 0.003632
0.422546 0.196411 0.003998
0.450623 0.198853 0.004303
0.478546 0.201569 0.004730
0.506409 0.204559 0.005249
0.534149 0.207764 0.005859
0.561737 0.211151 0.006439
0.589447 0.214874 0.007050
0.617096 0.218719 0.007599
0.644958 0.222626 0.008240
0.672913 0.226532 0.008789
0.700989 0.230713 0.009460
0.729187 0.234985 0.010071
0.757599 0.239044 0.010712
0.786285 0.243042 0.011292
0.814972 0.247162 0.012054
0.843872 0.251038 0.012604
0.873108 0.254761 0.013184
0.902283 0.258636 0.013763
0.027679 0.192993 0.001648
0.044830 0.194550 0.001190
0.062897 0.196228 0.001251
0.083374 0.198090 0.001343
0.106140 0.199677 0.001556
0.130981 0.201019 0.001801
0.157776 0.202515 0.001953
0.187164 0.205078 0.002411
0.218597 0.208923 0.002991
0.250916 0.212799 0.003601
0.282532 0.215820 0.003937
0.312469 0.218384 0.004089
0.341675 0.220551 0.004181
0.370544 0.222412 0.004181
0.399078 0.224274 0.004364
0.427429 0.226166 0.004608
0.455597 0.228394 0.004974
0.483612 0.230865 0.005371
0.511536 0.233490 0.005829
0.539398 0.236420 0.006287
0.567047 0.239594 0.006775
0.594788 0.242767 0.007263
0.622589 0.246185 0.007812
0.650360 0.249817 0.008453
0.678345 0.253479 0.009003
0.706329 0.257263 0.009552
0.734497 0.261047 0.010193
0.762970 0.264679 0.010773
0.791321 0.268738 0.011383
0.819946 0.272583 0.012085
0.848755 0.276215 0.012726
0.877533 0.280121 0.013184
0.906525 0.283997 0.013641
0.031067 0.222076 0.001373
0.047760 0.223663 0.001373
0.066254 0.225311 0.001465
0.087189 0.227417 0.001556
0.110077 0.229614 0.001740
0.135345 0.230988 0.002014
0.162140 0.232361 0.002319
0.190613 0.234070 0.002716
0.221771 0.237122 0.003174
0.254486 0.241547 0.004120
0.286987 0.245728 0.004913
0.318024 0.248810 0.005341
0.347412 0.251221 0.005554
0.376068 0.253387 0.005646
0.404327 0.255341 0.005524
0.432587 0.257111 0.005707
0.460602 0.259125 0.005951
0.488495 0.261261 0.006226
0.516510 0.263611 0.006561
0.544403 0.266083 0.006897
0.572235 0.268768 0.007294
0.600067 0.271606 0.007721
0.627838 0.274719 0.008179
0.655853 0.277802 0.008636
0.683746 0.281128 0.009155
0.711761 0.284454 0.009705
0.739990 0.287811 0.010254
0.768158 0.291382 0.010803
0.796692 0.294769 0.011383
0.825287 0.298248 0.012054
0.853943 0.301819 0.012604
0.882660 0.305542 0.013123
0.911774 0.308899 0.013428
0.036224 0.252228 0.002045
0.052704 0.253723 0.001770
0.072021 0.255280 0.001801
0.092133 0.257294 0.001892
0.115021 0.259735 0.002014
0.140198 0.261688 0.002289
0.167480 0.263031 0.002594
0.196014 0.264618 0.003113
0.226501 0.266724 0.003784
0.258484 0.270203 0.004608
0.291138 0.274841 0.005798
0.323120 0.279083 0.006714
0.353455 0.282196 0.007172
0.382233 0.284668 0.007355
0.410156 0.286835 0.007385
0.437866 0.288757 0.007416
0.465790 0.290588 0.007507
0.493500 0.292389 0.007446
0.521362 0.294434 0.007568
0.549133 0.296600 0.007751
0.577087 0.298950 0.007996
0.605042 0.301422 0.008331
0.632935 0.304108 0.008698
0.660889 0.306824 0.009125
0.688934 0.309601 0.009552
0.717072 0.312469 0.010040
0.745270 0.315460 0.010559
0.773529 0.318542 0.011047
0.802032 0.321625 0.011566
0.830505 0.324860 0.012024
0.859283 0.328003 0.012543
0.888062 0.331360 0.012878
0.917145 0.334595 0.013275
0.043243 0.282410 0.002625
0.060303 0.283936 0.002625
0.078705 0.285553 0.002472
0.098785 0.287628 0.002350
0.122070 0.290039 0.002563
0.146790 0.292664 0.002930
0.174316 0.294312 0.003296
0.203369 0.295746 0.003906
0.233215 0.297241 0.004517
0.264282 0.299622 0.005341
0.296051 0.303436 0.006500
0.328003 0.308289 0.007874
0.359131 0.312775 0.009277
0.388519 0.315979 0.009888
0.416473 0.318390 0.009888
0.443695 0.320465 0.009705
0.471130 0.322388 0.009460
0.498688 0.324249 0.009338
0.526276 0.326050 0.009125
0.553955 0.327972 0.009094
0.581818 0.329834 0.009186
0.609741 0.331970 0.009155
0.637726 0.334167 0.009460
0.665741 0.336456 0.009827
0.693726 0.338928 0.009979
0.721954 0.341278 0.010376
0.750275 0.343842 0.010834
0.778656 0.346466 0.011169
0.807159 0.349152 0.011597
0.835815 0.351990 0.012115
0.864594 0.354889 0.012329
0.893494 0.357941 0.012756
0.922485 0.360992 0.013092
0.052399 0.312531 0.003174
0.070374 0.314209 0.003326
0.087097 0.315826 0.003387
0.108093 0.317993 0.003448
0.130371 0.320526 0.003357
0.155548 0.323242 0.003876
0.183014 0.325317 0.004364
0.212067 0.326813 0.004944
0.241913 0.328247 0.005768
0.272400 0.329865 0.006683
0.303070 0.332672 0.007965
0.333832 0.336731 0.009460
0.364502 0.341736 0.011200
0.394409 0.346405 0.012543
0.422638 0.349518 0.013000
0.449890 0.351837 0.012726
0.476776 0.354065 0.012390
0.503906 0.356079 0.011871
0.531311 0.358002 0.011383
0.558868 0.359680 0.011017
0.586487 0.361298 0.010742
0.614197 0.363037 0.010559
0.642181 0.364777 0.010498
0.670135 0.366730 0.010712
0.698242 0.368683 0.010742
0.726532 0.370667 0.010925
0.754944 0.372803 0.011230
0.783356 0.375122 0.011505
0.811981 0.377472 0.011749
0.840881 0.379883 0.012054
0.869843 0.382446 0.012360
0.898834 0.385101 0.012665
0.927979 0.387878 0.012939
0.064545 0.342804 0.004456
0.080078 0.344238 0.004425
0.099365 0.345978 0.004639
0.118652 0.348083 0.004578
0.140472 0.350616 0.004639
0.165649 0.353516 0.005127
0.193756 0.355896 0.005768
0.222656 0.357574 0.006531
0.252472 0.359070 0.007385
0.282349 0.360474 0.008453
0.312073 0.362396 0.009613
0.341553 0.365540 0.011169
0.370972 0.369751 0.012939
0.400208 0.374786 0.014648
0.428833 0.379517 0.016235
0.456024 0.382690 0.016388
0.482849 0.385101 0.015930
0.509430 0.387360 0.015289
0.536255 0.389374 0.014313
0.563507 0.391205 0.013580
0.590942 0.392944 0.012970
0.618652 0.394348 0.012482
0.646301 0.395813 0.012085
0.674286 0.397308 0.012024
0.702362 0.398926 0.011871
0.730713 0.400574 0.011810
0.759125 0.402374 0.011871
0.787750 0.404266 0.011963
0.816589 0.406250 0.012054
0.845581 0.408417 0.012329
0.874695 0.410675 0.012421
0.903931 0.413025 0.012573
0.933319 0.415375 0.012817
0.079346 0.372375 0.006195
0.095123 0.373901 0.006165
0.113434 0.375671 0.006256
0.132202 0.377747 0.006531
0.154510 0.380249 0.006592
0.178436 0.383179 0.007050
0.206726 0.385986 0.007690
0.235626 0.387878 0.008606
0.265289 0.389435 0.009766
0.294678 0.390900 0.010925
0.323212 0.392456 0.012054
0.351593 0.394806 0.013733
0.379517 0.398102 0.015503
0.407104 0.402435 0.017334
0.434692 0.407288 0.019196
0.461914 0.411896 0.020416
0.488373 0.415192 0.020416
0.514862 0.417633 0.019653
0.541138 0.419922 0.018311
0.567810 0.421967 0.017029
0.595001 0.423828 0.016022
0.622528 0.425446 0.015106
0.650238 0.426819 0.014404
0.678101 0.428101 0.013855
0.706146 0.429413 0.013275
0.734589 0.430756 0.012970
0.763092 0.432251 0.012726
0.791870 0.433899 0.012695
0.820770 0.435669 0.012665
0.849915 0.437500 0.012634
0.879272 0.439423 0.012665
0.908600 0.441559 0.012726
0.938141 0.443726 0.012848
0.096222 0.401733 0.008820
0.110992 0.403076 0.008698
0.129089 0.404907 0.008789
0.147614 0.407074 0.008972
0.169739 0.409760 0.009277
0.194763 0.412659 0.009644
0.221649 0.415344 0.010559
0.250275 0.417297 0.011597
0.279694 0.419006 0.012878
0.308167 0.420624 0.014038
0.335968 0.422028 0.015442
0.363068 0.423798 0.016937
0.389587 0.426361 0.018616
0.415710 0.429779 0.020508
0.441498 0.433960 0.022308
0.467468 0.438690 0.023834
0.493774 0.443237 0.025055
0.519592 0.446625 0.024780
0.545746 0.449249 0.023529
0.571960 0.451508 0.021667
0.598663 0.453705 0.019836
0.625916 0.455688 0.018524
0.653564 0.457367 0.017334
0.681549 0.458771 0.016235
0.709656 0.460022 0.015381
0.738037 0.461212 0.014618
0.766632 0.462524 0.014221
0.795563 0.463928 0.013702
0.824707 0.465424 0.013367
0.854034 0.467010 0.013184
0.883423 0.468842 0.013062
0.913055 0.470581 0.012939
0.942780 0.472504 0.012848
0.116150 0.430603 0.011993
0.130402 0.431885 0.012024
0.146790 0.433502 0.012024
0.166046 0.435669 0.012238
0.188568 0.438385 0.012451
0.212738 0.441254 0.013031
0.239380 0.443939 0.013977
0.266998 0.445740 0.015106
0.295166 0.447540 0.016388
0.322937 0.449249 0.017761
0.349548 0.450684 0.019135
0.375488 0.452118 0.020538
0.400604 0.454102 0.022186
0.425110 0.456696 0.023926
0.449341 0.460052 0.025635
0.473694 0.464172 0.027222
0.498596 0.468781 0.028687
0.524109 0.473358 0.029480
0.549561 0.476990 0.029053
0.575592 0.479797 0.027069
0.602173 0.482391 0.024811
0.628967 0.484741 0.022705
0.656494 0.486877 0.020935
0.684418 0.488739 0.019379
0.712708 0.490356 0.017975
0.741333 0.491730 0.016846
0.770050 0.492920 0.015808
0.799011 0.494171 0.015076
0.828186 0.495544 0.014526
0.857666 0.497009 0.014008
0.887390 0.498474 0.013641
0.917175 0.500092 0.013306
0.947327 0.501617 0.013000
0.138092 0.458710 0.015778
0.152130 0.459961 0.015839
0.168884 0.461517 0.015686
0.187836 0.463562 0.015991
0.208160 0.465973 0.016479
0.232239 0.469025 0.016937
0.258972 0.471222 0.018005
0.285553 0.473053 0.019287
0.311707 0.474823 0.020599
0.338013 0.476471 0.022064
0.363861 0.477936 0.023468
0.388397 0.479279 0.024872
0.411865 0.480835 0.026337
0.435059 0.482941 0.027893
0.457977 0.485535 0.029541
0.480774 0.488953 0.031006
0.504089 0.493011 0.032257
0.528259 0.497742 0.033173
0.553345 0.502502 0.033966
0.578674 0.506409 0.032806
0.604889 0.509674 0.030640
0.631805 0.512512 0.027893
0.658997 0.515259 0.025513
0.686859 0.517670 0.023315
0.715210 0.519806 0.021332
0.744019 0.521606 0.019684
0.772980 0.523193 0.018219
0.802124 0.524567 0.017090
0.831512 0.525848 0.016022
0.861145 0.527100 0.015228
0.891052 0.528442 0.014496
0.921234 0.529846 0.013733
0.951447 0.531311 0.013306
0.162476 0.486023 0.019989
0.176697 0.487152 0.019836
0.192291 0.488617 0.020020
0.211121 0.490601 0.020325
0.231506 0.492920 0.020660
0.254028 0.495331 0.021515
0.279053 0.497375 0.022614
0.303497 0.498962 0.023773
0.329041 0.500610 0.025177
0.353882 0.502258 0.026672
0.377686 0.503815 0.028015
0.401306 0.505188 0.029510
0.423645 0.506622 0.030884
0.445465 0.508240 0.032227
0.466919 0.510468 0.033722
0.488403 0.513275 0.035156
0.510437 0.516815 0.036407
0.533142 0.520996 0.037292
0.556915 0.525909 0.037720
0.581726 0.530853 0.037964
0.607208 0.535187 0.036682
0.633728 0.538879 0.033997
0.661163 0.542206 0.030823
0.688812 0.545319 0.028046
0.717163 0.548157 0.025452
0.746063 0.550568 0.023193
0.775177 0.552734 0.021271
0.804810 0.554504 0.019501
0.834503 0.556091 0.018036
0.864410 0.557404 0.016693
0.894592 0.558624 0.015533
0.924927 0.559875 0.014587
0.955322 0.561249 0.013641
0.188538 0.512268 0.024689
0.202515 0.513367 0.024506
0.217285 0.514709 0.024689
0.235443 0.516541 0.024933
0.255432 0.518677 0.025635
0.276489 0.520630 0.026520
0.298492 0.521942 0.027496
0.322754 0.523438 0.028778
0.345520 0.525085 0.030182
0.368439 0.526825 0.031616
0.392029 0.528351 0.033051
0.413879 0.529907 0.034485
0.435211 0.531403 0.035736
0.455963 0.532959 0.037018
0.476501 0.534821 0.038513
0.496796 0.537170 0.039551
0.517517 0.540161 0.040833
0.538818 0.543762 0.041779
0.561127 0.548218 0.042206
0.584747 0.553345 0.042145
0.609772 0.558685 0.042023
0.635498 0.563446 0.040314
0.662354 0.567719 0.037201
0.690491 0.571503 0.033691
0.718781 0.575165 0.030090
0.747650 0.578430 0.027252
0.777069 0.581238 0.024719
0.806915 0.583649 0.022186
0.837097 0.585754 0.020142
0.867493 0.587463 0.018372
0.897827 0.588928 0.016815
0.928314 0.590210 0.015533
0.958984 0.591492 0.014313
0.214966 0.537292 0.029846
0.228485 0.538361 0.029968
0.241394 0.539459 0.030090
0.260468 0.541290 0.030457
0.278015 0.542847 0.031006
0.297638 0.544220 0.031891
0.318909 0.545532 0.032959
0.340027 0.546936 0.034149
0.362427 0.548492 0.035461
0.383606 0.550140 0.036835
0.404877 0.551880 0.038269
0.426147 0.553589 0.039673
0.446625 0.555237 0.042297
0.466644 0.556793 0.044556
0.486206 0.558563 0.044922
0.505615 0.560699 0.044312
0.525421 0.563202 0.045258
0.545502 0.566467 0.046204
0.566528 0.570312 0.046844
0.588684 0.574951 0.046875
0.612366 0.580444 0.046478
0.637512 0.586212 0.045593
0.663635 0.591522 0.043365
0.691040 0.596313 0.039856
0.719879 0.600769 0.035614
0.749084 0.604919 0.031799
0.778656 0.608612 0.028351
0.808685 0.611847 0.025360
0.839203 0.614655 0.022614
0.869873 0.617065 0.020447
0.900787 0.619019 0.018433
0.931610 0.620575 0.016785
0.962524 0.621979 0.015198
0.240967 0.561157 0.035583
0.253815 0.562164 0.035583
0.266357 0.563171 0.035522
0.282837 0.564453 0.035980
0.299561 0.565796 0.036652
0.318512 0.566895 0.037598
0.338074 0.568115 0.038574
0.357910 0.569489 0.039673
0.377258 0.571167 0.040955
0.398254 0.573029 0.042358
0.418671 0.574860 0.047211
0.438690 0.576752 0.052063
0.458130 0.578491 0.064178
0.477295 0.580170 0.071320
0.496338 0.581757 0.073273
0.514893 0.583740 0.071381
0.533691 0.586090 0.066376
0.552979 0.588837 0.058746
0.572845 0.592377 0.051239
0.593750 0.596527 0.051208
0.615906 0.601532 0.050842
0.639801 0.607391 0.049713
0.665283 0.613586 0.048279
0.692017 0.619476 0.045441
0.720123 0.625000 0.041199
0.749695 0.630096 0.036591
0.779816 0.634766 0.032410
0.810059 0.638947 0.028809
0.840820 0.642639 0.025482
0.871857 0.645844 0.022552
0.903107 0.648499 0.020142
0.934387 0.650635 0.018005
0.965698 0.652435 0.016235
0.265228 0.584045 0.040741
0.277649 0.584991 0.040863
0.290070 0.585938 0.041290
0.305298 0.587036 0.041809
0.320709 0.587799 0.042542
0.338226 0.588776 0.043365
0.355499 0.589966 0.044312
0.374512 0.591522 0.045410
0.393433 0.593292 0.049194
0.412354 0.595184 0.053955
0.431488 0.597137 0.068298
0.450806 0.598999 0.081146
0.469635 0.600739 0.093628
0.488098 0.602509 0.101013
0.506134 0.604126 0.104706
0.524048 0.605896 0.106140
0.542114 0.608124 0.102203
0.560272 0.610687 0.093689
0.579163 0.613770 0.086609
0.598999 0.617645 0.076874
0.620117 0.622345 0.068909
0.642700 0.627930 0.056396
0.667145 0.634338 0.051910
0.693298 0.641113 0.049652
0.720825 0.647675 0.046387
0.749756 0.653900 0.041962
0.780151 0.659698 0.036926
0.811066 0.664825 0.032471
0.842010 0.669556 0.028717
0.873352 0.673615 0.025055
0.904968 0.677094 0.022003
0.936615 0.680023 0.019531
0.968414 0.682343 0.017151
0.288788 0.606323 0.051331
0.299622 0.607086 0.051605
0.311462 0.607788 0.054962
0.325012 0.608490 0.057373
0.340424 0.609283 0.061340
0.357025 0.610291 0.065765
0.372681 0.611450 0.071838
0.390289 0.613037 0.076752
0.408356 0.614624 0.087036
0.426270 0.616425 0.097595
0.444672 0.618195 0.109772
0.462219 0.620056 0.116913
0.480133 0.621948 0.122742
0.497711 0.623779 0.126617
0.515106 0.625488 0.128510
0.532379 0.627319 0.127838
0.549500 0.629395 0.126312
0.567078 0.631805 0.122650
0.585175 0.634705 0.116394
0.604156 0.638275 0.106262
0.624420 0.642731 0.095673
0.646118 0.648071 0.082794
0.669495 0.654327 0.066803
0.694733 0.661469 0.054047
0.721832 0.668945 0.050201
0.750122 0.676208 0.046661
0.779846 0.683136 0.041748
0.810913 0.689484 0.036835
0.842743 0.695190 0.031952
0.874390 0.700348 0.027710
0.906189 0.704712 0.024048
0.938232 0.708527 0.021027
0.970856 0.711609 0.018219
0.308868 0.627533 0.078308
0.319885 0.628143 0.081726
0.331299 0.628754 0.085815
0.343750 0.629303 0.090607
0.358551 0.630035 0.096680
0.372070 0.630890 0.102875
0.388885 0.632141 0.110016
0.404755 0.633514 0.116821
0.421082 0.635071 0.123566
0.437622 0.636810 0.129700
0.454681 0.638611 0.134979
0.472168 0.640503 0.139740
0.488647 0.642456 0.143463
0.505707 0.644440 0.145752
0.522705 0.646362 0.146851
0.539520 0.648285 0.146362
0.556366 0.650299 0.144043
0.573517 0.652649 0.140259
0.591248 0.655426 0.134979
0.609619 0.658783 0.127808
0.628937 0.662781 0.117401
0.649750 0.667847 0.105743
0.672119 0.673859 0.091522
0.696411 0.680908 0.069885
0.722717 0.688904 0.054688
0.750549 0.697052 0.050049
0.779724 0.705017 0.046173
0.810211 0.712524 0.040924
0.841980 0.719482 0.035736
0.874695 0.725739 0.030548
0.906921 0.731232 0.026367
0.939270 0.736023 0.022675
0.972626 0.740082 0.019379
0.322937 0.647797 0.109894
0.333954 0.648468 0.113007
0.344818 0.648987 0.115997
0.356476 0.649567 0.119263
0.371399 0.650360 0.124390
0.384247 0.651215 0.128387
0.399902 0.652405 0.134064
0.415192 0.653809 0.138977
0.431061 0.655334 0.144165
0.447266 0.657074 0.149353
0.462830 0.658844 0.153320
0.479767 0.660828 0.156830
0.496490 0.662811 0.159607
0.512817 0.664917 0.161255
0.529480 0.666992 0.161804
0.546234 0.669037 0.161285
0.562958 0.671082 0.159393
0.579773 0.673279 0.155975
0.597137 0.675995 0.150696
0.614990 0.679199 0.144012
0.633850 0.682983 0.135590
0.653748 0.687592 0.124603
0.675232 0.693207 0.111877
0.698425 0.699982 0.095734
0.723785 0.707886 0.069000
0.751038 0.716614 0.052490
0.779694 0.725433 0.049042
0.809631 0.734009 0.044525
0.841003 0.742218 0.039307
0.873535 0.749786 0.033752
0.906799 0.756470 0.028625
0.939880 0.762390 0.024536
0.973541 0.767548 0.020782
0.333344 0.667755 0.134888
0.344330 0.668488 0.137268
0.355255 0.669159 0.139648
0.366821 0.669769 0.142426
0.381348 0.670593 0.146088
0.394104 0.671417 0.149475
0.408783 0.672577 0.153320
0.423523 0.673859 0.157379
0.438690 0.675385 0.161133
0.454559 0.677124 0.165070
0.470642 0.678986 0.168427
0.486603 0.680969 0.171265
0.503143 0.683044 0.173401
0.519257 0.685181 0.174774
0.535858 0.687347 0.175079
0.552368 0.689545 0.174286
0.569031 0.691742 0.172333
0.585846 0.694061 0.169067
0.602753 0.696472 0.164673
0.620361 0.699585 0.158173
0.638763 0.703217 0.150330
0.658142 0.707489 0.140656
0.678711 0.712646 0.128784
0.700989 0.719025 0.115051
0.725189 0.726501 0.098206
