src/assets/luts/ON1 Nature & Wildlife LUTs/CinematicX LUTs - 30 Free Cinematic LUTs - The Resolve Store 2022/Indio - Rec709.cube
# Copyright: (C) Copyright 2022 The Resolve Store 
# Cannot be resold, shared or otherwise redistributed
TITLE "CinematicX (Rec.709)"
LUT_3D_SIZE 5
0.001770 0.001190 0.001770
0.186371 0.008606 0.001892
0.421326 0.026123 0.004089
0.649567 0.057281 0.009064
0.883636 0.091705 0.014740
0.027679 0.192993 0.001648
0.218597 0.208923 0.002991
0.455597 0.228394 0.004974
0.678345 0.253479 0.009003
0.906525 0.283997 0.013641
0.116150 0.430603 0.011993
0.295166 0.447540 0.016388
0.498596 0.468781 0.028687
0.712708 0.490356 0.017975
0.947327 0.501617 0.013000
0.308868 0.627533 0.078308
0.421082 0.635071 0.123566
0.556366 0.650299 0.144043
0.722717 0.688904 0.054688
0.972626 0.740082 0.019379
0.343445 0.787537 0.201630
0.459167 0.798431 0.214508
0.592926 0.816589 0.218292
0.743408 0.845612 0.170319
0.930847 0.900330 0.313873
0.038940 0.061859 0.156067
0.184784 0.036377 0.191803
0.407623 0.000000 0.178558
0.643860 0.001892 0.183807
0.882538 0.007874 0.179718
0.026764 0.217529 0.182648
0.189026 0.217926 0.195953
0.479370 0.198578 0.157867
0.699554 0.204834 0.148956
0.920502 0.224701 0.154663
0.013550 0.432251 0.136841
0.200897 0.456848 0.122406
0.497253 0.478699 0.193115
0.726227 0.486847 0.167267
0.961273 0.494385 0.170959
0.120392 0.615753 0.135071
0.342926 0.633789 0.176941
0.537079 0.657227 0.223755
0.719604 0.693146 0.164673
0.980042 0.740417 0.166901
0.307373 0.787476 0.291748
0.431366 0.799896 0.306396
0.578705 0.821167 0.321503
0.739746 0.851959 0.303680
0.933105 0.905792 0.447113
0.053467 0.125671 0.332672
0.098083 0.139893 0.448273
0.391815 0.061615 0.390137
0.596405 0.014771 0.401978
0.840027 0.009796 0.439392
0.048340 0.261627 0.384705
0.095154 0.284607 0.441681
0.476562 0.221100 0.474579
0.687561 0.134949 0.451752
0.897980 0.223022 0.458618
0.068970 0.477203 0.419067
0.118042 0.492950 0.434753
0.487488 0.507507 0.475464
0.713409 0.491302 0.467712
0.941895 0.495422 0.466614
0.127380 0.646973 0.427216
0.313019 0.657013 0.434052
0.526215 0.674744 0.468170
0.716858 0.698883 0.470551
0.975189 0.737946 0.464142
0.237671 0.799103 0.442902
0.383575 0.807648 0.451599
0.552002 0.826538 0.475952
0.731049 0.858307 0.490387
0.946075 0.922363 0.494843
0.061462 0.196777 0.493530
0.095306 0.224182 0.567505
0.386688 0.187561 0.668030
0.600647 0.101379 0.590179
0.795074 0.093353 0.628296
0.064392 0.323517 0.532379
0.102844 0.346039 0.584473
0.405640 0.352142 0.680695
0.662354 0.231720 0.652893
0.835144 0.294067 0.665680
0.103851 0.516266 0.602936
0.159760 0.527496 0.638519
0.436127 0.550354 0.678925
0.696960 0.522125 0.688324
0.877167 0.517822 0.695251
0.174194 0.682556 0.620392
0.244934 0.688873 0.628601
0.494202 0.708344 0.660187
0.695618 0.707306 0.675568
0.931641 0.722717 0.701447
0.270447 0.831329 0.643433
0.403290 0.839111 0.651245
0.552216 0.849731 0.662079
0.717865 0.867493 0.677155
0.930176 0.911407 0.709564
0.086395 0.292969 0.659821
0.132812 0.318115 0.711670
0.335083 0.339478 0.806580
0.638672 0.277557 0.810425
0.796265 0.227173 0.785065
0.099518 0.396973 0.687531
0.147614 0.414978 0.726318
0.348602 0.438812 0.804626
0.648712 0.400085 0.821533
0.815887 0.371674 0.806061
0.158569 0.559265 0.752258
0.200897 0.567230 0.769440
0.385040 0.586609 0.821747
0.665283 0.582642 0.842621
0.849457 0.554779 0.840515
0.218506 0.721527 0.799042
0.282257 0.728485 0.818451
0.495331 0.744385 0.857513
0.686432 0.751953 0.870392
0.879944 0.736084 0.870667
0.304901 0.879211 0.838623
0.422180 0.886505 0.848297
0.530792 0.897430 0.860718
0.712769 0.901215 0.874939
0.900421 0.903931 0.893799
