src/assets/luts/ON1 Nature & Wildlife LUTs/CinematicX LUTs - 30 Free Cinematic LUTs - The Resolve Store 2022/Juan - Rec709.cube
# Copyright: (C) Copyright 2022 The Resolve Store 
# Cannot be resold, shared or otherwise redistributed
TITLE "CinematicX (Rec.709)"
LUT_3D_SIZE 5
0.001617 0.001617 0.001617
0.118103 0.013702 0.004395
0.347443 0.016266 0.017456
0.592377 0.026733 0.080475
0.844330 0.068481 0.176392
0.024963 0.092621 0.000000
0.198975 0.158752 0.000000
0.450745 0.217316 0.014282
0.688934 0.229950 0.048401
0.935211 0.222229 0.092255
0.145203 0.255859 0.014679
0.303131 0.333405 0.011292
0.475555 0.407013 0.015869
0.701538 0.464081 0.061523
0.944214 0.478302 0.095978
0.340149 0.464966 0.158936
0.421387 0.509949 0.153259
0.529999 0.552307 0.039856
0.669098 0.606659 0.031097
0.926300 0.699615 0.055084
0.288727 0.680023 0.175964
0.382538 0.702820 0.139252
0.522247 0.767151 0.006958
0.716156 0.850037 0.000000
0.948334 0.931152 0.033020
0.015869 0.075836 0.087219
0.095734 0.089935 0.128296
0.283691 0.023376 0.081207
0.515625 0.020050 0.118958
0.779938 0.058197 0.202484
0.005981 0.194977 0.183441
0.147858 0.216553 0.184448
0.456055 0.191010 0.136536
0.686371 0.155121 0.122986
0.923157 0.148468 0.189026
0.080811 0.320862 0.199280
0.194702 0.334534 0.158600
0.488129 0.430634 0.150879
0.722137 0.462799 0.149445
0.959656 0.465759 0.171539
0.218231 0.454926 0.215698
0.307068 0.469788 0.193817
0.511719 0.564789 0.151276
0.671722 0.614410 0.062775
0.935150 0.700714 0.142395
0.248413 0.697052 0.279572
0.352966 0.717529 0.261688
0.504395 0.775635 0.197754
0.717102 0.862976 0.108215
0.956207 0.938873 0.200500
0.036469 0.186462 0.245270
0.048462 0.227631 0.315247
0.253235 0.152191 0.260895
0.446289 0.070587 0.247070
0.708923 0.063843 0.347717
0.028168 0.282257 0.341949
0.055450 0.316650 0.389496
0.375824 0.307617 0.383240
0.581635 0.202667 0.349548
0.830261 0.270599 0.453217
0.068237 0.431122 0.417053
0.146332 0.445007 0.426605
0.471313 0.537781 0.502197
0.765045 0.494781 0.495575
0.933411 0.484314 0.470764
0.212189 0.553955 0.461945
0.291595 0.576569 0.474213
0.493042 0.663513 0.506561
0.715271 0.680328 0.426727
0.956665 0.710602 0.397369
0.215424 0.736938 0.477264
0.331635 0.761932 0.470825
0.482910 0.816895 0.440552
0.717224 0.890106 0.363159
0.963257 0.949738 0.372467
0.044037 0.285858 0.388153
0.056763 0.332153 0.456818
0.140686 0.319031 0.436859
0.453766 0.267517 0.411102
0.615051 0.268463 0.462219
0.043518 0.351288 0.443481
0.060822 0.387299 0.495239
0.207062 0.423737 0.515198
0.537445 0.400757 0.516510
0.696594 0.427948 0.560699
0.078705 0.477936 0.524475
0.112701 0.493500 0.548798
0.311279 0.537109 0.581329
0.619934 0.636780 0.659393
0.792419 0.592743 0.656616
0.174957 0.606659 0.579987
0.194855 0.613800 0.586731
0.375854 0.651855 0.616150
0.638672 0.749573 0.692902
0.922516 0.737152 0.692505
0.123871 0.778015 0.641357
0.272736 0.800812 0.650543
0.455902 0.856262 0.673798
0.687164 0.925140 0.653381
0.982452 0.966492 0.654846
0.066895 0.382050 0.508911
0.086884 0.416718 0.554474
0.147369 0.463226 0.592529
0.467560 0.512207 0.625397
0.619476 0.486938 0.600739
0.074646 0.425415 0.538269
0.092560 0.450256 0.571564
0.180725 0.496277 0.612061
0.468567 0.572540 0.651581
0.660034 0.594147 0.671753
0.115753 0.519531 0.604095
0.128448 0.531189 0.621826
0.245605 0.565308 0.659424
0.471771 0.646179 0.690613
0.695007 0.720062 0.752777
0.181366 0.639130 0.673218
0.197479 0.646912 0.690491
0.341278 0.679504 0.734497
0.509186 0.731903 0.769958
0.792084 0.798584 0.844452
0.176239 0.847931 0.827667
0.261597 0.855103 0.833588
0.385956 0.884247 0.859039
0.594910 0.925964 0.887177
0.973724 0.977570 0.958771
