src/assets/luts/ON1 Nature & Wildlife LUTs/CinematicX LUTs - 30 Free Cinematic LUTs - The Resolve Store 2022/Juan - Rec709.cube
# Copyright: (C) Copyright 2022 The Resolve Store 
# Cannot be resold, shared or otherwise redistributed
TITLE "CinematicX (Rec.709)"
LUT_3D_SIZE 9
0.001617 0.001617 0.001617
0.048157 0.005402 0.000000
0.118103 0.013702 0.004395
0.223969 0.018738 0.010529
0.347443 0.016266 0.017456
0.468445 0.020142 0.043610
0.592377 0.026733 0.080475
0.717926 0.045837 0.126892
0.844330 0.068481 0.176392
0.006073 0.036926 0.000000
0.067596 0.057281 0.000000
0.167877 0.080841 0.000000
0.285217 0.094971 0.002686
0.403259 0.098572 0.009521
0.524475 0.098755 0.019012
0.650299 0.093536 0.035736
0.780365 0.074646 0.061371
0.901672 0.081177 0.124207
0.024963 0.092621 0.000000
0.085480 0.116394 0.000000
0.198975 0.158752 0.000000
0.328705 0.198547 0.003998
0.450745 0.217316 0.014282
0.568573 0.225372 0.028351
0.688934 0.229950 0.048401
0.811218 0.229889 0.070038
0.935211 0.222229 0.092255
0.065491 0.165985 0.000000
0.117126 0.179810 0.000000
0.236786 0.239227 0.000000
0.350739 0.287628 0.004211
0.467957 0.326843 0.018738
0.585846 0.346008 0.037079
0.705688 0.353729 0.058289
0.826752 0.356110 0.079437
0.950104 0.354279 0.101959
0.145203 0.255859 0.014679
0.191925 0.272797 0.013000
0.303131 0.333405 0.011292
0.387604 0.367188 0.004486
0.475555 0.407013 0.015869
0.580658 0.442047 0.037781
0.701538 0.464081 0.061523
0.827118 0.474365 0.083710
0.944214 0.478302 0.095978
0.245087 0.353088 0.082886
0.291595 0.381989 0.085846
0.370667 0.425385 0.077972
0.440002 0.453247 0.042145
0.497162 0.475037 0.014496
0.574615 0.509064 0.028656
0.684845 0.547882 0.053436
0.812866 0.577362 0.068848
0.935486 0.595093 0.080750
0.340149 0.464966 0.158936
0.369354 0.481323 0.159485
0.421387 0.509949 0.153259
0.480804 0.536194 0.117645
0.529999 0.552307 0.039856
0.582489 0.569305 0.011505
0.669098 0.606659 0.031097
0.793732 0.655579 0.051086
0.926300 0.699615 0.055084
0.361847 0.539948 0.201691
0.386108 0.548676 0.196167
0.426788 0.568237 0.183899
0.480591 0.596436 0.145752
0.540253 0.628357 0.052551
0.606293 0.660431 0.001251
0.682007 0.692871 0.007294
0.794678 0.745789 0.019806
0.921356 0.801178 0.026886
0.288727 0.680023 0.175964
0.333069 0.687500 0.163879
0.382538 0.702820 0.139252
0.442169 0.727051 0.081421
0.522247 0.767151 0.006958
0.615265 0.810242 0.000000
0.716156 0.850037 0.000000
0.821960 0.886902 0.001892
0.948334 0.931152 0.033020
0.002899 0.026031 0.026825
0.042725 0.046722 0.056183
0.106628 0.030121 0.045197
0.198303 0.016754 0.035583
0.309387 0.017242 0.046844
0.429047 0.023590 0.072052
0.555756 0.036804 0.105988
0.688324 0.060974 0.150146
0.822205 0.084839 0.198822
0.000732 0.083893 0.067963
0.049103 0.093994 0.068420
0.163300 0.091217 0.051483
0.277466 0.077606 0.035553
0.389923 0.064392 0.036346
0.507751 0.046814 0.048767
0.624817 0.057220 0.091736
0.748871 0.074799 0.137817
0.876190 0.096405 0.184418
0.000244 0.134918 0.078766
0.050140 0.142090 0.062012
0.192963 0.176971 0.049408
0.334442 0.197144 0.043976
0.456451 0.203369 0.048004
0.573730 0.201630 0.058838
0.694336 0.197571 0.074829
0.818695 0.191010 0.093933
0.943939 0.180115 0.114990
0.015656 0.187592 0.064362
0.062836 0.197876 0.037445
0.201050 0.243805 0.031982
0.349182 0.292969 0.034943
0.475250 0.327301 0.050537
0.595398 0.341827 0.067810
0.714935 0.345947 0.086456
0.835602 0.345978 0.106140
0.958160 0.342499 0.127777
0.072052 0.262390 0.054688
0.127502 0.268555 0.041351
0.238831 0.310516 0.033936
0.375519 0.369781 0.026428
0.474976 0.408936 0.032196
0.585846 0.442749 0.057892
0.709137 0.462738 0.085602
0.834747 0.471436 0.110992
0.949982 0.474518 0.125854
0.182983 0.344482 0.100067
0.218964 0.350098 0.093475
0.312286 0.399445 0.091949
0.424683 0.454254 0.066772
0.491669 0.476440 0.027039
0.573547 0.509888 0.034668
0.688141 0.548584 0.066467
0.818390 0.577271 0.092651
0.940308 0.593933 0.113617
0.284729 0.444000 0.164001
0.314728 0.455078 0.162384
0.379822 0.490936 0.163116
0.458710 0.530396 0.141632
0.524445 0.555786 0.069916
0.579956 0.572021 0.017853
0.668427 0.607819 0.036469
0.795837 0.656433 0.067200
0.929688 0.700195 0.091125
0.335876 0.540680 0.221375
0.360840 0.546265 0.215759
0.402924 0.562866 0.206879
0.463562 0.593414 0.183624
0.530945 0.630737 0.109161
0.605988 0.668304 0.026703
0.682159 0.697174 0.024750
0.795044 0.747375 0.054535
0.922852 0.802216 0.079681
0.275696 0.687683 0.225464
0.321869 0.695007 0.216705
0.373871 0.710114 0.200134
0.435913 0.733490 0.164398
0.516235 0.771484 0.093689
0.613129 0.816376 0.046295
0.717865 0.855988 0.050354
0.823822 0.889832 0.069611
0.952332 0.934570 0.117462
0.015869 0.075836 0.087219
0.033478 0.102692 0.128906
0.095734 0.089935 0.128296
0.184052 0.046051 0.092133
0.283691 0.023376 0.081207
0.393829 0.018341 0.093475
0.515625 0.020050 0.118958
0.647949 0.031708 0.155579
0.779938 0.058197 0.202484
0.013611 0.131470 0.143402
0.032776 0.144135 0.162476
0.124329 0.142273 0.160034
0.251190 0.093994 0.121613
0.351135 0.065521 0.100739
0.454315 0.060303 0.110413
0.569519 0.064240 0.135712
0.693939 0.077820 0.173431
0.824951 0.108093 0.223175
0.005981 0.194977 0.183441
0.032196 0.200714 0.183990
0.147858 0.216553 0.184448
0.331818 0.213257 0.165924
0.456055 0.191010 0.136536
0.567841 0.175507 0.123413
0.686371 0.155121 0.122986
0.808624 0.131866 0.140198
0.923157 0.148468 0.189026
0.019653 0.262146 0.200104
0.064331 0.271332 0.197479
0.177338 0.289429 0.191376
0.360809 0.331085 0.181702
0.490723 0.338898 0.168274
0.607269 0.339569 0.155731
0.724457 0.334900 0.148376
0.845398 0.326630 0.153473
0.966309 0.317200 0.168854
0.080811 0.320862 0.199280
0.119293 0.324036 0.189056
0.194702 0.334534 0.158600
0.376495 0.408142 0.168549
0.488129 0.430634 0.150879
0.599579 0.451508 0.147217
0.722137 0.462799 0.149445
0.846710 0.465912 0.160339
0.959656 0.465759 0.171539
0.153198 0.376892 0.206757
0.176727 0.381348 0.191681
0.244476 0.393555 0.163239
0.388794 0.462280 0.166016
0.494293 0.496521 0.130188
0.581085 0.521912 0.105377
0.698090 0.554016 0.115509
0.829163 0.577789 0.139374
0.948181 0.591003 0.162872
0.218231 0.454926 0.215698
0.244171 0.457275 0.202911
0.307068 0.469788 0.193817
0.413055 0.521973 0.193115
0.511719 0.564789 0.151276
0.580109 0.583221 0.075775
0.671722 0.614410 0.062775
0.802063 0.659760 0.099274
0.935150 0.700714 0.142395
0.282135 0.543854 0.253387
0.309967 0.547699 0.247406
0.356873 0.558044 0.238007
0.426422 0.585358 0.225189
0.510315 0.632172 0.184662
0.597382 0.675079 0.091644
0.682678 0.705658 0.053406
0.796844 0.751221 0.093079
0.925537 0.803955 0.140015
0.248413 0.697052 0.279572
0.296692 0.702972 0.272308
0.352966 0.717529 0.261688
0.421234 0.741089 0.242371
0.504395 0.775635 0.197754
0.606323 0.822235 0.125610
0.717102 0.862976 0.108215
0.826050 0.894684 0.138031
0.956207 0.938873 0.200500
0.028442 0.132996 0.165802
0.037231 0.164307 0.216583
0.059875 0.158142 0.216064
0.166046 0.123993 0.198120
0.266479 0.065643 0.155121
0.367401 0.040009 0.158875
0.477234 0.030518 0.176361
0.605438 0.031494 0.204376
0.738739 0.045959 0.240662
0.026428 0.177063 0.216003
0.033569 0.201263 0.254211
0.065765 0.201019 0.257507
0.205475 0.170135 0.241028
0.321167 0.097229 0.186859
0.417847 0.064789 0.182587
0.524445 0.056000 0.195190
0.649750 0.062592 0.222107
0.794617 0.101807 0.274933
0.019531 0.243896 0.273438
0.028259 0.257538 0.293030
0.082123 0.261017 0.293701
0.265900 0.272186 0.301819
0.424164 0.223633 0.271820
0.528290 0.194672 0.264160
0.627319 0.182037 0.264496
0.737488 0.181610 0.277069
0.859650 0.223480 0.316040
0.023285 0.318176 0.308350
0.043732 0.324493 0.313538
0.124603 0.327820 0.309021
0.316376 0.380310 0.348480
0.514465 0.376740 0.353302
0.626648 0.348328 0.322693
0.735046 0.329224 0.299774
0.849487 0.311249 0.278961
0.962616 0.304810 0.273987
0.082214 0.382965 0.324402
0.108887 0.388367 0.323914
0.193695 0.405823 0.332947
0.362488 0.474487 0.386169
0.520233 0.491150 0.366302
0.627045 0.477631 0.332611
0.741608 0.470306 0.307739
0.860565 0.462311 0.284149
0.967316 0.457214 0.268860
0.163879 0.458832 0.361908
0.189514 0.462128 0.357758
0.262054 0.473541 0.354004
0.365356 0.524414 0.346680
0.514038 0.557465 0.343658
0.610291 0.562103 0.305939
0.720093 0.572144 0.275208
0.845642 0.582794 0.260162
0.959290 0.588531 0.259827
0.229675 0.513947 0.368378
0.249084 0.514465 0.359192
0.310791 0.528076 0.356873
0.381409 0.560364 0.325012
0.499908 0.599304 0.319092
0.599731 0.624847 0.271759
0.691803 0.640594 0.207794
0.819153 0.672577 0.201080
0.946594 0.704559 0.243225
0.278870 0.571625 0.371429
0.298859 0.574646 0.365326
0.324219 0.589081 0.335480
0.390289 0.605743 0.312469
0.487366 0.648102 0.301941
0.589081 0.693298 0.250732
0.693054 0.729279 0.169373
0.808746 0.765076 0.165527
0.934753 0.809753 0.230316
0.241669 0.708344 0.376617
0.288177 0.716919 0.371643
0.323059 0.734344 0.339478
0.399628 0.755676 0.328491
0.488770 0.785309 0.306976
0.596649 0.829651 0.256165
0.715515 0.873444 0.199341
0.830841 0.904022 0.212128
0.959167 0.943604 0.284058
0.036469 0.186462 0.245270
0.040527 0.213409 0.289734
0.048462 0.227631 0.315247
0.100372 0.194122 0.276520
0.253235 0.152191 0.260895
0.348114 0.097931 0.229675
0.446289 0.070587 0.247070
0.569641 0.060364 0.292114
0.708923 0.063843 0.347717
0.033783 0.223236 0.286865
0.036865 0.245514 0.322479
0.048615 0.266113 0.353699
0.115875 0.239136 0.320007
0.293549 0.194153 0.301910
0.386353 0.122467 0.256287
0.481842 0.087646 0.268494
0.607483 0.083099 0.314972
0.765320 0.142609 0.395142
0.028168 0.282257 0.341949
0.032104 0.296844 0.364166
0.055450 0.316650 0.389496
0.150208 0.308136 0.369080
0.375824 0.307617 0.383240
0.488586 0.242706 0.343811
0.581635 0.202667 0.349548
0.694519 0.192291 0.383270
0.830261 0.270599 0.453217
0.027649 0.355621 0.384094
0.036041 0.364563 0.397125
0.090973 0.378876 0.412994
0.209595 0.384613 0.407440
0.441956 0.440094 0.459473
0.577179 0.406372 0.448730
0.680206 0.379883 0.456879
0.784210 0.367126 0.472412
0.881897 0.388733 0.490082
0.068237 0.431122 0.417053
0.080536 0.435211 0.420685
0.146332 0.445007 0.426605
0.271606 0.463440 0.433960
0.471313 0.537781 0.502197
0.638702 0.526489 0.511780
0.765045 0.494781 0.495575
0.873718 0.468536 0.466461
0.933411 0.484314 0.470764
0.144531 0.492859 0.438690
0.159180 0.494934 0.436493
0.216919 0.504181 0.435150
0.328369 0.538391 0.464966
0.500305 0.610260 0.533447
0.633026 0.623627 0.519196
0.740692 0.600525 0.469330
0.859283 0.591370 0.435730
0.942535 0.599915 0.453857
0.212189 0.553955 0.461945
0.229858 0.558777 0.463593
0.291595 0.576569 0.474213
0.384369 0.603302 0.492676
0.493042 0.663513 0.506561
0.605347 0.676147 0.476196
0.715271 0.680328 0.426727
0.838654 0.690369 0.379822
0.956665 0.710602 0.397369
0.262543 0.616547 0.483215
0.281891 0.619171 0.478363
0.332062 0.630554 0.473633
0.407654 0.655609 0.479675
0.478699 0.701599 0.456268
0.589752 0.732941 0.439117
0.710144 0.765839 0.381470
0.827240 0.786774 0.312897
0.951263 0.819153 0.340973
0.215424 0.736938 0.477264
0.268738 0.745422 0.473694
0.331635 0.761932 0.470825
0.408783 0.788757 0.471191
0.482910 0.816895 0.440552
0.594421 0.850891 0.419800
0.717224 0.890106 0.363159
0.840576 0.919952 0.315155
0.963257 0.949738 0.372467
0.040527 0.236877 0.320099
0.043335 0.258118 0.353729
0.049286 0.284485 0.395325
0.071503 0.275574 0.384399
0.198608 0.247559 0.358215
0.349670 0.192993 0.326294
0.435913 0.159943 0.315491
0.532227 0.146851 0.345947
0.650269 0.143982 0.399902
0.037903 0.267517 0.351898
0.041168 0.285583 0.379761
0.049744 0.313690 0.421906
0.083557 0.318359 0.423859
0.226105 0.294281 0.397827
0.384369 0.230286 0.361938
0.463348 0.181427 0.339111
0.558380 0.167969 0.366669
0.694427 0.225403 0.444733
0.034851 0.316711 0.395447
0.038483 0.329224 0.414185
0.052368 0.354187 0.449524
0.109222 0.373596 0.464386
0.272217 0.372375 0.449554
0.465759 0.347931 0.450256
0.543365 0.286621 0.418854
0.627594 0.257446 0.429962
0.757843 0.338470 0.509583
0.039276 0.384552 0.442780
0.044525 0.392731 0.455414
0.075684 0.409637 0.477692
0.162476 0.428223 0.490479
0.321533 0.457336 0.499695
0.531952 0.489227 0.540283
0.630035 0.445282 0.519501
0.719025 0.412598 0.526581
0.817749 0.439514 0.568756
0.067688 0.456482 0.473358
0.073029 0.461273 0.480927
0.121857 0.473907 0.496429
0.234314 0.492096 0.511749
0.375122 0.538605 0.544067
0.559235 0.592651 0.590271
0.674377 0.564240 0.588318
0.777191 0.534790 0.594696
0.871674 0.532471 0.608429
0.134918 0.525604 0.504822
0.139587 0.528259 0.507355
0.175171 0.536774 0.514221
0.273621 0.554657 0.526611
0.403595 0.594116 0.553680
0.570068 0.658539 0.613586
0.710449 0.646820 0.614288
0.846008 0.622009 0.612427
0.911804 0.624054 0.603699
0.190948 0.580780 0.526855
0.199341 0.582214 0.525848
0.237183 0.588654 0.525696
0.317535 0.606415 0.532898
0.434998 0.650055 0.570679
0.584106 0.712585 0.626617
0.710236 0.727936 0.610687
0.843750 0.711761 0.567596
0.949463 0.717163 0.561035
0.219604 0.631073 0.534729
0.239288 0.635284 0.535828
0.288940 0.648987 0.543610
0.369629 0.678314 0.561768
0.470764 0.718262 0.585388
0.588257 0.777130 0.607544
0.701019 0.794556 0.562805
0.837799 0.808899 0.507294
0.964142 0.827179 0.500671
0.172455 0.760773 0.567963
0.237457 0.770599 0.571167
0.311646 0.788177 0.575531
0.395905 0.813202 0.579712
0.492218 0.844757 0.583252
0.587738 0.879944 0.559448
0.714966 0.907562 0.532288
0.849182 0.936676 0.477142
0.974274 0.958740 0.481964
0.044037 0.285858 0.388153
0.047546 0.302917 0.413574
0.056763 0.332153 0.456818
0.074615 0.352783 0.483429
0.140686 0.319031 0.436859
0.350433 0.309845 0.454956
0.453766 0.267517 0.411102
0.530548 0.261383 0.421143
0.615051 0.268463 0.462219
0.043518 0.310974 0.411591
0.047455 0.325104 0.432312
0.058899 0.354218 0.474518
0.084351 0.383026 0.508972
0.167297 0.364319 0.473785
0.380188 0.359070 0.493988
0.478699 0.299683 0.440857
0.550507 0.285309 0.443359
0.645721 0.329163 0.499573
0.043518 0.351288 0.443481
0.048279 0.362854 0.460236
0.060822 0.387299 0.495239
0.098602 0.417816 0.529968
0.207062 0.423737 0.515198
0.421204 0.451202 0.547974
0.537445 0.400757 0.516510
0.601288 0.366394 0.504425
0.696594 0.427948 0.560699
0.052948 0.410858 0.488129
0.056793 0.417664 0.498322
0.072235 0.433197 0.520233
0.129639 0.457855 0.547180
0.253021 0.478638 0.547607
0.445404 0.538391 0.593475
0.595032 0.537354 0.606384
0.669067 0.502472 0.593658
0.742920 0.515717 0.611786
0.078705 0.477936 0.524475
0.082977 0.482666 0.532623
0.112701 0.493500 0.548798
0.200439 0.511841 0.568634
0.311279 0.537109 0.581329
0.463715 0.604553 0.626984
0.619934 0.636780 0.659393
0.713104 0.606323 0.650360
0.792419 0.592743 0.656616
0.131256 0.544830 0.549744
0.133453 0.547791 0.554657
0.156067 0.556091 0.566528
0.248566 0.573700 0.586090
0.360291 0.598419 0.605774
0.492157 0.660797 0.652252
0.629730 0.700531 0.681976
0.749817 0.681030 0.685577
0.846985 0.665680 0.691559
0.174957 0.606659 0.579987
0.179077 0.608704 0.582031
0.194855 0.613800 0.586731
0.262665 0.626678 0.597443
0.375854 0.651855 0.616150
0.500702 0.700775 0.651703
0.638672 0.749573 0.692902
0.791534 0.746277 0.699219
0.922516 0.737152 0.692505
0.183899 0.658630 0.601288
0.199493 0.660828 0.601379
0.232910 0.668823 0.604370
0.303833 0.686035 0.612671
0.407013 0.717529 0.631104
0.524628 0.765106 0.664246
0.668457 0.816956 0.693787
0.827545 0.832703 0.681641
0.964142 0.833160 0.657593
0.123871 0.778015 0.641357
0.190491 0.783905 0.641754
0.272736 0.800812 0.650543
0.363922 0.825409 0.663757
0.455902 0.856262 0.673798
0.560730 0.891113 0.677277
0.687164 0.925140 0.653381
0.846741 0.949341 0.656555
0.982452 0.966492 0.654846
0.051544 0.332825 0.448608
0.057068 0.347504 0.469238
0.071075 0.377289 0.510712
0.093414 0.410431 0.553619
0.136993 0.413269 0.543152
0.291473 0.398621 0.521027
0.479523 0.394745 0.537231
0.551239 0.378723 0.514526
0.607819 0.385254 0.528412
0.054047 0.354279 0.467194
0.059357 0.367188 0.485046
0.072815 0.393036 0.520935
0.098022 0.426422 0.563416
0.154572 0.439392 0.561554
0.308594 0.432770 0.541779
0.498047 0.432739 0.566193
0.567047 0.406494 0.537292
0.627014 0.428772 0.557343
0.057434 0.388550 0.492279
0.062469 0.398193 0.505737
0.074982 0.418793 0.534515
0.104340 0.449951 0.574524
0.182068 0.472412 0.582062
0.330872 0.482574 0.569580
0.526581 0.512512 0.619232
0.600708 0.478516 0.589996
0.665894 0.514648 0.614349
0.068054 0.437286 0.525879
0.072479 0.443848 0.535187
0.083771 0.458069 0.555511
0.117218 0.480988 0.586334
0.216614 0.506592 0.600952
0.354614 0.533966 0.599945
0.537231 0.595886 0.660614
0.641632 0.588348 0.662598
0.701141 0.597015 0.667084
0.096436 0.498993 0.568726
0.100372 0.503143 0.575500
0.114197 0.512115 0.589447
0.162537 0.527863 0.610535
0.264709 0.551208 0.628082
0.383972 0.585236 0.635712
0.539581 0.656769 0.690063
0.663055 0.674500 0.711609
0.733704 0.667542 0.709808
0.136292 0.561646 0.597137
0.138824 0.564636 0.603210
0.153748 0.571564 0.616272
0.226776 0.586426 0.636871
0.329987 0.608002 0.656891
0.424805 0.639832 0.673187
0.549957 0.706879 0.717773
0.673737 0.734863 0.741150
0.772400 0.724518 0.741455
0.166595 0.623596 0.622772
0.169739 0.626007 0.626587
0.178619 0.631165 0.635223
0.236267 0.644379 0.652679
0.351501 0.667297 0.676331
0.456299 0.696503 0.699188
0.563751 0.747620 0.734070
0.699463 0.778107 0.760864
0.858368 0.769867 0.782257
0.183838 0.685883 0.657745
0.191223 0.688751 0.660431
0.206360 0.695709 0.667542
0.253235 0.709625 0.681305
0.356781 0.734375 0.702942
0.470062 0.765350 0.724640
0.598114 0.805237 0.750671
0.771667 0.842194 0.784485
0.940155 0.848907 0.803589
0.152679 0.813507 0.736969
0.193268 0.815948 0.737000
0.250031 0.824890 0.740997
0.326813 0.841156 0.749084
0.406982 0.863007 0.756531
0.512634 0.893524 0.770020
0.630615 0.927460 0.773651
0.822632 0.955017 0.786163
0.979767 0.971405 0.818817
0.066895 0.382050 0.508911
0.073334 0.394257 0.524994
0.086884 0.416718 0.554474
0.107910 0.443726 0.587860
0.147369 0.463226 0.592529
0.262238 0.464294 0.566193
0.467560 0.512207 0.625397
0.578156 0.502228 0.622284
0.619476 0.486938 0.600739
0.069946 0.398865 0.521759
0.075745 0.408600 0.534576
0.089264 0.429230 0.561584
0.111206 0.455170 0.593811
0.159332 0.476105 0.600281
0.274872 0.483490 0.578247
0.469269 0.536469 0.636230
0.590271 0.535126 0.643890
0.636261 0.528992 0.628876
0.074646 0.425415 0.538269
0.079803 0.433258 0.548706
0.092560 0.450256 0.571564
0.116089 0.473389 0.601288
0.180725 0.496277 0.612061
0.296112 0.512695 0.597382
0.468567 0.572540 0.651581
0.605621 0.593323 0.681183
0.660034 0.594147 0.671753
0.086426 0.465454 0.563110
0.091217 0.471252 0.571289
0.102417 0.483429 0.588837
0.127075 0.501740 0.614502
0.209961 0.525116 0.630890
0.325012 0.549927 0.626007
0.465729 0.608154 0.666595
0.607697 0.652283 0.710754
0.681183 0.660065 0.714417
0.115753 0.519531 0.604095
0.119507 0.523254 0.609711
0.128448 0.531189 0.621826
0.154053 0.544067 0.640869
0.245605 0.565308 0.659424
0.357147 0.592438 0.663025
0.471771 0.646179 0.690613
0.603210 0.701355 0.737061
0.695007 0.720062 0.752777
0.152222 0.578674 0.646332
0.155975 0.581329 0.651978
0.167297 0.586945 0.663116
0.213562 0.598541 0.679230
0.304504 0.618134 0.696777
0.396790 0.643463 0.707642
0.486542 0.687531 0.725983
0.598053 0.742767 0.764343
0.711365 0.766510 0.787384
0.181366 0.639130 0.673218
0.186218 0.641602 0.678680
0.197479 0.646912 0.690491
0.241455 0.658142 0.710144
0.341278 0.679504 0.734497
0.434479 0.702087 0.751801
0.509186 0.731903 0.769958
0.629791 0.778992 0.810944
0.792084 0.798584 0.844452
0.214874 0.713562 0.719269
0.224945 0.716583 0.723877
0.239166 0.723663 0.735321
0.270325 0.736237 0.755463
0.348175 0.757324 0.783813
0.454987 0.783966 0.814880
0.566711 0.809357 0.839142
0.687469 0.839020 0.861969
0.896423 0.861938 0.902405
0.176239 0.847931 0.827667
0.219971 0.849213 0.828247
0.261597 0.855103 0.833588
0.312347 0.866364 0.843842
0.385956 0.884247 0.859039
0.476746 0.903595 0.873322
0.594910 0.925964 0.887177
0.757568 0.956421 0.906067
0.973724 0.977570 0.958771
