src/assets/luts/ON1 Nature & Wildlife LUTs/CinematicX LUTs - 30 Free Cinematic LUTs - The Resolve Store 2022/Juan - Rec709.cube
# Copyright: (C) Copyright 2022 The Resolve Store 
# Cannot be resold, shared or otherwise redistributed
TITLE "CinematicX (Rec.709)"
LUT_3D_SIZE 33
0.001617 0.001617 0.001617
0.019379 0.000000 0.000000
0.024780 0.000732 0.000000
0.036774 0.003174 0.000000
0.048157 0.005402 0.000000
0.061005 0.007294 0.000183
0.078125 0.009247 0.001862
0.096588 0.011169 0.002808
0.118103 0.013702 0.004395
0.141663 0.015045 0.005554
0.167480 0.016968 0.007446
0.195160 0.018250 0.009064
0.223969 0.018738 0.010529
0.254242 0.019043 0.012451
0.285400 0.018188 0.013550
0.316467 0.016998 0.014740
0.347443 0.016266 0.017456
0.377350 0.017212 0.022461
0.407684 0.018188 0.028259
0.437897 0.019135 0.035828
0.468445 0.020142 0.043610
0.499084 0.021088 0.051758
0.529999 0.022064 0.060547
0.561005 0.023865 0.070251
0.592377 0.026733 0.080475
0.623566 0.030396 0.091156
0.654907 0.035248 0.102509
0.686401 0.039886 0.114380
0.717926 0.045837 0.126892
0.749451 0.051453 0.139313
0.781067 0.057037 0.151733
0.813019 0.063080 0.164124
0.844330 0.068481 0.176392
0.000000 0.005920 0.000000
0.008331 0.008331 0.000000
0.022125 0.012329 0.000000
0.035522 0.015106 0.000000
0.050049 0.017975 0.000000
0.066589 0.020966 0.000000
0.086090 0.023956 0.000000
0.107727 0.026581 0.000885
0.131073 0.029114 0.001862
0.155914 0.031219 0.003418
0.181915 0.032471 0.004578
0.209747 0.033417 0.006348
0.239319 0.034027 0.007629
0.268951 0.034027 0.009552
0.299530 0.033997 0.010681
0.330353 0.032410 0.012421
0.361176 0.030365 0.013550
0.392548 0.028076 0.014923
0.424164 0.023865 0.016266
0.455170 0.020477 0.019379
0.485657 0.020721 0.026489
0.516022 0.020782 0.034790
0.546570 0.022888 0.045654
0.577148 0.025024 0.057190
0.607758 0.028900 0.069519
0.638519 0.032898 0.081451
0.669312 0.037445 0.093536
0.700348 0.042633 0.106476
0.731384 0.048431 0.119476
0.762604 0.054077 0.132721
0.793732 0.059875 0.145447
0.825226 0.065430 0.158081
0.856201 0.071075 0.170776
0.000275 0.016510 0.000000
0.011383 0.020538 0.000000
0.024811 0.023773 0.000000
0.039459 0.027374 0.000000
0.055725 0.031158 0.000000
0.074524 0.034760 0.000000
0.095917 0.038818 0.000000
0.119202 0.041962 0.000000
0.143860 0.044891 0.000000
0.169525 0.047333 0.000885
0.197052 0.049286 0.002197
0.225769 0.051025 0.003601
0.254730 0.051819 0.005402
0.284454 0.052338 0.006683
0.314575 0.052338 0.008148
0.344635 0.051788 0.009857
0.374969 0.050629 0.011200
0.405914 0.048645 0.012939
0.437103 0.046234 0.014648
0.468140 0.043213 0.016571
0.499664 0.039490 0.018768
0.531769 0.034943 0.021362
0.563416 0.031799 0.027557
0.594421 0.031158 0.037323
0.625336 0.031158 0.048676
0.655579 0.035706 0.063538
0.685913 0.040833 0.078064
0.716431 0.046051 0.092743
0.746948 0.051666 0.107300
0.777466 0.057037 0.121216
0.808044 0.062866 0.134796
0.839081 0.068542 0.148438
0.869476 0.074097 0.161865
0.003174 0.026611 0.000000
0.013611 0.030212 0.000000
0.028534 0.035461 0.000000
0.044647 0.039856 0.000000
0.061768 0.044342 0.000000
0.082245 0.048920 0.000000
0.105286 0.053864 0.000000
0.130219 0.058472 0.000000
0.156372 0.062195 0.000000
0.183777 0.065613 0.000000
0.212097 0.068420 0.000732
0.240936 0.070770 0.002014
0.270294 0.072113 0.003174
0.299774 0.073029 0.004944
0.329376 0.073425 0.006226
0.359100 0.073425 0.008148
0.389191 0.073242 0.009796
0.419464 0.072479 0.011749
0.449829 0.071503 0.013672
0.480530 0.070374 0.015717
0.511749 0.068726 0.018341
0.543701 0.066620 0.021698
0.575653 0.063324 0.025177
0.607758 0.058929 0.028870
0.640045 0.054047 0.033386
0.671967 0.050690 0.041840
0.704132 0.046906 0.051361
0.734467 0.049713 0.068146
0.764465 0.055115 0.085663
0.794495 0.060822 0.101685
0.824402 0.065979 0.117279
0.854736 0.071655 0.132812
0.884552 0.077362 0.147583
0.006073 0.036926 0.000000
0.016479 0.039886 0.000000
0.032013 0.047821 0.000000
0.049042 0.052460 0.000000
0.067596 0.057281 0.000000
0.088593 0.062744 0.000000
0.113281 0.069183 0.000000
0.139648 0.075348 0.000000
0.167877 0.080841 0.000000
0.196899 0.085571 0.000000
0.226196 0.089447 0.000183
0.255737 0.092712 0.001160
0.285217 0.094971 0.002686
0.314880 0.096466 0.003876
0.344269 0.097382 0.005676
0.373596 0.097931 0.007599
0.403259 0.098572 0.009521
0.432922 0.098969 0.011444
0.462799 0.098938 0.013397
0.493347 0.099121 0.016144
0.524475 0.098755 0.019012
0.555786 0.098114 0.022400
0.586945 0.097382 0.026245
0.618286 0.096069 0.030823
0.650299 0.093536 0.035736
0.682739 0.090210 0.041565
0.715363 0.085480 0.047455
0.748138 0.079681 0.053284
0.780365 0.074646 0.061371
0.812683 0.068909 0.070038
0.843079 0.070129 0.086975
0.872620 0.075531 0.106415
0.901672 0.081177 0.124207
0.009827 0.049011 0.000000
0.019775 0.051270 0.000000
0.034180 0.059174 0.000000
0.053345 0.065765 0.000000
0.073029 0.071594 0.000000
0.094696 0.078217 0.000000
0.119659 0.084869 0.000000
0.147705 0.092682 0.000000
0.177551 0.100342 0.000000
0.207855 0.106689 0.000000
0.238800 0.112366 0.000183
0.269135 0.116791 0.001160
0.298920 0.119934 0.002167
0.328613 0.122375 0.003845
0.357941 0.124115 0.005676
0.387421 0.125580 0.007690
0.416626 0.126495 0.009613
0.446167 0.127441 0.011597
0.476166 0.128540 0.014282
0.506561 0.129089 0.017303
0.536957 0.129852 0.020935
0.567535 0.130493 0.024292
0.598114 0.130646 0.028748
0.629242 0.130371 0.033630
0.660828 0.129578 0.038727
0.692749 0.127869 0.044647
0.724731 0.125671 0.050018
0.756775 0.122864 0.055878
0.789154 0.119354 0.061646
0.821777 0.113861 0.067291
0.854614 0.106842 0.073242
0.887970 0.097748 0.079224
0.919983 0.089233 0.087280
0.013947 0.062683 0.000000
0.023743 0.063995 0.000000
0.036072 0.069000 0.000000
0.056366 0.079681 0.000000
0.078613 0.086792 0.000000
0.100739 0.093781 0.000000
0.126038 0.101898 0.000000
0.154755 0.110779 0.000000
0.185425 0.119904 0.000000
0.217072 0.128387 0.000000
0.248718 0.135651 0.000183
0.280212 0.141632 0.001404
0.310852 0.146393 0.002838
0.341034 0.149902 0.004791
0.370483 0.152527 0.006165
0.399872 0.154663 0.008087
0.429382 0.156311 0.010803
0.459106 0.157684 0.013336
0.488983 0.159210 0.016205
0.518707 0.160583 0.019226
0.548553 0.161682 0.023102
0.578705 0.162720 0.027191
0.609161 0.163452 0.031311
0.639954 0.163879 0.036774
0.671021 0.163818 0.042175
0.702209 0.163391 0.047577
0.733582 0.162628 0.053101
0.765137 0.161285 0.058441
0.797058 0.159088 0.064362
0.829102 0.156097 0.070282
0.861298 0.151825 0.075867
0.893738 0.146637 0.081573
0.925293 0.140808 0.087433
0.019165 0.076874 0.000000
0.028748 0.079102 0.000000
0.040436 0.082184 0.000000
0.058624 0.091370 0.000000
0.082794 0.102020 0.000000
0.107361 0.110199 0.000000
0.132874 0.119202 0.000000
0.161438 0.129242 0.000000
0.192352 0.139404 0.000000
0.224579 0.149414 0.000000
0.256927 0.158539 0.000336
0.289215 0.166412 0.001556
0.320740 0.172729 0.003387
0.351501 0.177734 0.005768
0.381653 0.181458 0.007690
0.411407 0.184418 0.009827
0.440857 0.186829 0.012360
0.470367 0.188782 0.015259
0.499908 0.190521 0.018127
0.529388 0.192108 0.021576
0.559235 0.193481 0.025421
0.589111 0.194794 0.029785
0.619507 0.195831 0.035004
0.649933 0.196655 0.040070
0.680481 0.197357 0.045441
0.711121 0.197510 0.050751
0.742096 0.197449 0.056091
0.773254 0.196808 0.061615
0.804688 0.195496 0.067261
0.835907 0.193787 0.072845
0.867218 0.191345 0.078400
0.898956 0.188263 0.083771
0.930176 0.184296 0.089691
0.024963 0.092621 0.000000
0.034821 0.095032 0.000000
0.047241 0.098083 0.000000
0.063263 0.104614 0.000000
0.085480 0.116394 0.000000
0.113953 0.127777 0.000000
0.140045 0.136993 0.000000
0.168365 0.147552 0.000000
0.198975 0.158752 0.000000
0.231110 0.169922 0.000000
0.263916 0.180695 0.000336
0.296661 0.190369 0.002258
0.328705 0.198547 0.003998
0.360229 0.205048 0.006592
0.390961 0.210205 0.008698
0.421082 0.214142 0.011383
0.450745 0.217316 0.014282
0.480103 0.219879 0.017181
0.509247 0.221771 0.020691
0.538757 0.223724 0.024017
0.568573 0.225372 0.028351
0.598572 0.226807 0.032654
0.628571 0.228058 0.038055
0.658600 0.229034 0.043274
0.688934 0.229950 0.048401
0.719330 0.230591 0.053864
0.749878 0.230682 0.059357
0.780518 0.230469 0.064697
0.811218 0.229889 0.070038
0.841797 0.228882 0.075500
0.872528 0.227448 0.080658
0.903961 0.225311 0.086243
0.935211 0.222229 0.092255
0.031525 0.109344 0.000000
0.042297 0.111572 0.000000
0.054871 0.114380 0.000000
0.068665 0.118256 0.000000
0.090912 0.130981 0.000000
0.118896 0.144409 0.000000
0.148560 0.155975 0.000000
0.176056 0.166321 0.000000
0.205933 0.177826 0.000000
0.237396 0.189972 0.000000
0.269958 0.201904 0.000336
0.302582 0.212982 0.002258
0.334808 0.222809 0.004211
0.366486 0.231110 0.006775
0.397217 0.237640 0.009674
0.427490 0.242767 0.012573
0.457397 0.246765 0.015839
0.486908 0.249939 0.019104
0.516815 0.252686 0.022736
0.546539 0.255005 0.027344
0.576416 0.256897 0.031525
0.606262 0.258575 0.036316
0.636017 0.259918 0.040924
0.665985 0.261108 0.046021
0.696167 0.261963 0.051605
0.726135 0.262604 0.056824
0.756104 0.263031 0.061798
0.786194 0.262970 0.066986
0.816406 0.262787 0.072510
0.846802 0.262268 0.077850
0.877411 0.261139 0.083160
0.908936 0.259399 0.089081
0.939972 0.257141 0.095123
0.040466 0.127167 0.000000
0.051727 0.129272 0.000000
0.063477 0.131744 0.000000
0.076965 0.135193 0.000000
0.096405 0.144623 0.000000
0.124603 0.160950 0.000000
0.157227 0.175140 0.000000
0.185455 0.186005 0.000000
0.214325 0.197449 0.000000
0.244812 0.209839 0.000000
0.276215 0.222443 0.000183
0.308044 0.234406 0.001770
0.339844 0.245514 0.004700
0.371216 0.255280 0.007568
0.401886 0.263367 0.010498
0.431976 0.269867 0.013519
0.461945 0.275024 0.016815
0.492096 0.279327 0.021240
0.522064 0.282684 0.025299
0.552032 0.285553 0.029449
0.581818 0.287750 0.034271
0.611633 0.289581 0.039124
0.641327 0.291107 0.044037
0.670990 0.292267 0.049103
0.700714 0.293213 0.053894
0.730377 0.293915 0.059021
0.760345 0.294281 0.064178
0.790405 0.294495 0.069397
0.820679 0.294495 0.074890
0.851044 0.294220 0.080322
0.881866 0.293274 0.085968
0.913361 0.291962 0.091980
0.944092 0.290436 0.097504
0.052032 0.145813 0.000000
0.062866 0.147888 0.000000
0.074677 0.150726 0.000000
0.087524 0.153717 0.000000
0.105408 0.160980 0.000000
0.133209 0.177917 0.000000
0.166321 0.194397 0.000000
0.196716 0.206848 0.000000
0.224426 0.217804 0.000000
0.253571 0.229767 0.000000
0.283691 0.242493 0.000000
0.314209 0.255157 0.001770
0.344971 0.267151 0.004364
0.375519 0.278015 0.007568
0.405792 0.287445 0.010498
0.435699 0.295410 0.014404
0.465424 0.301880 0.017761
0.495117 0.307098 0.022217
0.524933 0.311340 0.026276
0.554840 0.314819 0.031067
0.584717 0.317627 0.036163
0.614532 0.319763 0.041199
0.644287 0.321411 0.046112
0.674011 0.322754 0.051239
0.703857 0.323730 0.056244
0.733734 0.324524 0.061310
0.763611 0.325073 0.066376
0.793640 0.325378 0.071442
0.823975 0.325531 0.076843
0.854675 0.325317 0.082642
0.885559 0.324768 0.088409
0.916748 0.323883 0.094116
0.947510 0.322662 0.099884
0.065491 0.165985 0.000000
0.076111 0.168091 0.000000
0.087616 0.170502 0.000000
0.100555 0.173676 0.000000
0.117126 0.179810 0.000000
0.145020 0.197021 0.000000
0.176849 0.214081 0.000000
0.209656 0.228607 0.000000
0.236786 0.239227 0.000000
0.264374 0.250488 0.000000
0.292847 0.262817 0.000000
0.321747 0.275330 0.001465
0.350739 0.287628 0.004211
0.380096 0.299316 0.006958
0.409424 0.309845 0.010498
0.438690 0.319061 0.014618
0.467957 0.326843 0.018738
0.497223 0.333282 0.022675
0.526520 0.338409 0.027222
0.556000 0.342621 0.032013
0.585846 0.346008 0.037079
0.615784 0.348694 0.042511
0.645752 0.350861 0.048004
0.675629 0.352417 0.053162
0.705688 0.353729 0.058289
0.735718 0.354706 0.063599
0.765930 0.355347 0.068634
0.796143 0.355835 0.073883
0.826752 0.356110 0.079437
0.857422 0.356110 0.084930
0.888214 0.355804 0.090546
0.919434 0.355133 0.096283
0.950104 0.354279 0.101959
0.082062 0.187408 0.000000
0.092072 0.189575 0.000000
0.103088 0.191895 0.000000
0.115509 0.194580 0.000000
0.131287 0.200043 0.000000
0.158356 0.216858 0.000000
0.190063 0.235199 0.000000
0.223358 0.250336 0.000000
0.251129 0.261719 0.000000
0.277161 0.272095 0.000000
0.303650 0.283417 0.000000
0.330444 0.295288 0.000793
0.357697 0.307373 0.003204
0.385315 0.319336 0.006775
0.413208 0.330566 0.010498
0.441223 0.340759 0.014404
0.469574 0.349609 0.018738
0.498108 0.357208 0.022888
0.527100 0.363617 0.028168
0.556335 0.368713 0.033112
0.585846 0.372894 0.038391
0.615662 0.376343 0.043823
0.645721 0.379150 0.048950
0.675873 0.381287 0.054413
0.706146 0.382965 0.059937
0.736603 0.384277 0.065186
0.767151 0.385223 0.070862
0.797821 0.385956 0.076202
0.828705 0.386383 0.081818
0.859436 0.386475 0.087341
0.890259 0.386383 0.092896
0.921326 0.385986 0.098541
0.951691 0.385345 0.104095
0.100952 0.209808 0.000000
0.110504 0.211823 0.000000
0.120911 0.214020 0.000000
0.132874 0.216553 0.000000
0.149017 0.222687 0.000000
0.175171 0.238861 0.000000
0.206177 0.257446 0.000000
0.238983 0.273224 0.000000
0.267303 0.284973 0.000000
0.291687 0.294342 0.000000
0.316132 0.304535 0.000000
0.340973 0.315521 0.000732
0.366180 0.327026 0.003082
0.391785 0.338715 0.006012
0.417633 0.350067 0.009674
0.444153 0.360687 0.013733
0.471100 0.370331 0.018188
0.498718 0.379028 0.023193
0.526886 0.386505 0.028290
0.555695 0.392792 0.034027
0.585052 0.398132 0.039673
0.614685 0.402496 0.044922
0.644714 0.406067 0.050354
0.674896 0.408966 0.055725
0.705719 0.411316 0.061005
0.736572 0.413147 0.067017
0.767578 0.414551 0.072632
0.798553 0.415527 0.078400
0.829620 0.416260 0.083984
0.860474 0.416626 0.089355
0.891052 0.416779 0.094788
0.921448 0.416748 0.099396
0.949829 0.416931 0.102386
0.122406 0.232880 0.005768
0.131134 0.234558 0.005005
0.141113 0.236633 0.004639
0.152283 0.239014 0.003662
0.169708 0.247498 0.003601
0.195557 0.263794 0.004211
0.224426 0.280731 0.004211
0.255402 0.295959 0.004181
0.284668 0.308990 0.003571
0.307953 0.317657 0.001953
0.330444 0.326660 0.001556
0.353241 0.336456 0.001678
0.376190 0.346863 0.003387
0.399567 0.357697 0.005798
0.423401 0.368591 0.008728
0.447632 0.379272 0.012604
0.472961 0.389343 0.016815
0.499054 0.398651 0.022003
0.526154 0.407074 0.027802
0.554108 0.414581 0.033569
0.583008 0.421143 0.039459
0.612549 0.426636 0.044739
0.642548 0.431244 0.050171
0.673096 0.435211 0.055725
0.703949 0.438446 0.061401
0.735107 0.440948 0.067352
0.766357 0.443024 0.073090
0.797638 0.444519 0.078827
0.828918 0.445679 0.084442
0.859528 0.446442 0.089447
0.889648 0.447021 0.093781
0.918884 0.447449 0.096924
0.947052 0.447876 0.099518
0.145203 0.255859 0.014679
0.153442 0.257538 0.013733
0.162506 0.259430 0.013489
0.173859 0.262939 0.012604
0.191925 0.272797 0.013000
0.216614 0.288422 0.013092
0.244629 0.305176 0.013092
0.273438 0.319397 0.012695
0.303131 0.333405 0.011292
0.325623 0.341949 0.008423
0.346283 0.349731 0.006073
0.366852 0.358124 0.004547
0.387604 0.367188 0.004486
0.408691 0.376862 0.005737
0.430298 0.386932 0.008087
0.452393 0.396942 0.011597
0.475555 0.407013 0.015869
0.500031 0.416718 0.020691
0.525604 0.425812 0.026245
0.552521 0.434326 0.031769
0.580658 0.442047 0.037781
0.609833 0.448822 0.044220
0.639832 0.454712 0.049713
0.670441 0.459778 0.055725
0.701538 0.464081 0.061523
0.732910 0.467651 0.066986
0.764343 0.470428 0.072937
0.796021 0.472717 0.078827
0.827118 0.474365 0.083710
0.857452 0.475739 0.087555
0.886871 0.476776 0.090454
0.915985 0.477600 0.093140
0.944214 0.478302 0.095978
0.168915 0.278992 0.026978
0.176422 0.280396 0.026031
0.184845 0.282288 0.025055
0.198242 0.289246 0.025360
0.216400 0.299896 0.025879
0.239594 0.314362 0.026031
0.266022 0.330322 0.026306
0.293182 0.344177 0.025146
0.320801 0.357269 0.022858
0.343903 0.366669 0.018829
0.362823 0.373383 0.013855
0.381531 0.380524 0.010406
0.400177 0.388153 0.007996
0.419037 0.396423 0.007385
0.438385 0.405273 0.008606
0.458313 0.414490 0.010986
0.479370 0.424011 0.014526
0.501801 0.433746 0.019135
0.525818 0.443237 0.024719
0.551361 0.452332 0.030304
0.578400 0.460999 0.036560
0.606873 0.468994 0.042694
0.636505 0.476227 0.049255
0.667114 0.482483 0.054871
0.698273 0.487915 0.061005
0.729858 0.492645 0.066742
0.761658 0.496613 0.072235
0.793121 0.499664 0.077148
0.824249 0.502136 0.080841
0.854492 0.504181 0.084167
0.884216 0.505859 0.087097
0.913605 0.507263 0.090027
0.941925 0.508362 0.092651
0.193146 0.301849 0.043671
0.199829 0.303345 0.042786
0.209625 0.307617 0.042542
0.224792 0.317261 0.043335
0.242981 0.328918 0.044159
0.264191 0.341919 0.044250
0.288025 0.355896 0.043884
0.312653 0.368317 0.041809
0.338501 0.380981 0.038635
0.362213 0.391479 0.033417
0.379669 0.397247 0.026154
0.396698 0.403259 0.020477
0.413483 0.409576 0.015289
0.430237 0.416351 0.011963
0.447418 0.423950 0.010223
0.465240 0.432037 0.010773
0.484253 0.440735 0.013153
0.504700 0.449921 0.017212
0.526611 0.459320 0.022064
0.550629 0.468872 0.027863
0.576508 0.478180 0.033905
0.603912 0.487091 0.040466
0.632812 0.495483 0.047058
0.663025 0.503082 0.053345
0.694153 0.509888 0.059357
0.725891 0.515808 0.064941
0.757599 0.520905 0.069519
0.789246 0.525208 0.073425
0.820770 0.528717 0.077087
0.851654 0.531647 0.080841
0.881775 0.534088 0.083923
0.911469 0.536194 0.086914
0.940002 0.537994 0.089600
0.217529 0.325073 0.062317
0.225800 0.329224 0.062592
0.237366 0.336578 0.063416
0.251221 0.345245 0.064484
0.267883 0.355835 0.065063
0.287903 0.368469 0.065613
0.309326 0.380920 0.064117
0.331390 0.391663 0.061401
0.354645 0.402863 0.057251
0.378754 0.414825 0.051392
0.396088 0.420990 0.043518
0.411591 0.426086 0.034912
0.426819 0.431335 0.026794
0.441986 0.436981 0.019684
0.457214 0.443054 0.014984
0.473083 0.449921 0.012848
0.490082 0.457581 0.012726
0.508545 0.465912 0.015533
0.528748 0.474976 0.019379
0.550781 0.484375 0.025055
0.575165 0.494110 0.031525
0.601349 0.503662 0.038147
0.629303 0.513000 0.044708
0.658722 0.521759 0.051086
0.689606 0.529938 0.056641
0.721039 0.537109 0.061340
0.752838 0.543427 0.065277
0.784851 0.548920 0.069153
0.816864 0.553833 0.072845
0.848267 0.557861 0.076447
0.878998 0.561340 0.079865
0.909119 0.564362 0.082794
0.937744 0.566956 0.085114
0.245087 0.353088 0.082886
0.254059 0.358704 0.083954
0.264435 0.365112 0.084686
0.276733 0.372772 0.085358
0.291595 0.381989 0.085846
0.309509 0.393219 0.085846
0.329803 0.405640 0.085205
0.349823 0.415375 0.082428
0.370667 0.425385 0.077972
0.392456 0.435944 0.071899
0.411835 0.444458 0.063385
0.426147 0.448792 0.052887
0.440002 0.453247 0.042145
0.453888 0.458038 0.031830
0.467743 0.463043 0.023438
0.481903 0.468628 0.016907
0.497162 0.475037 0.014496
0.513702 0.482391 0.014648
0.531982 0.490601 0.017456
0.552246 0.499603 0.022217
0.574615 0.509064 0.028656
0.599304 0.518982 0.034729
0.626099 0.528870 0.041809
0.654633 0.538574 0.048157
0.684845 0.547882 0.053436
0.716034 0.556488 0.057312
0.748016 0.564178 0.061371
0.780396 0.571136 0.065033
0.812866 0.577362 0.068848
0.844788 0.582825 0.072266
0.875885 0.587402 0.075470
0.906342 0.591492 0.078217
0.935486 0.595093 0.080750
0.273773 0.383667 0.104034
0.281799 0.388641 0.104828
0.291016 0.394287 0.105621
0.302032 0.401123 0.106262
0.315491 0.409485 0.106720
0.331573 0.419495 0.106750
0.349487 0.430176 0.106049
0.367310 0.438904 0.103241
0.385864 0.447601 0.099121
0.405396 0.456757 0.092987
0.424866 0.465973 0.084595
0.440399 0.471802 0.073120
0.453125 0.475525 0.060120
0.465881 0.479492 0.047302
0.478516 0.483643 0.035187
0.491486 0.488190 0.024902
0.505035 0.493408 0.017975
0.519867 0.499481 0.015076
0.536316 0.506653 0.015625
0.554596 0.514740 0.019348
0.575134 0.523682 0.024475
0.597900 0.533356 0.030579
0.623199 0.543549 0.037598
0.650665 0.553864 0.043579
0.680115 0.564148 0.048706
0.711090 0.574066 0.053894
0.743134 0.583313 0.058044
0.775757 0.591644 0.061737
0.808594 0.599304 0.065216
0.840881 0.606049 0.068054
0.872284 0.611969 0.070496
0.903046 0.617310 0.072601
0.932617 0.622192 0.075012
0.300690 0.413818 0.124420
0.307739 0.417969 0.124878
0.315765 0.422791 0.125366
0.325348 0.428497 0.125916
0.336945 0.435486 0.126068
0.351135 0.444122 0.126068
0.367218 0.453583 0.125427
0.383392 0.461731 0.123169
0.399841 0.469238 0.119080
0.417206 0.477142 0.113403
0.434906 0.485321 0.105103
0.452484 0.493347 0.094269
0.465942 0.498047 0.080292
0.477631 0.501251 0.064850
0.489380 0.504761 0.049438
0.501160 0.508392 0.035309
0.513519 0.512543 0.024170
0.526703 0.517303 0.016693
0.541382 0.523193 0.014435
0.557892 0.530182 0.016022
0.576569 0.538269 0.020325
0.597534 0.547424 0.025757
0.621094 0.557434 0.032196
0.647217 0.568085 0.038208
0.675720 0.579041 0.043579
0.706116 0.589996 0.048676
0.737976 0.600555 0.053802
0.770752 0.610443 0.057739
0.803711 0.619385 0.060669
0.836060 0.627502 0.062805
0.867828 0.634918 0.064911
0.899200 0.641846 0.067322
0.929626 0.648193 0.069031
0.323364 0.441132 0.142670
0.329681 0.444855 0.143280
0.336761 0.448944 0.143585
0.345276 0.453918 0.143738
0.355682 0.459961 0.143982
0.367828 0.467072 0.143707
0.382202 0.475494 0.142944
0.397247 0.483582 0.141205
0.412109 0.490265 0.137421
0.427551 0.497192 0.131989
0.443604 0.504395 0.124329
0.460022 0.511841 0.114044
0.476257 0.519073 0.100586
0.488861 0.523376 0.083832
0.499634 0.525970 0.065186
0.510529 0.528900 0.047089
0.521912 0.532135 0.031860
0.533997 0.535919 0.020569
0.547272 0.540588 0.013824
0.562042 0.546295 0.012878
0.579041 0.553345 0.015625
0.598358 0.561676 0.020447
0.620117 0.571228 0.025879
0.644592 0.581726 0.031677
0.671844 0.592987 0.037445
0.701385 0.604553 0.042877
0.732880 0.616180 0.048340
0.765594 0.627533 0.053253
0.798492 0.637909 0.056335
0.831146 0.647491 0.059021
0.863556 0.656616 0.060852
0.896210 0.665680 0.062012
0.927948 0.674133 0.062775
0.340149 0.464966 0.158936
0.345917 0.468170 0.159149
0.352509 0.471771 0.159393
0.360077 0.476074 0.159546
0.369354 0.481323 0.159485
0.380341 0.487518 0.159119
0.392944 0.494751 0.158264
0.407104 0.502747 0.156525
0.421387 0.509949 0.153259
0.435608 0.516205 0.148254
0.450287 0.522705 0.141022
0.465393 0.529388 0.130890
0.480804 0.536194 0.117645
0.496277 0.543030 0.100800
0.508575 0.547089 0.080505
0.519226 0.549683 0.058868
0.529999 0.552307 0.039856
0.541229 0.555237 0.024536
0.553436 0.558868 0.014893
0.567017 0.563416 0.010590
0.582489 0.569305 0.011505
0.600189 0.576630 0.014648
0.620331 0.585358 0.019501
0.643280 0.595367 0.025146
0.669098 0.606659 0.031097
0.697723 0.618652 0.037811
0.728546 0.631165 0.043549
0.760742 0.643494 0.047607
0.793732 0.655579 0.051086
0.827484 0.667572 0.053131
0.860931 0.678925 0.054230
0.894135 0.689636 0.054779
0.926300 0.699615 0.055084
0.351654 0.485748 0.172943
0.357117 0.488647 0.172882
0.363190 0.491913 0.172974
0.370300 0.495697 0.172852
0.378754 0.500305 0.172546
0.388733 0.505768 0.171783
0.400238 0.512115 0.170685
0.413086 0.519165 0.168793
0.427124 0.526917 0.165955
0.441193 0.534027 0.161346
0.454956 0.539978 0.154236
0.469086 0.546082 0.144623
0.483490 0.552338 0.131348
0.498138 0.558594 0.114166
0.512970 0.564972 0.093231
0.526581 0.570129 0.069916
0.537506 0.572784 0.047272
0.548370 0.575195 0.028687
0.559967 0.578064 0.015625
0.572662 0.581665 0.008789
0.586945 0.586426 0.007935
0.603302 0.592651 0.009918
0.622162 0.600433 0.014069
0.643555 0.609680 0.019714
0.668243 0.621033 0.025787
0.695984 0.634064 0.031677
0.726013 0.647278 0.036774
0.758148 0.661255 0.040588
0.791534 0.675232 0.042816
0.825287 0.688751 0.044861
0.858795 0.701447 0.046356
0.892090 0.713440 0.047333
0.924286 0.724518 0.046539
0.358582 0.504761 0.184723
0.364044 0.507446 0.184540
0.370026 0.510498 0.184265
0.376801 0.513947 0.183960
0.384735 0.517975 0.183319
0.393951 0.522766 0.182159
0.404602 0.528351 0.180603
0.416351 0.534515 0.178406
0.429199 0.541382 0.175171
0.443085 0.548920 0.170898
0.457214 0.556000 0.164185
0.470978 0.562195 0.154572
0.484711 0.567932 0.141144
0.498718 0.573822 0.123535
0.513153 0.579865 0.101746
0.527893 0.586060 0.077240
0.543152 0.592407 0.053406
0.555359 0.595795 0.032166
0.566681 0.598236 0.016327
0.578918 0.601166 0.008118
0.592499 0.604950 0.005280
0.607910 0.610565 0.005981
0.625763 0.618469 0.009247
0.646362 0.628052 0.014038
0.670319 0.639740 0.019440
