src/assets/luts/ON1 Nature & Wildlife LUTs/CinematicX LUTs - 30 Free Cinematic LUTs - The Resolve Store 2022/Limay - Rec709.cube
# Copyright: (C) Copyright 2022 The Resolve Store 
# Cannot be resold, shared or otherwise redistributed
TITLE "CinematicX (Rec.709)"
LUT_3D_SIZE 33
0.000214 0.000397 0.000000
0.025787 0.004181 0.000000
0.050446 0.007782 0.001312
0.074432 0.010986 0.001495
0.101898 0.013824 0.001007
0.131592 0.017395 0.002747
0.162292 0.020538 0.005463
0.194916 0.022736 0.008606
0.228302 0.024750 0.012756
0.262939 0.027161 0.017242
0.298065 0.030701 0.022766
0.333252 0.034668 0.029633
0.368713 0.039612 0.037476
0.403381 0.044830 0.044922
0.437286 0.051239 0.052338
0.469849 0.057617 0.059845
0.501038 0.064941 0.066711
0.530396 0.072449 0.073212
0.558044 0.080536 0.079224
0.583771 0.088409 0.084839
0.607880 0.096466 0.090424
0.630615 0.104523 0.095856
0.651855 0.112061 0.101135
0.672058 0.119171 0.106018
0.691223 0.125977 0.111053
0.709595 0.132233 0.115967
0.727356 0.137878 0.120605
0.744720 0.143066 0.125244
0.761810 0.147736 0.129700
0.778687 0.151733 0.133972
0.795654 0.155762 0.138397
0.813080 0.159882 0.142853
0.830627 0.163879 0.147461
0.001740 0.015656 0.005981
0.020081 0.017517 0.005768
0.045868 0.022034 0.005981
0.070892 0.025909 0.006531
0.098969 0.029846 0.006165
0.130707 0.032928 0.004791
0.163422 0.037170 0.006775
0.196716 0.040741 0.009918
0.230988 0.044128 0.013977
0.265961 0.047058 0.018646
0.301422 0.050049 0.024017
0.336731 0.053497 0.030609
0.371826 0.057465 0.037903
0.406586 0.062164 0.045349
0.440155 0.067017 0.052765
0.472198 0.072296 0.060181
0.502991 0.078613 0.066803
0.532074 0.084930 0.073273
0.559418 0.091858 0.079498
0.584991 0.099091 0.085236
0.608917 0.106537 0.090698
0.631439 0.113983 0.096191
0.652802 0.121368 0.101318
0.673004 0.128906 0.106506
0.692352 0.135895 0.111542
0.710907 0.142487 0.116425
0.728851 0.148590 0.121124
0.746277 0.154022 0.125763
0.763428 0.158875 0.130280
0.780426 0.163147 0.134674
0.797485 0.167236 0.139130
0.814941 0.171295 0.143646
0.832581 0.175079 0.148102
0.002686 0.032227 0.013458
0.020447 0.032898 0.012054
0.042389 0.036438 0.011414
0.067596 0.041473 0.011322
0.096741 0.046173 0.010620
0.130219 0.049713 0.008820
0.163940 0.053009 0.008789
0.197937 0.056946 0.011810
0.232941 0.060760 0.015839
0.268250 0.063843 0.020294
0.303864 0.066742 0.025269
0.339447 0.069733 0.031830
0.374481 0.072784 0.038849
0.409119 0.076721 0.045990
0.442383 0.080902 0.053162
0.474304 0.085632 0.060089
0.504669 0.090881 0.067108
0.533539 0.096832 0.073456
0.560547 0.103119 0.079620
0.586060 0.110046 0.085541
0.609985 0.117401 0.091064
0.632538 0.125122 0.096527
0.653961 0.132904 0.102051
0.674316 0.140564 0.107025
0.693817 0.148010 0.112061
0.712494 0.154999 0.117004
0.730560 0.161346 0.121765
0.748108 0.167023 0.126434
0.765411 0.172089 0.130951
0.782532 0.176605 0.135376
0.799652 0.180756 0.139923
0.817291 0.184937 0.144348
0.834991 0.188782 0.149017
0.003082 0.047821 0.020447
0.021881 0.048981 0.018860
0.042114 0.052002 0.017548
0.064880 0.056244 0.016571
0.094238 0.062561 0.016113
0.128937 0.067078 0.013733
0.164124 0.070679 0.012756
0.199158 0.074585 0.014374
0.234741 0.078583 0.018494
0.270630 0.082001 0.022400
0.306641 0.084503 0.027252
0.342316 0.087006 0.033142
0.377258 0.089539 0.039642
0.411621 0.092651 0.046722
0.444641 0.096039 0.053558
0.476318 0.100189 0.060577
0.506500 0.104858 0.067352
0.535126 0.110291 0.073792
0.562042 0.116302 0.080048
0.587372 0.123169 0.085815
0.611176 0.130402 0.091583
0.633820 0.138275 0.097046
0.655396 0.146210 0.102600
0.675812 0.154297 0.107605
0.695404 0.161987 0.112762
0.714294 0.169312 0.117737
0.732544 0.175873 0.122498
0.750183 0.181671 0.127167
0.767670 0.186981 0.131866
0.784882 0.191711 0.136444
0.802185 0.195984 0.140808
0.819855 0.200195 0.145447
0.837646 0.204193 0.150024
0.003845 0.065247 0.027527
0.023438 0.066376 0.025909
0.043091 0.068573 0.024384
0.063965 0.072693 0.023346
0.090790 0.079285 0.022217
0.126801 0.085815 0.019989
0.163574 0.090240 0.017609
0.199982 0.094452 0.018250
0.236298 0.098602 0.021973
0.272736 0.101654 0.025879
0.309113 0.104340 0.029938
0.345154 0.106598 0.035309
0.380280 0.108673 0.041504
0.414398 0.111206 0.047760
0.447327 0.113983 0.054504
0.478668 0.117371 0.061096
0.508606 0.121674 0.067932
0.536835 0.126678 0.074402
0.563721 0.132294 0.080719
0.588898 0.139038 0.086456
0.612732 0.146149 0.092224
0.635437 0.154022 0.097778
0.657013 0.162140 0.103363
0.677612 0.170258 0.108704
0.697296 0.178009 0.113831
0.716278 0.185364 0.118774
0.734589 0.192139 0.123596
0.752533 0.198212 0.128265
0.770111 0.203522 0.132904
0.787476 0.208405 0.137512
0.804932 0.212891 0.141907
0.822723 0.217102 0.146576
0.840698 0.221313 0.151031
0.005493 0.085693 0.035522
0.025543 0.087128 0.034668
0.045258 0.089417 0.033478
0.064545 0.092438 0.032410
0.088501 0.097595 0.030975
0.122009 0.105255 0.028748
0.161194 0.111816 0.025055
0.199951 0.116760 0.024078
0.237061 0.120422 0.026733
0.274384 0.123749 0.029938
0.311615 0.126373 0.033783
0.347778 0.128571 0.038513
0.383087 0.130524 0.043732
0.417389 0.132690 0.049835
0.450134 0.135071 0.055908
0.481323 0.138000 0.062286
0.510895 0.141693 0.068878
0.539093 0.146210 0.075134
0.565582 0.151489 0.081421
0.590729 0.157745 0.087250
0.614502 0.164825 0.093231
0.637146 0.172333 0.098816
0.658752 0.180237 0.104187
0.679504 0.188324 0.109619
0.699432 0.196259 0.114807
0.718475 0.203552 0.119781
0.737030 0.210297 0.124573
0.755127 0.216309 0.129517
0.772705 0.221710 0.134125
0.790222 0.226685 0.138580
0.807770 0.231171 0.143158
0.825806 0.235626 0.147675
0.843903 0.239899 0.152283
0.007111 0.108154 0.042938
0.026825 0.109558 0.042358
0.046509 0.111481 0.041931
0.065338 0.114594 0.041199
0.087769 0.118927 0.040466
0.118164 0.125336 0.038086
0.156708 0.133270 0.034943
0.197601 0.139679 0.032593
0.236969 0.144135 0.033234
0.275146 0.147491 0.035858
0.312927 0.150208 0.038696
0.349884 0.152649 0.042419
0.385590 0.154633 0.046997
0.419952 0.156616 0.052216
0.452728 0.158813 0.058167
0.483582 0.161346 0.064301
0.513214 0.164856 0.070496
0.541138 0.168976 0.076660
0.567535 0.173859 0.082703
0.592590 0.179718 0.088684
0.616302 0.186401 0.094574
0.639008 0.193726 0.100098
0.660767 0.201385 0.105682
0.681549 0.209015 0.111023
0.701569 0.216553 0.116180
0.720825 0.223633 0.121124
0.739532 0.230255 0.125977
0.757751 0.236267 0.130676
0.775543 0.241638 0.135406
0.793274 0.246490 0.139862
0.811005 0.251068 0.144257
0.829132 0.255463 0.148956
0.847290 0.259766 0.153656
0.008484 0.132141 0.050598
0.028748 0.133728 0.050232
0.047852 0.135681 0.050079
0.066101 0.138275 0.050232
0.087555 0.142334 0.049805
0.115906 0.147888 0.048492
0.151672 0.155273 0.045349
0.193542 0.163025 0.042572
0.235199 0.168793 0.041443
0.274689 0.172729 0.042725
0.313416 0.175781 0.044495
0.351196 0.178467 0.047577
0.387482 0.180908 0.051178
0.422028 0.182800 0.055786
0.454956 0.185181 0.061249
0.485840 0.187653 0.066803
0.515167 0.190674 0.072693
0.543091 0.194550 0.078827
0.569397 0.199158 0.084778
0.594452 0.204651 0.090454
0.618256 0.210815 0.096252
0.640930 0.217438 0.101837
0.662811 0.224701 0.107239
0.683716 0.231903 0.112579
0.703857 0.238983 0.117737
0.723328 0.245667 0.122650
0.742188 0.251953 0.127441
0.760590 0.257751 0.132141
0.778595 0.262909 0.136810
0.796448 0.267700 0.141388
0.814331 0.272125 0.145691
0.832642 0.276489 0.150360
0.851013 0.280670 0.155029
0.009644 0.158447 0.058380
0.030548 0.160095 0.058105
0.049591 0.162018 0.058472
0.066895 0.164276 0.059143
0.087494 0.167633 0.059387
0.114075 0.172882 0.058838
0.147552 0.179199 0.056274
0.187805 0.186584 0.052612
0.231598 0.194000 0.050049
0.272644 0.198853 0.050385
0.312714 0.202789 0.051361
0.351379 0.205994 0.053314
0.388306 0.208618 0.056549
0.423492 0.211121 0.060394
0.456604 0.213440 0.065094
0.487640 0.216003 0.070190
0.516998 0.219025 0.075623
0.544769 0.222473 0.081116
0.571198 0.226837 0.086975
0.596130 0.231842 0.092621
0.619995 0.237488 0.098236
0.642853 0.243500 0.103912
0.664764 0.250000 0.109131
0.685913 0.256714 0.114441
0.706146 0.263092 0.119507
0.725830 0.269257 0.124451
0.744843 0.275024 0.129211
0.763489 0.280518 0.133850
0.781677 0.285400 0.138397
0.799683 0.289917 0.142822
0.817719 0.294250 0.147217
0.836212 0.298370 0.151703
0.854736 0.302399 0.156372
0.011169 0.186554 0.065857
0.032867 0.188141 0.066071
0.051483 0.190063 0.066437
0.068817 0.192108 0.067169
0.087952 0.195068 0.068359
0.112244 0.199554 0.068573
0.143768 0.205536 0.066895
0.182007 0.212616 0.063965
0.225555 0.220001 0.060394
0.269836 0.226227 0.058167
0.310883 0.230774 0.058533
0.350494 0.234528 0.060028
0.388214 0.237793 0.062164
0.424011 0.240753 0.065338
0.457397 0.243164 0.069702
0.488800 0.245972 0.074158
0.518280 0.249084 0.079254
0.546173 0.252411 0.084473
0.572632 0.256317 0.090088
0.597717 0.260895 0.095245
0.621643 0.266022 0.100800
0.644623 0.271423 0.106232
0.666656 0.277130 0.111511
0.688019 0.282959 0.116425
0.708466 0.288727 0.121490
0.728271 0.294250 0.126373
0.747559 0.299438 0.131073
0.766266 0.304382 0.135406
0.784729 0.308868 0.139893
0.802948 0.313080 0.144379
0.821228 0.317139 0.148743
0.839844 0.321106 0.153137
0.858612 0.324921 0.157654
0.012970 0.215851 0.072205
0.035461 0.217987 0.073029
0.054565 0.219818 0.073792
0.071503 0.221954 0.074860
0.090332 0.224640 0.076050
0.113037 0.228394 0.077271
0.141449 0.233673 0.076874
0.176971 0.240295 0.074951
0.219055 0.247467 0.071594
0.264984 0.254517 0.067688
0.307892 0.259735 0.066376
0.348602 0.264069 0.067078
0.387146 0.267853 0.068848
0.423584 0.271332 0.071350
0.457550 0.274292 0.074982
0.489288 0.277252 0.079071
0.519012 0.280365 0.083466
0.547119 0.283661 0.088379
0.573639 0.287323 0.093445
0.598969 0.291290 0.098480
0.622986 0.295715 0.103760
0.646149 0.300507 0.108917
0.668457 0.305481 0.113861
0.690002 0.310547 0.118866
0.710693 0.315399 0.123779
0.730713 0.320221 0.128235
0.750183 0.324860 0.132782
0.769226 0.329285 0.137177
0.787811 0.333374 0.141541
0.806213 0.337158 0.145813
0.824707 0.340942 0.150116
0.843597 0.344604 0.154633
0.862640 0.348267 0.158905
0.015747 0.246368 0.078217
0.038635 0.248688 0.079224
0.057343 0.250885 0.080505
0.074982 0.253082 0.081848
0.094208 0.255890 0.083313
0.116333 0.259155 0.084412
0.142883 0.263733 0.085052
0.175568 0.269684 0.084290
0.214691 0.276367 0.082306
0.259491 0.283508 0.078796
0.304321 0.289551 0.075439
0.346130 0.294403 0.074738
0.385376 0.298615 0.075958
0.422424 0.302368 0.077820
0.456909 0.305695 0.080780
0.489105 0.308960 0.084351
0.519257 0.312134 0.088318
0.547577 0.315308 0.092773
0.574402 0.318726 0.097382
0.599823 0.322235 0.102112
0.624176 0.326080 0.106903
0.647552 0.330200 0.111786
0.670013 0.334412 0.116608
0.691803 0.338684 0.121277
0.712769 0.342926 0.125732
0.733124 0.346985 0.130310
0.752808 0.350983 0.134735
0.772064 0.354828 0.138916
0.790894 0.358459 0.143219
0.809570 0.361877 0.147430
0.828186 0.365265 0.151550
0.847351 0.368622 0.155853
0.866577 0.371948 0.160187
0.019043 0.277588 0.084106
0.041962 0.279999 0.085510
0.060638 0.282318 0.087036
0.078278 0.284790 0.088715
0.097992 0.287567 0.090271
0.120544 0.291107 0.091431
0.147064 0.295502 0.092224
0.178131 0.300720 0.092468
0.214478 0.306793 0.091583
0.256378 0.313477 0.089355
0.300812 0.319794 0.086121
0.343414 0.325165 0.083923
0.383270 0.329559 0.083801
0.420868 0.333649 0.085144
0.455872 0.337219 0.087341
0.488617 0.340668 0.090393
0.519073 0.343842 0.093750
0.547760 0.346954 0.097382
0.574890 0.350128 0.101593
0.600525 0.353271 0.105927
0.625122 0.356598 0.110321
0.648712 0.359955 0.114807
0.671448 0.363586 0.119141
0.693451 0.367188 0.123535
0.714722 0.370697 0.127960
0.735321 0.374176 0.132233
0.755341 0.377563 0.136414
0.774780 0.380890 0.140533
0.793884 0.384064 0.144775
0.812744 0.387115 0.148743
0.831665 0.390015 0.152954
0.851013 0.393036 0.157104
0.870483 0.395996 0.161316
0.022461 0.309357 0.089996
0.045563 0.311829 0.091614
0.063904 0.314056 0.093475
0.081360 0.316528 0.095245
0.101471 0.319427 0.097107
0.124084 0.322937 0.098602
0.150818 0.327148 0.099915
0.181671 0.332245 0.100403
0.217194 0.338043 0.100250
0.256836 0.344269 0.099060
0.298798 0.350464 0.097229
0.341064 0.356079 0.094666
0.381317 0.360748 0.093262
0.419220 0.364960 0.093475
0.454712 0.368652 0.094727
0.487854 0.372162 0.096802
0.518799 0.375366 0.099609
0.547852 0.378387 0.102661
0.575226 0.381226 0.106049
0.601105 0.384064 0.109894
0.625916 0.386871 0.113922
0.649780 0.389801 0.117828
0.672852 0.392731 0.121948
0.695068 0.395752 0.125977
0.716583 0.398651 0.130066
0.737427 0.401550 0.134125
0.757721 0.404449 0.138062
0.777466 0.407257 0.142029
0.796783 0.409943 0.146179
0.815918 0.412659 0.150024
0.835052 0.415222 0.153992
0.854645 0.417816 0.158142
0.874481 0.420563 0.162231
0.026947 0.341492 0.095612
0.049835 0.343872 0.097565
0.067749 0.346008 0.099579
0.085236 0.348450 0.101776
0.105011 0.351257 0.104004
0.127930 0.354462 0.105957
0.154175 0.358582 0.107727
0.184631 0.363464 0.108795
0.219177 0.369019 0.109161
0.257477 0.375000 0.109009
0.298340 0.381165 0.108246
0.339600 0.386902 0.106598
0.379822 0.391846 0.103790
0.418060 0.396149 0.102936
0.453888 0.399994 0.103455
0.487244 0.403381 0.104401
0.518524 0.406494 0.105896
0.547821 0.409302 0.108093
0.575562 0.411957 0.111023
0.601685 0.414459 0.114136
0.626831 0.416901 0.117523
0.650879 0.419312 0.121002
0.674103 0.421722 0.124634
0.696594 0.424164 0.128143
0.718384 0.426636 0.132050
0.739532 0.429047 0.136017
0.760010 0.431396 0.139862
0.779968 0.433777 0.143463
0.799561 0.436096 0.147278
0.818970 0.438416 0.151184
0.838379 0.440704 0.155060
0.858246 0.443085 0.159210
0.878296 0.445374 0.163269
0.033142 0.374084 0.100983
0.055206 0.376251 0.103333
0.072693 0.378326 0.105652
0.090210 0.380493 0.108032
0.109863 0.382996 0.110657
0.132294 0.385986 0.113037
0.158264 0.389801 0.115448
0.187988 0.394318 0.117371
0.221588 0.399689 0.118744
0.258728 0.405487 0.119354
0.298431 0.411560 0.119293
0.339172 0.417419 0.118591
0.379211 0.422729 0.116577
0.417480 0.427216 0.113770
0.453430 0.430969 0.112549
0.487122 0.434387 0.112671
0.518616 0.437286 0.113159
0.548218 0.439850 0.114319
0.576172 0.442352 0.115967
0.602539 0.444458 0.118103
0.627747 0.446472 0.120880
0.652039 0.448517 0.123962
0.675507 0.450562 0.127289
0.698242 0.452545 0.130585
0.720154 0.454468 0.133972
0.741547 0.456512 0.137604
0.762299 0.458496 0.141235
0.782471 0.460480 0.144806
0.802368 0.462433 0.148468
0.821991 0.464386 0.152161
0.841614 0.466431 0.156036
0.861755 0.468475 0.159943
0.882111 0.470551 0.164001
0.040588 0.406860 0.106445
0.061829 0.408752 0.109009
0.078918 0.410583 0.111664
0.096497 0.412567 0.114380
0.115784 0.414795 0.117279
0.138306 0.417542 0.120026
0.163757 0.420959 0.123230
0.192657 0.425140 0.125885
0.225403 0.430054 0.128143
0.261322 0.435608 0.129700
0.300110 0.441620 0.130463
0.340027 0.447510 0.130432
0.379578 0.452972 0.129456
0.417786 0.457733 0.126953
0.453766 0.461700 0.123474
0.487488 0.464935 0.121429
0.519135 0.467682 0.120819
0.548889 0.470062 0.120880
0.576996 0.472198 0.121521
0.603516 0.474091 0.122772
0.628876 0.475769 0.124664
0.653320 0.477417 0.127136
0.676941 0.479065 0.129852
0.699860 0.480774 0.132751
0.721985 0.482330 0.135834
0.743530 0.484009 0.139313
0.764526 0.485626 0.142700
0.785004 0.487335 0.146057
0.805054 0.488983 0.149658
0.824921 0.490631 0.153229
0.844818 0.492340 0.156921
0.865173 0.494141 0.160797
0.885803 0.495972 0.164795
0.049225 0.439545 0.112000
0.069946 0.441132 0.114624
0.086823 0.442749 0.117523
0.104156 0.444427 0.120636
0.123627 0.446503 0.123810
0.145935 0.448883 0.127228
0.170990 0.451965 0.130829
0.199219 0.455688 0.134338
0.230927 0.460175 0.137512
0.265717 0.465363 0.139893
0.303314 0.471100 0.141663
0.342255 0.476959 0.142456
0.381165 0.482483 0.141998
0.419006 0.487488 0.140045
0.454895 0.491669 0.136566
0.488525 0.494965 0.132050
0.520142 0.497589 0.129333
0.549927 0.499908 0.127899
0.578094 0.501770 0.127380
0.604736 0.503418 0.127716
0.630188 0.504822 0.128632
0.654694 0.506165 0.130371
0.678497 0.507507 0.132599
0.701477 0.508820 0.134979
0.723816 0.510162 0.137970
0.745544 0.511505 0.140900
0.766693 0.512848 0.144104
0.787384 0.514221 0.147339
0.807709 0.515686 0.150635
0.827759 0.517090 0.154175
0.847931 0.518555 0.157806
0.868591 0.520081 0.161469
0.889435 0.521729 0.165497
0.060242 0.471954 0.118011
0.079987 0.473389 0.120575
0.096466 0.474701 0.123810
0.113770 0.476105 0.126953
0.133026 0.477814 0.130676
0.155182 0.479858 0.134491
0.179962 0.482605 0.138458
0.207458 0.485962 0.142548
0.238098 0.490021 0.146454
0.271698 0.494720 0.149902
0.307983 0.500092 0.152466
0.345764 0.505768 0.153839
0.383820 0.511230 0.153992
0.421112 0.516388 0.152618
0.456696 0.520782 0.149536
0.490173 0.524292 0.144836
0.521667 0.527069 0.139282
0.551422 0.529266 0.135742
0.579559 0.531036 0.133820
0.606140 0.532379 0.132874
0.631653 0.533600 0.132843
0.656281 0.534760 0.133575
0.680054 0.535828 0.135284
0.703156 0.536865 0.137329
0.725647 0.537933 0.139862
0.747528 0.539032 0.142609
0.768829 0.540131 0.145386
0.789734 0.541321 0.148407
0.810303 0.542480 0.151703
0.830566 0.543732 0.155090
0.850922 0.544983 0.158539
0.871918 0.546295 0.162262
0.892975 0.547668 0.166077
0.071899 0.504089 0.123901
0.091461 0.505280 0.126831
0.107483 0.506287 0.130127
0.124390 0.507477 0.133606
0.143921 0.508881 0.137390
0.165680 0.510590 0.141571
0.190094 0.513000 0.145966
0.217010 0.515930 0.150574
0.246704 0.519501 0.155060
0.279175 0.523773 0.159302
0.314087 0.528687 0.162689
0.350616 0.533936 0.164917
0.387665 0.539398 0.165710
0.424133 0.544495 0.164825
0.459229 0.548981 0.162109
0.492462 0.552765 0.157379
0.523743 0.555725 0.151520
0.553314 0.558044 0.145081
0.581268 0.559753 0.140808
0.607849 0.561066 0.138397
0.633301 0.562164 0.137512
0.657898 0.563080 0.137329
0.681702 0.563965 0.138214
0.704926 0.564850 0.139618
0.727539 0.565674 0.141724
0.749512 0.566650 0.144043
0.771027 0.567566 0.146851
0.792023 0.568512 0.149780
0.812775 0.569550 0.152710
0.833313 0.570526 0.155884
0.853882 0.571655 0.159210
0.875092 0.572845 0.162872
0.896484 0.574036 0.166748
0.085419 0.535889 0.130402
0.103760 0.536743 0.133514
0.119568 0.537567 0.136780
0.136383 0.538391 0.140259
0.155670 0.539551 0.144226
0.177124 0.540985 0.148651
0.201172 0.542877 0.153473
0.227509 0.545410 0.158417
0.256378 0.548584 0.163544
0.287689 0.552368 0.168213
0.321320 0.556793 0.172394
0.356415 0.561676 0.175385
0.392273 0.566803 0.176819
0.427856 0.571777 0.176422
0.462311 0.576385 0.174103
0.495148 0.580292 0.169739
0.526215 0.583496 0.163666
0.555542 0.586060 0.156738
0.583313 0.587952 0.149414
0.609711 0.589264 0.145020
0.635040 0.590332 0.142395
0.659576 0.591217 0.141357
0.683411 0.591980 0.141388
0.706665 0.592712 0.142303
0.729340 0.593475 0.143860
0.751434 0.594177 0.145935
0.773132 0.594971 0.148224
0.794342 0.595825 0.150940
0.815186 0.596680 0.153717
0.835968 0.597595 0.156860
0.856781 0.598541 0.160034
0.878174 0.599579 0.163635
0.899872 0.600647 0.167236
0.099609 0.567200 0.137421
0.117065 0.567749 0.140564
0.132477 0.568268 0.143768
0.148987 0.568878 0.147247
0.168121 0.569763 0.151367
0.189209 0.570862 0.155884
0.212677 0.572418 0.160828
0.238556 0.574554 0.166138
0.266479 0.577148 0.171539
0.296661 0.580475 0.176666
0.329071 0.584412 0.181396
0.362885 0.588806 0.184998
0.397400 0.593536 0.187225
0.432037 0.598358 0.187378
0.465820 0.602875 0.185486
0.498108 0.606903 0.181549
0.528870 0.610352 0.175812
0.557983 0.613159 0.168762
0.585571 0.615417 0.160950
0.611755 0.616974 0.153259
0.636993 0.618134 0.148499
0.661407 0.619080 0.146057
0.685181 0.619781 0.145142
0.708374 0.620483 0.145142
0.731140 0.621124 0.146240
0.753357 0.621857 0.147827
0.775116 0.622528 0.149841
0.796539 0.623230 0.152222
0.817596 0.623993 0.154877
0.838501 0.624786 0.157806
0.859528 0.625671 0.161041
0.881195 0.626556 0.164398
0.903137 0.627563 0.167908
0.114227 0.597870 0.145111
0.131104 0.598175 0.147858
0.145813 0.598389 0.151062
0.162018 0.598755 0.154602
0.180756 0.599365 0.158661
0.201416 0.600189 0.163177
0.224426 0.601440 0.168243
0.249542 0.603088 0.173584
0.276703 0.605286 0.179260
0.305878 0.608124 0.184753
0.336975 0.611511 0.189667
0.369537 0.615479 0.193756
0.402924 0.619751 0.196533
0.436462 0.624176 0.197571
0.469482 0.628601 0.196320
0.501282 0.632751 0.192871
0.531677 0.636383 0.187592
0.560608 0.639496 0.180664
0.587982 0.641968 0.172729
0.613983 0.643921 0.164276
0.638977 0.645386 0.156342
0.663269 0.646454 0.151611
0.686951 0.647339 0.149536
0.710083 0.648071 0.148712
0.732880 0.648773 0.149017
0.755188 0.649414 0.150024
0.777069 0.650024 0.151550
0.798615 0.650696 0.153595
0.819855 0.651428 0.156158
0.841003 0.652130 0.158783
0.862213 0.652924 0.161804
0.884125 0.653809 0.165070
0.906311 0.654724 0.168640
0.128876 0.627960 0.153107
0.145020 0.627991 0.155640
0.159119 0.628021 0.158844
0.174957 0.628113 0.162201
0.193237 0.628418 0.166016
0.213623 0.628937 0.170380
0.236053 0.629822 0.175385
0.260437 0.631134 0.180878
0.286774 0.632996 0.186493
0.314819 0.635223 0.192230
0.344818 0.638245 0.197479
0.376190 0.641632 0.201904
0.408478 0.645538 0.205170
0.440979 0.649658 0.206909
0.473236 0.653809 0.206635
0.504486 0.657867 0.203766
0.534485 0.661621 0.198914
0.563171 0.664917 0.192352
0.590363 0.667725 0.184631
0.616272 0.670074 0.175964
0.641083 0.671906 0.167542
0.665222 0.673340 0.159546
0.688751 0.674438 0.154877
0.711884 0.675385 0.152924
0.734528 0.676147 0.152527
0.756897 0.676880 0.152802
0.778870 0.677551 0.153900
0.800537 0.678223 0.155487
0.821991 0.678894 0.157471
0.843292 0.679657 0.159912
0.864807 0.680389 0.162781
0.886963 0.681183 0.165833
0.909332 0.682068 0.169250
0.143921 0.657471 0.161499
0.158997 0.657257 0.163910
0.172546 0.657013 0.166809
0.187897 0.656860 0.170013
0.205536 0.656921 0.173798
0.225494 0.657135 0.177948
0.247345 0.657715 0.182709
0.270905 0.658691 0.187988
0.296326 0.660034 0.193512
0.323486 0.661926 0.199249
0.352478 0.664368 0.204651
0.382599 0.667297 0.209564
0.413788 0.670746 0.213257
0.445343 0.674469 0.215546
0.476807 0.678406 0.215851
0.507477 0.682251 0.213959
0.537201 0.686096 0.209961
0.565613 0.689545 0.203918
0.592773 0.692627 0.196259
0.618530 0.695374 0.187836
0.643250 0.697601 0.179138
0.667236 0.699493 0.170776
0.690582 0.701019 0.162933
0.713562 0.702179 0.158386
0.736206 0.703278 0.156555
0.758545 0.704163 0.156158
0.780609 0.704956 0.156586
0.802429 0.705719 0.157623
0.823975 0.706482 0.159149
0.845490 0.707214 0.161316
0.867157 0.707977 0.163849
0.889557 0.708801 0.166779
0.912262 0.709595 0.170197
0.158447 0.686340 0.170319
0.172791 0.685913 0.172699
0.185577 0.685425 0.175171
0.200562 0.685089 0.178131
0.217529 0.684906 0.181519
0.236847 0.684875 0.185486
0.258179 0.685150 0.189972
0.281097 0.685730 0.194946
0.305664 0.686768 0.200409
0.331879 0.688202 0.205872
0.359802 0.690155 0.211365
0.388885 0.692627 0.216522
0.418915 0.695557 0.220642
0.449554 0.698883 0.223419
0.480194 0.702484 0.224579
0.510345 0.706177 0.223450
0.539703 0.709900 0.220337
0.567963 0.713470 0.214966
0.595001 0.716858 0.208008
0.620728 0.719849 0.199738
0.645447 0.722534 0.191010
0.669281 0.724823 0.182373
0.692535 0.726776 0.174194
0.715363 0.728424 0.166809
0.737854 0.729889 0.162262
0.760193 0.731201 0.160339
0.782257 0.732147 0.160065
0.804138 0.733093 0.160339
0.825836 0.733978 0.161438
0.847504 0.734772 0.163208
0.869354 0.735565 0.165405
0.891968 0.736450 0.168152
0.914948 0.737305 0.171173
0.172791 0.714539 0.179474
0.186249 0.713989 0.181488
0.198334 0.713318 0.183777
0.212555 0.712738 0.186401
0.229126 0.712311 0.189514
0.247864 0.712067 0.193085
0.268494 0.712097 0.197205
0.290833 0.712341 0.201843
0.314606 0.712982 0.206940
0.339935 0.714050 0.212219
0.366821 0.715576 0.217743
0.394897 0.717560 0.222900
0.423950 0.720001 0.227325
0.453613 0.722900 0.230743
0.483459 0.726135 0.232452
0.513031 0.729584 0.232239
0.541931 0.733154 0.229858
0.570007 0.736755 0.225555
0.596985 0.740295 0.219238
0.622803 0.743561 0.211578
0.647491 0.746613 0.202942
0.671356 0.749390 0.194244
0.694458 0.751831 0.185974
0.717163 0.753937 0.178223
0.739594 0.755859 0.171204
