src/assets/luts/ON1 Nature & Wildlife LUTs/CinematicX LUTs - 30 Free Cinematic LUTs - The Resolve Store 2022/Limay - Rec709.cube
# Copyright: (C) Copyright 2022 The Resolve Store 
# Cannot be resold, shared or otherwise redistributed
TITLE "CinematicX (Rec.709)"
LUT_3D_SIZE 9
0.000214 0.000397 0.000000
0.101898 0.013824 0.001007
0.228302 0.024750 0.012756
0.368713 0.039612 0.037476
0.501038 0.064941 0.066711
0.607880 0.096466 0.090424
0.691223 0.125977 0.111053
0.761810 0.147736 0.129700
0.830627 0.163879 0.147461
0.003845 0.065247 0.027527
0.090790 0.079285 0.022217
0.236298 0.098602 0.021973
0.380280 0.108673 0.041504
0.508606 0.121674 0.067932
0.612732 0.146149 0.092224
0.697296 0.178009 0.113831
0.770111 0.203522 0.132904
0.840698 0.221313 0.151031
0.009644 0.158447 0.058380
0.087494 0.167633 0.059387
0.231598 0.194000 0.050049
0.388306 0.208618 0.056549
0.516998 0.219025 0.075623
0.619995 0.237488 0.098236
0.706146 0.263092 0.119507
0.781677 0.285400 0.138397
0.854736 0.302399 0.156372
0.019043 0.277588 0.084106
0.097992 0.287567 0.090271
0.214478 0.306793 0.091583
0.383270 0.329559 0.083801
0.519073 0.343842 0.093750
0.625122 0.356598 0.110321
0.714722 0.370697 0.127960
0.793884 0.384064 0.144775
0.870483 0.395996 0.161316
0.040588 0.406860 0.106445
0.115784 0.414795 0.117279
0.225403 0.430054 0.128143
0.379578 0.452972 0.129456
0.519135 0.467682 0.120819
0.628876 0.475769 0.124664
0.721985 0.482330 0.135834
0.805054 0.488983 0.149658
0.885803 0.495972 0.164795
0.085419 0.535889 0.130402
0.155670 0.539551 0.144226
0.256378 0.548584 0.163544
0.392273 0.566803 0.176819
0.526215 0.583496 0.163666
0.635040 0.590332 0.142395
0.729340 0.593475 0.143860
0.815186 0.596680 0.153717
0.899872 0.600647 0.167236
0.143921 0.657471 0.161499
0.205536 0.656921 0.173798
0.296326 0.660034 0.193512
0.413788 0.670746 0.213257
0.537201 0.686096 0.209961
0.643250 0.697601 0.179138
0.736206 0.703278 0.156555
0.823975 0.706482 0.159149
0.912262 0.709595 0.170197
0.199646 0.769531 0.198090
0.250916 0.765839 0.205688
0.331177 0.764313 0.220001
0.433167 0.767914 0.239349
0.545837 0.778229 0.247437
0.651001 0.792480 0.227020
0.743225 0.805573 0.194366
0.830627 0.814819 0.173157
0.921753 0.820496 0.176392
0.246429 0.874084 0.233978
0.290283 0.868469 0.238403
0.361450 0.863251 0.246338
0.450348 0.860504 0.261261
0.551788 0.864075 0.276459
0.656036 0.876740 0.273590
0.751251 0.896332 0.244568
0.836914 0.914673 0.215546
0.927277 0.927765 0.192291
0.000916 0.003296 0.029785
0.096497 0.018646 0.030762
0.224976 0.031128 0.044434
0.370178 0.042511 0.069336
0.503418 0.065582 0.098206
0.609619 0.096497 0.123291
0.692047 0.126190 0.145050
0.761688 0.147980 0.165131
0.829926 0.164307 0.183594
0.006561 0.069061 0.072144
0.074188 0.079346 0.069061
0.231323 0.101593 0.067291
0.383362 0.112122 0.082855
0.513489 0.124512 0.106018
0.615875 0.148468 0.129425
0.698639 0.179871 0.151093
0.770233 0.204865 0.170776
0.839966 0.222290 0.189087
0.010071 0.161652 0.123596
0.078247 0.177948 0.125580
0.216522 0.205200 0.123138
0.389069 0.216949 0.115875
0.520844 0.225739 0.126801
0.623260 0.243530 0.144867
0.707764 0.267365 0.163483
0.782013 0.287933 0.180420
0.854218 0.303864 0.196716
0.018433 0.279602 0.161255
0.091583 0.297668 0.166504
0.189911 0.317047 0.175140
0.380798 0.345703 0.166199
0.520142 0.353455 0.163147
0.627075 0.363373 0.169739
0.716064 0.375275 0.180573
0.794373 0.386810 0.192078
0.870056 0.397461 0.204468
0.040009 0.408722 0.191742
0.113556 0.422668 0.199677
0.216064 0.440125 0.211426
0.371124 0.464111 0.215942
0.518555 0.477020 0.203003
0.630157 0.481659 0.194641
0.722931 0.485809 0.195160
0.805298 0.490997 0.201172
0.885376 0.496979 0.210144
0.084503 0.536102 0.214111
0.154663 0.544281 0.225311
0.252625 0.555542 0.243073
0.385803 0.573151 0.256378
0.523315 0.589081 0.244690
0.635529 0.594574 0.217499
0.729889 0.595795 0.206207
0.815247 0.597809 0.207153
0.899475 0.601044 0.213989
0.141693 0.655121 0.232880
0.203796 0.658173 0.245728
0.293396 0.663666 0.265228
0.408905 0.674469 0.285034
0.533295 0.688965 0.283264
0.642426 0.699860 0.251465
0.736420 0.704559 0.219604
0.823883 0.706909 0.212555
0.911896 0.709686 0.217285
0.196503 0.765442 0.254120
0.248962 0.765045 0.265076
0.329102 0.765900 0.281952
0.430328 0.770355 0.303192
0.542816 0.780029 0.313629
0.649445 0.793518 0.293915
0.742828 0.805908 0.254395
0.830322 0.814697 0.225586
0.921356 0.820282 0.223480
0.243622 0.869629 0.277863
0.288879 0.866943 0.285767
0.360931 0.864075 0.298218
0.449677 0.862427 0.317169
0.550415 0.865692 0.335999
0.654541 0.877380 0.335907
0.750275 0.896149 0.304260
0.836395 0.914185 0.264008
0.926788 0.927277 0.238556
0.002289 0.006714 0.056000
0.093445 0.021271 0.057251
0.222717 0.037354 0.061798
0.373993 0.046692 0.088806
0.510254 0.067383 0.125366
0.615021 0.097748 0.160126
0.694641 0.127289 0.190155
0.762207 0.149200 0.216461
0.828705 0.165192 0.240021
0.009216 0.078522 0.109467
0.070709 0.088257 0.107758
0.219818 0.103241 0.089294
0.388062 0.114105 0.111053
0.523132 0.126953 0.140442
0.622894 0.151459 0.172211
0.701996 0.183014 0.201050
0.770996 0.207733 0.225983
0.838562 0.224609 0.248077
0.011414 0.160706 0.170898
0.059875 0.172455 0.174988
0.167908 0.194092 0.179962
0.391418 0.218201 0.171356
0.529633 0.230713 0.181152
0.630554 0.249664 0.201965
0.711670 0.272980 0.223389
0.782959 0.292053 0.242310
0.852722 0.306580 0.259949
0.017456 0.273254 0.232422
0.078857 0.293884 0.241058
0.157898 0.315521 0.259552
0.371979 0.356781 0.261200
0.526459 0.362488 0.244843
0.632874 0.370636 0.245941
0.719421 0.380981 0.253540
0.795105 0.390717 0.262665
0.868683 0.399719 0.272766
0.037659 0.400238 0.281403
0.104858 0.420074 0.288177
0.197540 0.442017 0.302795
0.354279 0.471375 0.317169
0.525848 0.489288 0.299988
0.634003 0.488220 0.283051
0.724976 0.490204 0.277832
0.805634 0.493805 0.278931
0.884216 0.498566 0.283234
0.080688 0.527710 0.310242
0.148651 0.541412 0.317291
0.243347 0.556976 0.331757
0.376556 0.576843 0.346771
0.521698 0.594391 0.338562
0.637421 0.598999 0.309998
0.731049 0.598480 0.292908
0.815186 0.599213 0.288208
0.898468 0.601746 0.289764
0.137299 0.646820 0.325470
0.198822 0.654419 0.333618
0.286865 0.663513 0.348724
0.401947 0.675873 0.367554
0.529053 0.690308 0.368713
0.641846 0.701172 0.340210
0.736816 0.705505 0.307190
0.823639 0.707367 0.294586
0.910950 0.709625 0.294037
0.191498 0.757111 0.338287
0.244659 0.760559 0.345886
0.324738 0.764587 0.359344
0.425873 0.770416 0.378998
0.539276 0.779999 0.391174
0.647705 0.792938 0.375366
0.742340 0.805267 0.337402
0.829803 0.813995 0.307068
0.920471 0.819733 0.300232
0.239075 0.861450 0.353058
0.285889 0.862091 0.358978
0.358948 0.862030 0.369476
0.448120 0.862000 0.387268
0.548859 0.865326 0.406830
0.652985 0.876251 0.410187
0.749207 0.894501 0.381744
0.835571 0.912720 0.340485
0.925751 0.926117 0.314423
0.003632 0.010864 0.083862
0.090424 0.023895 0.085876
0.221497 0.041443 0.082947
0.379608 0.051300 0.101044
0.523193 0.071259 0.136475
0.628174 0.101654 0.180237
0.702515 0.131866 0.224274
0.764771 0.154388 0.264069
0.826599 0.169495 0.298889
0.011261 0.088959 0.148376
0.067566 0.098999 0.148193
0.212036 0.115295 0.131348
0.394836 0.119995 0.131134
0.539215 0.132355 0.158417
0.637817 0.158112 0.199463
0.710785 0.190979 0.241791
0.774231 0.215637 0.278595
0.836945 0.231354 0.310516
0.014404 0.171173 0.216553
0.062408 0.187286 0.222382
0.149139 0.208710 0.231323
0.393097 0.225800 0.206818
0.544830 0.240723 0.221375
0.645416 0.260864 0.247345
0.720520 0.283813 0.277222
0.785980 0.301208 0.303864
0.850739 0.313416 0.328003
0.019226 0.270660 0.292725
0.069275 0.294617 0.303314
0.146454 0.322571 0.320587
0.329407 0.366119 0.347870
0.543121 0.378571 0.325195
0.646820 0.384308 0.318481
0.727692 0.392120 0.325623
0.797821 0.399200 0.336456
0.866394 0.405426 0.348541
0.035187 0.388275 0.360352
0.091888 0.412628 0.369202
0.176819 0.440735 0.384857
0.328430 0.476501 0.418060
0.539368 0.509491 0.416046
0.645050 0.500275 0.378113
0.731354 0.499115 0.366516
0.807404 0.500092 0.364532
0.881927 0.502441 0.366608
0.075775 0.512482 0.402435
0.137451 0.531830 0.408112
0.226624 0.553192 0.420410
0.361267 0.578522 0.442108
0.520844 0.601624 0.450104
0.647247 0.608459 0.415955
0.735168 0.603882 0.391174
0.815918 0.602478 0.381134
0.896454 0.603516 0.378571
0.131256 0.631989 0.421844
0.190430 0.644745 0.426056
0.275330 0.658569 0.436737
0.390839 0.674286 0.454865
0.523987 0.690613 0.463715
0.643860 0.703308 0.442383
0.739197 0.707458 0.409058
0.823822 0.708160 0.391144
0.909363 0.709625 0.384644
0.184937 0.742920 0.432892
0.237976 0.750610 0.436432
0.316956 0.758484 0.445435
0.417969 0.766907 0.462219
0.533966 0.777252 0.476685
0.646179 0.790558 0.467834
0.742706 0.803589 0.434875
0.829529 0.812683 0.404602
0.919098 0.818604 0.391663
0.233002 0.847595 0.444214
0.281006 0.851685 0.446625
0.354309 0.854828 0.453217
0.443848 0.857300 0.467407
0.545349 0.861481 0.485962
0.648651 0.872772 0.487305
0.746948 0.891083 0.463318
0.834503 0.909698 0.428864
0.923676 0.923523 0.410583
0.005676 0.016052 0.112274
0.086029 0.028381 0.115204
0.222137 0.044647 0.106689
0.384003 0.055389 0.117432
0.534271 0.074768 0.143280
0.643951 0.107208 0.181366
0.715454 0.141357 0.231537
0.770477 0.167419 0.286560
0.823883 0.182404 0.337646
0.013214 0.099426 0.187622
0.066162 0.110779 0.189697
0.199707 0.129303 0.179565
0.399048 0.131165 0.158752
0.552155 0.142761 0.173981
0.654694 0.170685 0.211182
0.723846 0.206543 0.261108
0.780304 0.232971 0.310974
0.835236 0.248260 0.356354
0.018158 0.183258 0.261078
0.065887 0.202698 0.270050
0.145020 0.226501 0.281311
0.389069 0.250336 0.259460
0.557251 0.261688 0.259094
0.661896 0.281219 0.280823
0.733215 0.303650 0.314453
0.791992 0.319763 0.349335
0.849060 0.329620 0.382965
0.026276 0.279022 0.343414
0.068298 0.304718 0.356262
0.142914 0.336853 0.374573
0.317993 0.385681 0.402557
0.564362 0.413361 0.392426
0.666595 0.410919 0.381073
0.741058 0.413910 0.385284
0.803253 0.416992 0.398560
0.875061 0.409790 0.405548
0.042969 0.385681 0.423096
0.086212 0.412476 0.434418
0.161072 0.444275 0.450592
0.323151 0.488220 0.479553
0.550415 0.547485 0.528809
0.671600 0.529175 0.477814
0.745270 0.519714 0.451111
0.812439 0.514984 0.445190
0.904572 0.497406 0.418091
0.072693 0.499451 0.480377
0.126648 0.522980 0.486725
0.208588 0.549347 0.497589
0.346558 0.581238 0.519226
0.517914 0.614349 0.558594
0.669067 0.630127 0.537262
0.744843 0.616455 0.493835
0.819214 0.611786 0.476898
0.916351 0.600006 0.433228
0.125031 0.614838 0.510315
0.179901 0.632233 0.513092
0.260406 0.650879 0.520599
0.376160 0.671265 0.536926
0.515961 0.691315 0.558380
0.650848 0.708008 0.555756
0.746582 0.713623 0.521118
0.825592 0.711487 0.495575
0.922150 0.707642 0.442657
0.177826 0.724548 0.525940
0.229309 0.736115 0.527344
0.305145 0.747894 0.532898
0.405273 0.759796 0.546234
0.524536 0.772217 0.563049
0.644012 0.786377 0.565704
0.744934 0.801575 0.542480
0.830048 0.811218 0.512909
0.923920 0.817596 0.457031
0.225891 0.827881 0.539337
0.273926 0.835052 0.539612
0.345703 0.841492 0.542938
0.434143 0.846954 0.552979
0.523376 0.855133 0.558319
0.630402 0.867706 0.555969
0.740662 0.885712 0.544281
0.832733 0.905212 0.519135
0.920959 0.919586 0.510010
0.008362 0.022766 0.142548
0.080719 0.033600 0.144928
0.224030 0.047729 0.132141
0.387817 0.059326 0.138702
0.539978 0.077087 0.157776
0.653290 0.110840 0.185547
0.725372 0.151093 0.228088
0.776093 0.186554 0.285065
0.821594 0.208801 0.343811
0.016327 0.109253 0.226288
0.069092 0.123413 0.231323
0.184998 0.143097 0.228516
0.400238 0.144775 0.195282
0.557312 0.157379 0.201935
0.664429 0.186829 0.228729
0.734070 0.226624 0.273193
0.786316 0.258148 0.324188
0.833832 0.278259 0.374359
0.023010 0.196564 0.304901
0.067810 0.218048 0.315796
0.150787 0.245728 0.329865
0.373932 0.280975 0.326019
0.562439 0.288391 0.306976
0.671906 0.307404 0.318085
0.743591 0.329834 0.344971
0.798096 0.347198 0.378326
0.847778 0.358368 0.413818
0.034454 0.293945 0.389893
0.072174 0.320404 0.403992
0.142578 0.353455 0.423492
0.320099 0.404419 0.452118
0.571075 0.447479 0.455933
0.681061 0.442780 0.436615
0.753479 0.443390 0.434540
0.809875 0.444641 0.444763
0.884033 0.427368 0.446991
0.054596 0.394958 0.473602
0.092010 0.422180 0.486572
0.159546 0.454285 0.503693
0.318756 0.499939 0.530518
0.539429 0.559906 0.573212
0.704346 0.575867 0.558197
0.764496 0.553619 0.524872
0.820923 0.541290 0.511749
0.903259 0.517670 0.490692
0.083557 0.496948 0.542175
0.126282 0.522064 0.550323
0.198792 0.550232 0.561401
0.335236 0.585480 0.580536
0.516174 0.626648 0.615417
0.706848 0.679962 0.656555
0.767181 0.646088 0.601196
0.834625 0.630005 0.559723
0.911255 0.614777 0.532257
0.121094 0.601990 0.585602
0.171356 0.622314 0.588989
0.246246 0.643860 0.595367
0.360718 0.668152 0.609009
0.506805 0.693848 0.632843
0.655426 0.715424 0.661896
0.761871 0.728821 0.640503
0.837189 0.718842 0.587280
0.917572 0.713623 0.558533
0.170929 0.705597 0.610626
0.219208 0.719818 0.611908
0.290527 0.734650 0.616028
0.388214 0.750092 0.625946
0.510437 0.766266 0.642487
0.636658 0.782593 0.656799
0.749298 0.802490 0.642914
0.835297 0.813202 0.607300
0.920105 0.816864 0.577911
0.217194 0.803986 0.630463
0.263885 0.813385 0.630463
0.331665 0.822479 0.632263
0.417389 0.831329 0.638702
0.521332 0.840698 0.651733
0.619141 0.856842 0.651367
0.737091 0.875244 0.649536
0.831360 0.897491 0.631836
0.916870 0.914368 0.616669
0.011993 0.031647 0.175964
0.077118 0.040802 0.176971
0.224335 0.052185 0.159729
0.391815 0.063263 0.161926
0.544037 0.079132 0.177246
0.656891 0.111908 0.198975
0.729431 0.157440 0.231506
0.778778 0.205200 0.278320
0.820099 0.241882 0.329559
0.020355 0.119415 0.264893
0.072479 0.135559 0.272156
0.172028 0.156738 0.277771
0.397308 0.161560 0.241608
0.558746 0.173889 0.239960
0.668213 0.203735 0.257690
0.739227 0.246429 0.291138
0.789978 0.285187 0.331726
0.833099 0.314606 0.373169
0.028564 0.210846 0.348267
0.070007 0.233978 0.360779
0.151123 0.264221 0.377502
0.353149 0.310699 0.391479
0.564911 0.317383 0.361664
0.676697 0.334869 0.362335
0.749664 0.357391 0.377136
0.802307 0.378082 0.400146
0.847168 0.394379 0.426544
0.043427 0.310577 0.434753
0.078033 0.337555 0.449432
0.144928 0.370605 0.469788
0.320923 0.421692 0.499420
0.570862 0.479523 0.519989
0.689209 0.472900 0.489319
0.761383 0.473511 0.479309
0.814880 0.476227 0.481201
0.889526 0.458557 0.472748
0.066925 0.409515 0.518860
0.101532 0.436279 0.532684
0.165314 0.467377 0.550385
0.317200 0.511505 0.576508
0.531372 0.569519 0.612793
0.711273 0.602875 0.613892
0.777222 0.586304 0.583313
0.843384 0.565430 0.556122
0.899384 0.551025 0.543701
0.098389 0.503876 0.592102
0.135803 0.528320 0.602051
0.201202 0.555725 0.614502
0.329681 0.590851 0.633087
0.509735 0.634125 0.661469
0.697693 0.685333 0.695038
0.803497 0.687347 0.677002
0.853455 0.658752 0.634735
0.906281 0.641113 0.609558
0.132355 0.597137 0.646790
0.172852 0.617767 0.652222
0.238556 0.639832 0.659698
0.347168 0.665741 0.672272
0.495941 0.695801 0.692749
0.654877 0.726959 0.724884
0.789642 0.763184 0.741760
0.850311 0.737244 0.698303
0.911560 0.728729 0.662445
0.166107 0.689850 0.683746
0.210327 0.705231 0.686401
0.275635 0.721283 0.690796
0.369202 0.739319 0.699097
0.493561 0.759705 0.713135
0.630646 0.780945 0.733459
0.754700 0.800751 0.746948
0.840454 0.817841 0.730682
0.914429 0.818909 0.695831
0.207458 0.778839 0.712830
0.251495 0.789581 0.713745
0.313354 0.800385 0.715546
0.394684 0.812103 0.720001
0.499847 0.825592 0.729309
0.605316 0.845734 0.737549
0.736786 0.865601 0.748413
0.832581 0.890045 0.744415
0.911041 0.908295 0.728790
0.015930 0.040131 0.208618
0.076569 0.048981 0.210266
0.222900 0.057953 0.192566
0.395752 0.068146 0.186829
0.548279 0.082062 0.198669
0.659302 0.112946 0.217163
0.730896 0.161285 0.242096
0.779480 0.219849 0.276184
0.819122 0.271729 0.312988
0.025116 0.130493 0.304321
0.073669 0.147797 0.312805
0.169281 0.171356 0.323029
0.388245 0.181580 0.297485
0.558380 0.192200 0.284241
0.669800 0.220551 0.293365
0.741730 0.264526 0.315155
0.791931 0.309814 0.341339
0.832886 0.348816 0.367889
0.035980 0.226288 0.391388
0.072998 0.250580 0.404938
0.149628 0.282318 0.423828
0.339600 0.330383 0.446503
0.564270 0.348145 0.422455
0.679352 0.361816 0.410553
0.753296 0.383972 0.412415
0.805054 0.407867 0.421570
0.847351 0.429962 0.434204
0.053101 0.327637 0.478729
0.085938 0.354736 0.493774
0.149658 0.387695 0.514526
0.319122 0.437469 0.544647
0.563049 0.505371 0.577881
0.694763 0.501038 0.542328
0.766327 0.501740 0.522919
0.818726 0.506866 0.514282
0.889008 0.496582 0.495270
0.079681 0.425171 0.562469
0.113068 0.451111 0.576538
0.174225 0.481079 0.594482
0.317627 0.523071 0.619934
0.525421 0.578644 0.651825
0.711182 0.623779 0.664673
0.787750 0.610840 0.632385
0.849884 0.594299 0.602448
0.896973 0.586578 0.585022
0.113037 0.514862 0.636841
0.147552 0.537842 0.647919
0.208282 0.563629 0.661316
0.327911 0.597015 0.679871
0.501404 0.639679 0.704071
0.684479 0.688599 0.732513
0.802246 0.704285 0.726257
0.858978 0.687134 0.695374
0.902649 0.672394 0.670105
0.147308 0.598450 0.697113
0.182037 0.617859 0.704651
0.240295 0.638794 0.713806
0.340118 0.664368 0.726685
0.484436 0.696075 0.744141
0.645416 0.731750 0.767090
0.783173 0.768646 0.779327
0.864929 0.767731 0.767792
0.905334 0.752808 0.751038
0.177704 0.678192 0.743591
0.212891 0.693359 0.748291
0.268524 0.709595 0.754333
0.353790 0.728638 0.762817
0.476257 0.751984 0.774780
0.620056 0.779144 0.791962
0.758545 0.804840 0.814941
0.848877 0.832031 0.813416
0.905090 0.826172 0.803253
0.204742 0.754974 0.782501
0.242615 0.766357 0.784851
0.295776 0.778107 0.787750
0.370270 0.791687 0.792358
0.475739 0.808624 0.799744
0.593109 0.832550 0.811920
0.736176 0.856049 0.827240
0.834900 0.881226 0.830139
0.903473 0.901459 0.826355
0.019714 0.048706 0.243378
0.080627 0.058075 0.245514
0.219879 0.066986 0.231506
0.398682 0.074646 0.214691
0.552429 0.086609 0.222351
0.661591 0.114929 0.238068
0.731598 0.165039 0.257477
0.779633 0.231995 0.279480
0.818390 0.296021 0.301270
0.030121 0.142090 0.343353
0.074799 0.160797 0.353455
0.170074 0.186188 0.365540
0.377350 0.203491 0.355194
0.557495 0.212067 0.332520
0.670898 0.237762 0.332611
0.743317 0.281708 0.343140
0.793213 0.331482 0.354584
0.833313 0.378418 0.365784
0.043274 0.242706 0.434387
0.077332 0.268311 0.448822
0.148499 0.300751 0.469055
0.336060 0.349670 0.495056
0.562195 0.379761 0.485626
0.681091 0.388306 0.461212
0.755768 0.409058 0.450195
0.807159 0.435577 0.445221
0.848480 0.462616 0.443359
0.063965 0.345093 0.522552
0.095245 0.372314 0.537781
0.156097 0.404724 0.558716
0.317535 0.452515 0.588745
0.551392 0.517548 0.623138
0.698303 0.527466 0.596924
0.770111 0.528412 0.567535
0.825867 0.533569 0.545624
0.887970 0.533234 0.518433
0.093384 0.441071 0.605927
0.125549 0.466095 0.619812
0.184540 0.494812 0.637665
0.319519 0.534637 0.662384
0.518799 0.587433 0.691162
0.707245 0.640076 0.711090
0.795319 0.631287 0.682312
0.850952 0.622437 0.647797
0.895538 0.620392 0.622833
0.127869 0.526886 0.679932
0.160370 0.548492 0.691528
0.217102 0.572540 0.705444
0.328186 0.603943 0.723785
0.493378 0.644958 0.745148
0.671021 0.692169 0.771576
0.796661 0.716034 0.768951
0.860382 0.708099 0.744141
0.900757 0.702209 0.720947
0.161621 0.602478 0.742310
0.192657 0.620239 0.751160
0.244843 0.639740 0.761688
0.336060 0.664215 0.774933
0.473846 0.695953 0.790161
0.627869 0.734650 0.812256
0.776337 0.770172 0.816101
0.860535 0.778931 0.808258
0.902618 0.777466 0.801605
0.190369 0.669678 0.793762
0.220673 0.684143 0.800201
0.268097 0.699768 0.807739
0.344543 0.718781 0.817139
0.461975 0.743713 0.828033
0.594727 0.776978 0.847198
0.752136 0.808044 0.853119
0.843597 0.836304 0.846161
0.897339 0.846161 0.848999
0.215942 0.733124 0.838440
0.247131 0.744598 0.842346
0.290070 0.756683 0.846985
0.354889 0.771210 0.853058
0.456177 0.790710 0.860504
0.571869 0.819580 0.875610
0.732666 0.846741 0.878021
0.842316 0.874756 0.873230
0.897827 0.894836 0.870422
