src/assets/luts/ON1 Nature & Wildlife LUTs/CinematicX LUTs - 30 Free Cinematic LUTs - The Resolve Store 2022/Limay - Rec709.cube
# Copyright: (C) Copyright 2022 The Resolve Store 
# Cannot be resold, shared or otherwise redistributed
TITLE "CinematicX (Rec.709)"
LUT_3D_SIZE 5
0.000214 0.000397 0.000000
0.228302 0.024750 0.012756
0.501038 0.064941 0.066711
0.691223 0.125977 0.111053
0.830627 0.163879 0.147461
0.009644 0.158447 0.058380
0.231598 0.194000 0.050049
0.516998 0.219025 0.075623
0.706146 0.263092 0.119507
0.854736 0.302399 0.156372
0.040588 0.406860 0.106445
0.225403 0.430054 0.128143
0.519135 0.467682 0.120819
0.721985 0.482330 0.135834
0.885803 0.495972 0.164795
0.143921 0.657471 0.161499
0.296326 0.660034 0.193512
0.537201 0.686096 0.209961
0.736206 0.703278 0.156555
0.912262 0.709595 0.170197
0.246429 0.874084 0.233978
0.361450 0.863251 0.246338
0.551788 0.864075 0.276459
0.751251 0.896332 0.244568
0.927277 0.927765 0.192291
0.002289 0.006714 0.056000
0.222717 0.037354 0.061798
0.510254 0.067383 0.125366
0.694641 0.127289 0.190155
0.828705 0.165192 0.240021
0.011414 0.160706 0.170898
0.167908 0.194092 0.179962
0.529633 0.230713 0.181152
0.711670 0.272980 0.223389
0.852722 0.306580 0.259949
0.037659 0.400238 0.281403
0.197540 0.442017 0.302795
0.525848 0.489288 0.299988
0.724976 0.490204 0.277832
0.884216 0.498566 0.283234
0.137299 0.646820 0.325470
0.286865 0.663513 0.348724
0.529053 0.690308 0.368713
0.736816 0.705505 0.307190
0.910950 0.709625 0.294037
0.239075 0.861450 0.353058
0.358948 0.862030 0.369476
0.548859 0.865326 0.406830
0.749207 0.894501 0.381744
0.925751 0.926117 0.314423
0.005676 0.016052 0.112274
0.222137 0.044647 0.106689
0.534271 0.074768 0.143280
0.715454 0.141357 0.231537
0.823883 0.182404 0.337646
0.018158 0.183258 0.261078
0.145020 0.226501 0.281311
0.557251 0.261688 0.259094
0.733215 0.303650 0.314453
0.849060 0.329620 0.382965
0.042969 0.385681 0.423096
0.161072 0.444275 0.450592
0.550415 0.547485 0.528809
0.745270 0.519714 0.451111
0.904572 0.497406 0.418091
0.125031 0.614838 0.510315
0.260406 0.650879 0.520599
0.515961 0.691315 0.558380
0.746582 0.713623 0.521118
0.922150 0.707642 0.442657
0.225891 0.827881 0.539337
0.345703 0.841492 0.542938
0.523376 0.855133 0.558319
0.740662 0.885712 0.544281
0.920959 0.919586 0.510010
0.011993 0.031647 0.175964
0.224335 0.052185 0.159729
0.544037 0.079132 0.177246
0.729431 0.157440 0.231506
0.820099 0.241882 0.329559
0.028564 0.210846 0.348267
0.151123 0.264221 0.377502
0.564911 0.317383 0.361664
0.749664 0.357391 0.377136
0.847168 0.394379 0.426544
0.066925 0.409515 0.518860
0.165314 0.467377 0.550385
0.531372 0.569519 0.612793
0.777222 0.586304 0.583313
0.899384 0.551025 0.543701
0.132355 0.597137 0.646790
0.238556 0.639832 0.659698
0.495941 0.695801 0.692749
0.789642 0.763184 0.741760
0.911560 0.728729 0.662445
0.207458 0.778839 0.712830
0.313354 0.800385 0.715546
0.499847 0.825592 0.729309
0.736786 0.865601 0.748413
0.911041 0.908295 0.728790
0.019714 0.048706 0.243378
0.219879 0.066986 0.231506
0.552429 0.086609 0.222351
0.731598 0.165039 0.257477
0.818390 0.296021 0.301270
0.043274 0.242706 0.434387
0.148499 0.300751 0.469055
0.562195 0.379761 0.485626
0.755768 0.409058 0.450195
0.848480 0.462616 0.443359
0.093384 0.441071 0.605927
0.184540 0.494812 0.637665
0.518799 0.587433 0.691162
0.795319 0.631287 0.682312
0.895538 0.620392 0.622833
0.161621 0.602478 0.742310
0.244843 0.639740 0.761688
0.473846 0.695953 0.790161
0.776337 0.770172 0.816101
0.902618 0.777466 0.801605
0.215942 0.733124 0.838440
0.290070 0.756683 0.846985
0.456177 0.790710 0.860504
0.732666 0.846741 0.878021
0.897827 0.894836 0.870422
