src/assets/luts/ON1 Nature & Wildlife LUTs/CinematicX LUTs - 30 Free Cinematic LUTs - The Resolve Store 2022/Loiza - Rec709.cube
# Copyright: (C) Copyright 2022 The Resolve Store 
# Cannot be resold, shared or otherwise redistributed
TITLE "CinematicX (Rec.709)"
LUT_3D_SIZE 33
0.000000 0.000000 0.000000
0.026031 0.007874 0.005493
0.052399 0.016479 0.011780
0.078735 0.024231 0.017212
0.105530 0.031921 0.023346
0.132233 0.040222 0.028625
0.159210 0.047729 0.034576
0.185944 0.055450 0.041046
0.212646 0.062744 0.046814
0.239227 0.069702 0.052582
0.265900 0.075897 0.058319
0.292725 0.082336 0.063965
0.319489 0.088135 0.069061
0.346497 0.093750 0.074585
0.373596 0.099213 0.079559
0.400757 0.104187 0.084503
0.428131 0.109070 0.089386
0.455597 0.113831 0.094147
0.483276 0.118195 0.098846
0.511169 0.122223 0.103455
0.539246 0.126190 0.107941
0.567535 0.129883 0.112091
0.595978 0.133087 0.115906
0.624603 0.136078 0.119446
0.653381 0.138672 0.122742
0.682281 0.141083 0.125824
0.711182 0.143158 0.128448
0.740112 0.144745 0.130920
0.769073 0.146027 0.133026
0.797913 0.146912 0.134796
0.826721 0.147736 0.136475
0.855499 0.148315 0.138000
0.884277 0.148987 0.139465
0.002350 0.018921 0.003143
0.026062 0.026855 0.007812
0.051331 0.034576 0.013000
0.076782 0.042114 0.017487
0.102692 0.049652 0.022766
0.129547 0.057526 0.028748
0.156433 0.065094 0.034576
0.183594 0.072296 0.040192
0.210938 0.079224 0.045929
0.238312 0.085907 0.051086
0.265869 0.092346 0.056824
0.293365 0.098572 0.062042
0.321198 0.104614 0.066772
0.348969 0.110168 0.071503
0.376831 0.115265 0.076263
0.404816 0.120544 0.080994
0.432800 0.125397 0.085663
0.460938 0.129913 0.089996
0.489075 0.134583 0.094574
0.517395 0.138702 0.099091
0.545868 0.142731 0.103271
0.574432 0.146301 0.107361
0.603058 0.149841 0.111145
0.631836 0.152985 0.114685
0.660645 0.155884 0.117950
0.689484 0.158295 0.120972
0.718201 0.160553 0.123810
0.746979 0.162354 0.126221
0.775665 0.164062 0.128510
0.804260 0.165344 0.130615
0.832764 0.166382 0.132416
0.861267 0.167236 0.133911
0.889709 0.168121 0.135620
0.003937 0.037842 0.006287
0.026001 0.045441 0.010254
0.049927 0.053192 0.013885
0.074799 0.060577 0.017822
0.100525 0.067993 0.022034
0.127350 0.075104 0.027679
0.154327 0.082123 0.032715
0.181732 0.089355 0.039062
0.209656 0.095978 0.044800
0.237762 0.102783 0.049957
0.266022 0.109009 0.055176
0.294403 0.115082 0.059937
0.322937 0.120972 0.064270
0.351501 0.126465 0.068695
0.380127 0.131805 0.072784
0.408783 0.136780 0.077301
0.437469 0.141663 0.081451
0.466156 0.146454 0.085968
0.494843 0.150909 0.090118
0.523560 0.155090 0.094269
0.552368 0.159210 0.098389
0.581268 0.163055 0.102448
0.610077 0.166534 0.106201
0.638977 0.169952 0.109711
0.667786 0.172852 0.112946
0.696594 0.175568 0.115936
0.725220 0.178009 0.118958
0.753784 0.180145 0.121368
0.782227 0.181885 0.123810
0.810577 0.183533 0.125885
0.838837 0.184814 0.127838
0.867004 0.186005 0.129639
0.895172 0.187134 0.131317
0.005524 0.056824 0.009460
0.026001 0.063934 0.012604
0.048279 0.071045 0.015778
0.071869 0.079163 0.018250
0.098724 0.086823 0.021332
0.125275 0.093445 0.025940
0.153015 0.100159 0.030334
0.180969 0.106750 0.036530
0.209290 0.113281 0.041748
0.237854 0.119720 0.047607
0.266846 0.125977 0.052399
0.295898 0.131866 0.057281
0.325165 0.137604 0.061279
0.354492 0.142975 0.065399
0.383789 0.148254 0.069214
0.413055 0.153229 0.073517
0.442322 0.158081 0.077454
0.471497 0.162872 0.081116
0.500732 0.167358 0.085175
0.529877 0.171600 0.089233
0.558990 0.175751 0.093292
0.588104 0.179504 0.097015
0.617188 0.183228 0.100494
0.646149 0.186615 0.104218
0.674957 0.189636 0.107452
0.703735 0.192505 0.110443
0.732330 0.195099 0.113251
0.760742 0.197571 0.115845
0.789032 0.199615 0.118469
0.817169 0.201447 0.120544
0.845123 0.203064 0.122650
0.873108 0.204590 0.124634
0.901031 0.206024 0.126465
0.007080 0.075165 0.013397
0.026001 0.081940 0.014984
0.046875 0.089142 0.016541
0.068390 0.096313 0.018921
0.094330 0.104553 0.021606
0.123047 0.112640 0.023987
0.151337 0.119141 0.028046
0.180328 0.125488 0.032837
0.209869 0.131561 0.037903
0.238983 0.137695 0.043945
0.268402 0.143555 0.048920
0.298126 0.149353 0.053955
0.327972 0.154846 0.058105
0.357788 0.160065 0.061920
0.387634 0.165222 0.065491
0.417480 0.170288 0.069153
0.447205 0.175079 0.072937
0.476929 0.179657 0.076447
0.506592 0.183960 0.080048
0.536102 0.188232 0.083710
0.565582 0.192261 0.087372
0.594971 0.196259 0.091095
0.624207 0.199890 0.094543
0.653320 0.203339 0.097992
0.682281 0.206512 0.101196
0.710999 0.209625 0.104218
0.739532 0.212341 0.106995
0.767883 0.214813 0.109833
0.796021 0.217163 0.112244
0.823975 0.219299 0.114532
0.851807 0.221191 0.116638
0.879547 0.222900 0.118805
0.907227 0.224640 0.120819
0.007874 0.093842 0.017334
0.026001 0.100311 0.017334
0.044739 0.107147 0.018127
0.065643 0.113953 0.018921
0.089142 0.120728 0.022064
0.117310 0.129852 0.024139
0.148499 0.138672 0.025879
0.178986 0.145233 0.029816
0.209229 0.151245 0.034851
0.239990 0.156982 0.039215
0.270691 0.162537 0.044037
0.300903 0.167999 0.049316
0.331116 0.173309 0.053711
0.361481 0.178436 0.057770
0.391785 0.183350 0.061493
0.422058 0.188080 0.064606
0.452271 0.192749 0.068207
0.482391 0.197205 0.071564
0.512390 0.201477 0.074707
0.542297 0.205566 0.078247
0.572052 0.209595 0.081543
0.601654 0.213318 0.084900
0.631134 0.216980 0.088043
0.660431 0.220520 0.091217
0.689453 0.223755 0.094452
0.718292 0.226837 0.097443
0.746857 0.229675 0.100250
0.775146 0.232391 0.102875
0.803192 0.234863 0.105316
0.831055 0.237244 0.107819
0.858765 0.239410 0.110138
0.886383 0.241364 0.112305
0.913940 0.243347 0.114349
0.009460 0.112213 0.021271
0.025238 0.118408 0.019714
0.043243 0.124634 0.019714
0.062805 0.131195 0.019714
0.085175 0.138000 0.021271
0.110077 0.145050 0.024445
0.141357 0.155212 0.025848
0.175323 0.164612 0.028320
0.208038 0.171814 0.031372
0.239563 0.177673 0.035828
0.271515 0.183258 0.040161
0.303650 0.188446 0.043884
0.334747 0.193237 0.048492
0.365417 0.198181 0.052795
0.396057 0.202850 0.056793
0.426666 0.207275 0.060120
0.457214 0.211731 0.063232
0.487701 0.215881 0.066101
0.518005 0.220032 0.069122
0.548218 0.223877 0.072235
0.578308 0.227722 0.075165
0.608215 0.231415 0.078186
0.637939 0.234955 0.081299
0.667389 0.238373 0.084167
0.696594 0.241638 0.087158
0.725494 0.244690 0.089935
0.754150 0.247711 0.092743
0.782471 0.250397 0.095398
0.810547 0.253082 0.097870
0.838379 0.255554 0.100403
0.865997 0.257812 0.102753
0.893555 0.260101 0.104980
0.921051 0.262268 0.107208
0.011047 0.130280 0.026001
0.025238 0.136261 0.023651
0.040985 0.142273 0.021271
0.059845 0.148590 0.020508
0.081482 0.155151 0.021271
0.105652 0.161926 0.022858
0.132599 0.169067 0.026703
0.167084 0.180969 0.028198
0.203369 0.191101 0.030060
0.238831 0.199127 0.032440
0.271362 0.204742 0.036896
0.304199 0.210114 0.040710
0.337006 0.215149 0.044403
0.369598 0.219696 0.046936
0.400482 0.224030 0.051239
0.431335 0.228241 0.054871
0.462097 0.232300 0.057892
0.492828 0.236176 0.060699
0.523376 0.239990 0.063599
0.553925 0.243683 0.066345
0.584259 0.247284 0.068878
0.614441 0.250763 0.071533
0.644318 0.254120 0.074310
0.674011 0.257294 0.076904
0.703430 0.260468 0.079590
0.732513 0.263580 0.082123
0.761322 0.266449 0.084717
0.789734 0.269257 0.087402
0.817902 0.271912 0.089905
0.845795 0.274536 0.092255
0.873474 0.276978 0.094666
0.901031 0.279327 0.096924
0.928528 0.281586 0.099243
0.011810 0.148315 0.030731
0.025238 0.154114 0.027618
0.039429 0.159943 0.024445
0.056824 0.165802 0.022858
0.077148 0.172150 0.022064
0.100677 0.178925 0.022858
0.127167 0.185852 0.025238
0.156860 0.194183 0.028717
0.194244 0.206909 0.030457
0.232788 0.218231 0.031677
0.270477 0.227081 0.033295
0.304169 0.232758 0.037537
0.337616 0.238007 0.041290
0.370850 0.242798 0.044189
0.403839 0.247070 0.046661
0.435944 0.251007 0.049042
0.466919 0.254608 0.052399
0.497742 0.258179 0.055206
0.528534 0.261627 0.057770
0.559235 0.265076 0.060150
0.589783 0.268341 0.062347
0.620178 0.271484 0.064667
0.650360 0.274628 0.067139
0.680359 0.277710 0.069427
0.709991 0.280701 0.071838
0.739258 0.283600 0.074097
0.768219 0.286407 0.076477
0.796875 0.289154 0.078918
0.825195 0.291779 0.081238
0.853241 0.294342 0.083649
0.881042 0.296906 0.086090
0.908722 0.299286 0.088196
0.936310 0.301666 0.090576
0.013397 0.166534 0.036255
0.025238 0.171936 0.032349
0.037842 0.177582 0.028381
0.053650 0.183289 0.025238
0.072601 0.189423 0.023651
0.095490 0.195953 0.023651
0.121399 0.202820 0.025238
0.150208 0.210205 0.027588
0.183014 0.219574 0.031433
0.223053 0.233521 0.032593
0.263367 0.245850 0.034241
0.302551 0.255432 0.034851
0.337585 0.261536 0.038177
0.371490 0.266663 0.041473
0.405090 0.271210 0.043976
0.438263 0.275330 0.045837
0.471069 0.278900 0.046875
0.502594 0.282074 0.049194
0.533447 0.285217 0.051544
0.564270 0.288177 0.053955
0.594940 0.291138 0.056152
0.625549 0.294037 0.058167
0.655945 0.296875 0.060028
0.686127 0.299622 0.062042
0.715973 0.302399 0.064178
0.745575 0.305054 0.066162
0.774811 0.307709 0.068268
0.803680 0.310303 0.070496
0.832306 0.312897 0.072571
0.860535 0.315338 0.074768
0.888580 0.317810 0.076843
0.916443 0.320251 0.078979
0.944244 0.322632 0.081207
0.014984 0.184570 0.042511
0.025238 0.189850 0.037079
0.036255 0.195160 0.032349
0.050354 0.200897 0.029175
0.068390 0.206848 0.026031
0.090454 0.213318 0.025238
0.115692 0.219971 0.025238
0.144226 0.227234 0.027588
0.175110 0.234894 0.030731
0.210907 0.245880 0.034058
0.253113 0.260956 0.035950
0.295013 0.274048 0.036469
0.335144 0.284241 0.036957
0.371643 0.291107 0.038757
0.405792 0.295959 0.041595
0.439514 0.300415 0.043762
0.472778 0.304291 0.044800
0.505646 0.307678 0.045380
0.538177 0.310577 0.045319
0.569031 0.313202 0.047577
0.599823 0.315765 0.049622
0.630493 0.318298 0.051422
0.661072 0.320801 0.053314
0.691406 0.323303 0.055054
0.721527 0.325745 0.056641
0.751373 0.328156 0.058350
0.780914 0.330597 0.060181
0.810089 0.333008 0.061890
0.838989 0.335388 0.063751
0.867554 0.337769 0.065704
0.895905 0.340088 0.067566
0.924072 0.342346 0.069550
0.952179 0.344635 0.071625
0.017334 0.202637 0.049652
0.025238 0.207977 0.043274
0.034698 0.213318 0.037872
0.047577 0.218719 0.033142
0.064514 0.224670 0.029968
0.085602 0.230774 0.027618
0.110077 0.237518 0.026794
0.138306 0.244507 0.027588
0.168915 0.252167 0.029968
0.201874 0.260193 0.033905
0.240570 0.272766 0.037323
0.284485 0.288910 0.038940
0.327484 0.302765 0.038910
0.368286 0.313721 0.038757
0.405914 0.321259 0.039215
0.440216 0.326050 0.041351
0.473999 0.330261 0.042908
0.507294 0.333984 0.043488
0.540131 0.337128 0.043243
0.572662 0.339874 0.042633
0.604431 0.342133 0.042908
0.635162 0.344330 0.044891
0.665771 0.346466 0.046387
0.696259 0.348602 0.047913
0.726532 0.350769 0.049500
0.756622 0.352905 0.050964
0.786407 0.355042 0.052277
0.815918 0.357208 0.053741
0.845184 0.359344 0.055328
0.874115 0.361481 0.056793
0.902832 0.363647 0.058411
0.931396 0.365753 0.059937
0.959869 0.367889 0.061584
0.018921 0.221008 0.056824
0.026001 0.226196 0.049683
0.033905 0.231445 0.043274
0.045441 0.236847 0.037872
0.061035 0.242615 0.033905
0.080994 0.248840 0.030762
0.104919 0.255341 0.029175
0.132385 0.262360 0.029175
0.162903 0.269867 0.029968
0.195740 0.277710 0.033112
0.230591 0.286194 0.037842
0.271790 0.300476 0.041077
0.316864 0.317444 0.042114
0.360596 0.332092 0.041870
0.401825 0.343475 0.040924
0.440430 0.352051 0.039185
0.474670 0.356689 0.040955
0.508453 0.360718 0.041779
0.541718 0.364197 0.041534
0.574524 0.367188 0.041016
0.606934 0.369751 0.039978
0.639069 0.371918 0.038910
0.670166 0.373749 0.039581
0.700714 0.375549 0.041046
0.731110 0.377380 0.042511
0.761353 0.379181 0.043762
0.791382 0.381012 0.044891
0.821167 0.382904 0.046082
0.850708 0.384827 0.047150
0.880066 0.386688 0.048370
0.909210 0.388611 0.049713
0.938141 0.390503 0.050720
0.967041 0.392395 0.052155
0.021271 0.239594 0.063934
0.026794 0.244659 0.056824
0.033905 0.249908 0.049683
0.044006 0.255341 0.043274
0.058044 0.261047 0.037872
0.076660 0.267212 0.033905
0.099915 0.273621 0.031555
0.126862 0.280640 0.030762
0.157196 0.287994 0.030762
0.189850 0.295776 0.032318
0.224670 0.304016 0.036255
0.260925 0.312744 0.041748
0.304413 0.328827 0.045685
0.350220 0.346558 0.046448
0.394348 0.361877 0.045227
0.435638 0.373810 0.043030
0.474701 0.383087 0.039734
0.509186 0.387817 0.040222
0.542877 0.391663 0.040192
0.576019 0.395020 0.039490
0.608673 0.397797 0.038300
0.640991 0.400177 0.036896
0.673004 0.402191 0.035492
0.704773 0.403931 0.034271
0.735260 0.405396 0.035370
0.765625 0.406921 0.036743
0.795807 0.408417 0.037933
0.825836 0.410034 0.038940
0.855652 0.411652 0.039764
0.885315 0.413269 0.040710
0.914825 0.414948 0.041534
0.944214 0.416565 0.042297
0.973541 0.418274 0.043152
0.023651 0.258423 0.071564
0.027588 0.263367 0.063385
0.033905 0.268616 0.055573
0.042511 0.274017 0.048309
0.055573 0.279724 0.042511
0.073120 0.285919 0.037872
0.095490 0.292358 0.034698
0.122040 0.299377 0.032349
0.151764 0.306671 0.031555
0.184357 0.314270 0.033112
0.219086 0.322418 0.035492
0.255463 0.330872 0.040222
0.292877 0.340057 0.046875
0.338257 0.357819 0.050354
0.384338 0.376221 0.050659
0.428436 0.392120 0.048767
0.469696 0.404541 0.045349
0.508575 0.414062 0.040588
0.543640 0.419403 0.039124
0.577148 0.423126 0.038422
0.610138 0.426270 0.036926
0.642670 0.428925 0.035400
0.674835 0.431122 0.033508
0.706696 0.432953 0.031982
0.738342 0.434570 0.030457
0.769501 0.435913 0.029663
0.799805 0.437134 0.030792
0.829987 0.438385 0.031860
0.860046 0.439697 0.032745
0.889984 0.441071 0.033478
0.919769 0.442474 0.034027
0.949524 0.443909 0.034485
0.979187 0.445312 0.035034
0.026794 0.277557 0.078613
0.029968 0.282501 0.070007
0.034698 0.287628 0.061646
0.042511 0.293121 0.054291
0.054291 0.298767 0.047607
0.070526 0.304993 0.041779
0.091736 0.311554 0.037872
0.117401 0.318542 0.034698
0.146973 0.325775 0.033142
0.179352 0.333405 0.033142
0.214050 0.341309 0.034698
0.250366 0.349640 0.038635
0.287872 0.358429 0.044739
0.326355 0.367767 0.052979
0.373016 0.387421 0.055511
0.419098 0.406403 0.055542
0.463013 0.422821 0.052460
0.503967 0.435577 0.047760
0.542542 0.445404 0.041595
0.577942 0.451355 0.037720
0.611206 0.454926 0.036316
0.644012 0.457916 0.034332
0.676392 0.460358 0.032196
0.708374 0.462433 0.030029
0.740143 0.464111 0.028259
0.771637 0.465576 0.026489
0.803009 0.466827 0.025055
0.833710 0.467865 0.025085
0.863892 0.468872 0.025879
0.894012 0.469971 0.026642
0.924072 0.471069 0.027008
0.954102 0.472229 0.027435
0.984039 0.473450 0.027679
0.029175 0.296906 0.085602
0.032318 0.301849 0.076660
0.036255 0.306915 0.067871
0.042511 0.312378 0.059265
0.052979 0.318207 0.052368
0.068390 0.324432 0.046173
0.088287 0.330994 0.041016
0.113617 0.338135 0.037079
0.142548 0.345398 0.034698
0.174896 0.353119 0.033905
0.209656 0.360931 0.034698
0.245911 0.369019 0.037842
0.283447 0.377441 0.042511
0.321960 0.386475 0.050354
0.361969 0.397217 0.059174
0.408630 0.417572 0.061981
0.454407 0.437042 0.060883
0.497772 0.453796 0.056427
0.538269 0.466919 0.049957
0.576385 0.476959 0.042328
0.612030 0.483643 0.035889
0.645081 0.487000 0.033722
0.677673 0.489838 0.031219
0.709839 0.492126 0.028717
0.741699 0.494019 0.026398
0.773285 0.495605 0.024384
0.804718 0.496887 0.022552
0.835999 0.498016 0.021057
0.867249 0.498932 0.019592
0.897583 0.499756 0.020111
0.927826 0.500610 0.020752
0.958008 0.501526 0.021149
0.988190 0.502441 0.021393
0.032318 0.316467 0.092163
0.034698 0.321381 0.082886
0.037842 0.326569 0.073669
0.043243 0.331879 0.064514
0.052979 0.337708 0.056824
0.066742 0.343964 0.049683
0.086060 0.350769 0.044006
0.110077 0.357941 0.039429
0.138885 0.365417 0.036285
0.170990 0.373199 0.034698
0.205688 0.381073 0.034698
0.242126 0.389008 0.037048
0.279846 0.397278 0.040985
0.318298 0.405853 0.047577
0.357452 0.415070 0.057434
0.398651 0.427338 0.066772
0.445007 0.448212 0.069244
0.490112 0.468079 0.067078
0.532776 0.485199 0.060822
0.572601 0.498566 0.052399
0.610168 0.508789 0.042816
0.645844 0.516144 0.033813
0.678650 0.519287 0.031067
0.711029 0.521942 0.028015
0.743011 0.524078 0.025238
0.774719 0.525818 0.022614
0.806213 0.527222 0.020569
0.837555 0.528381 0.018707
0.868835 0.529358 0.017181
0.900024 0.530151 0.015686
0.931030 0.530853 0.014832
0.961365 0.531494 0.015472
0.991699 0.532227 0.015930
0.036255 0.336212 0.098328
0.037842 0.341095 0.088745
0.040222 0.346130 0.079102
0.044739 0.351593 0.069489
0.052979 0.357452 0.061066
0.066193 0.363770 0.053009
0.084259 0.370636 0.046906
0.107513 0.378021 0.041779
0.135681 0.385651 0.037872
0.167480 0.393585 0.035492
0.202240 0.401550 0.034698
0.238953 0.409607 0.036285
0.276886 0.417633 0.039429
0.315552 0.426025 0.045441
0.354736 0.434692 0.054291
0.394287 0.444031 0.065643
0.436249 0.457916 0.075745
0.481873 0.479187 0.077362
0.526001 0.499359 0.073547
0.567780 0.516754 0.065216
0.606842 0.530334 0.054535
0.643799 0.540680 0.043243
0.679108 0.548309 0.032410
0.711884 0.551727 0.027985
0.744049 0.554169 0.024658
0.775909 0.556152 0.021667
0.807495 0.557709 0.018890
0.838898 0.558960 0.016724
0.870209 0.559967 0.014984
0.901428 0.560791 0.013458
0.932648 0.561462 0.012238
0.963867 0.562042 0.011017
0.994690 0.562561 0.010895
0.039429 0.355957 0.103790
0.040985 0.360931 0.094269
0.043243 0.365906 0.084259
0.046875 0.371399 0.074158
0.054291 0.377258 0.065094
0.065643 0.383545 0.056213
0.082886 0.390533 0.048981
0.105286 0.398071 0.043274
0.132996 0.406036 0.039429
0.164612 0.414154 0.036285
0.199524 0.422211 0.035492
0.236359 0.430420 0.035492
0.274445 0.438477 0.037872
0.313446 0.446686 0.042511
0.352814 0.455017 0.051025
0.392426 0.463806 0.062225
0.432007 0.473206 0.075653
0.474365 0.488739 0.085602
0.518982 0.510345 0.086273
0.562012 0.530823 0.080566
0.602692 0.548492 0.069519
0.640961 0.562225 0.056610
0.677216 0.572693 0.043427
0.712006 0.580322 0.031158
0.744843 0.584198 0.024811
0.776825 0.586426 0.021149
0.808502 0.588226 0.018005
0.840027 0.589630 0.015320
0.871368 0.590729 0.013306
0.902649 0.591583 0.011597
0.933868 0.592285 0.010315
0.965118 0.592834 0.009216
0.996338 0.593323 0.008148
0.043243 0.375671 0.108978
0.044006 0.380615 0.098724
0.046173 0.385742 0.088745
0.049652 0.391083 0.078125
0.055573 0.396942 0.068390
0.066193 0.403381 0.059265
0.082397 0.410461 0.051025
0.103760 0.418030 0.044739
0.130890 0.426178 0.040222
0.162415 0.434479 0.037079
0.197144 0.442932 0.035492
0.234253 0.451202 0.034698
0.272644 0.459442 0.036285
0.311920 0.467560 0.040222
0.351593 0.475800 0.047577
0.391449 0.484131 0.058044
0.431061 0.492950 0.072083
0.470398 0.502441 0.087830
0.512787 0.519623 0.096985
0.556122 0.541565 0.096161
0.597900 0.562317 0.087646
0.637451 0.580200 0.073853
0.674805 0.594116 0.058411
0.710358 0.604675 0.043304
0.744629 0.612335 0.029785
0.777435 0.616638 0.021606
0.809265 0.618683 0.017853
0.840881 0.620300 0.014648
0.872284 0.621521 0.012177
0.903625 0.622467 0.010193
0.934906 0.623169 0.008759
0.966125 0.623779 0.007629
0.997375 0.624237 0.006653
0.046173 0.395172 0.113617
0.047577 0.400177 0.103027
0.048981 0.405273 0.092590
0.051666 0.410645 0.081482
0.057434 0.416473 0.071075
0.067291 0.422974 0.061066
0.082397 0.430115 0.053009
0.102997 0.437836 0.046173
0.129333 0.446075 0.041016
0.160461 0.454712 0.037079
0.195160 0.463379 0.034698
0.232422 0.471924 0.033905
0.271271 0.480347 0.034698
0.310852 0.488495 0.037842
0.350983 0.496643 0.044006
0.391083 0.504791 0.053650
0.430908 0.513184 0.067291
0.470337 0.521942 0.083801
0.509247 0.531525 0.101471
0.551147 0.550446 0.109528
0.593018 0.572662 0.106323
0.633392 0.593719 0.094666
0.671753 0.611786 0.077820
0.708252 0.625916 0.059845
0.743195 0.636566 0.042938
0.776978 0.644287 0.028320
0.809753 0.649048 0.018280
0.841461 0.650879 0.014648
0.872986 0.652283 0.011749
0.904358 0.653351 0.009430
0.935669 0.654175 0.007751
0.966949 0.654785 0.006470
0.998230 0.655304 0.005463
0.049683 0.414398 0.117401
0.051025 0.419281 0.106415
0.052338 0.424438 0.095490
0.054932 0.429901 0.084259
0.059845 0.435730 0.073151
0.068939 0.442169 0.062805
0.082886 0.449341 0.053650
0.102631 0.457245 0.046173
0.128418 0.465698 0.041016
0.159210 0.474457 0.037079
0.193939 0.483368 0.033905
0.231262 0.492218 0.033142
0.270294 0.500793 0.033905
0.310272 0.509186 0.036255
0.350677 0.517365 0.040985
0.391083 0.525360 0.049652
0.431213 0.533539 0.062225
0.470825 0.541840 0.078613
0.509766 0.550629 0.097931
0.547974 0.560150 0.117401
0.589020 0.580902 0.122681
0.629395 0.603485 0.116699
0.668335 0.624847 0.101501
0.705627 0.643219 0.081573
0.741272 0.657562 0.060944
0.775665 0.668396 0.042297
0.809113 0.676147 0.026764
0.841797 0.681396 0.015259
0.873413 0.683014 0.011810
0.904846 0.684235 0.009186
0.936249 0.685181 0.007233
0.967560 0.685883 0.005707
0.998871 0.686462 0.004578
0.053650 0.433136 0.120087
0.054291 0.438080 0.108978
0.055573 0.443176 0.097931
0.057434 0.448578 0.086090
0.062225 0.454437 0.074677
0.070526 0.460907 0.063385
0.083801 0.468140 0.053650
0.102631 0.476074 0.046173
0.127808 0.484680 0.040222
0.158203 0.493622 0.035492
0.192719 0.502777 0.033142
0.230255 0.511841 0.032349
0.269470 0.520691 0.032349
0.309784 0.529266 0.033905
0.350586 0.537506 0.037842
0.391449 0.545624 0.045441
0.431854 0.553589 0.056824
0.471680 0.561493 0.072601
0.510742 0.569733 0.092163
0.548798 0.578491 0.113617
0.586151 0.588074 0.134491
0.626038 0.610779 0.136261
0.664948 0.633820 0.126892
0.702606 0.655579 0.108124
0.738861 0.674377 0.084717
0.773834 0.689026 0.061859
0.807800 0.700043 0.041565
0.840942 0.707886 0.025299
0.873474 0.713226 0.013458
0.905151 0.715118 0.009308
0.936584 0.716187 0.006989
0.967957 0.717010 0.005249
0.999298 0.717682 0.003876
0.056824 0.451202 0.122070
0.057434 0.456207 0.110809
0.058655 0.461273 0.099121
0.060455 0.466705 0.086975
0.065063 0.472565 0.075165
0.072601 0.479004 0.063385
0.084717 0.486176 0.053650
0.102997 0.494232 0.044739
0.127472 0.502899 0.038635
0.157715 0.512085 0.033905
0.192108 0.521393 0.031555
0.229584 0.530670 0.029968
0.269043 0.539673 0.029968
0.309418 0.548462 0.031555
0.350464 0.556915 0.034698
0.391602 0.565186 0.040985
0.432404 0.573120 0.051666
0.472626 0.580872 0.066193
0.511810 0.588654 0.085175
0.549957 0.596802 0.107880
0.587097 0.605469 0.131500
0.623505 0.615906 0.151886
0.662079 0.639923 0.149689
0.699463 0.663544 0.136444
0.735992 0.685883 0.114044
0.771484 0.705139 0.087433
0.805969 0.720215 0.062378
0.839600 0.731537 0.040741
0.872559 0.739563 0.024017
0.904999 0.744965 0.012054
0.936768 0.747223 0.006958
0.968201 0.748169 0.004883
0.999603 0.748932 0.003265
0.059875 0.468719 0.122711
0.060486 0.473633 0.111145
0.061646 0.478668 0.099518
0.063385 0.484070 0.086975
0.067291 0.489868 0.074677
0.074646 0.496368 0.062805
0.086060 0.503540 0.052368
0.103760 0.511566 0.043274
0.127808 0.520325 0.037079
0.157440 0.529633 0.032349
0.191498 0.539093 0.029175
0.228912 0.548462 0.028381
0.268463 0.557739 0.028381
0.309082 0.566711 0.029175
0.350372 0.575287 0.032318
0.391693 0.583649 0.037842
0.432892 0.591705 0.046173
0.473236 0.599457 0.059845
0.512726 0.607117 0.077637
0.551086 0.614777 0.100311
0.588196 0.622650 0.125580
0.624146 0.631317 0.150452
0.659698 0.643494 0.168518
0.696686 0.668243 0.162842
0.732910 0.692596 0.145538
0.768494 0.715698 0.119202
0.803375 0.735565 0.089783
0.837585 0.751190 0.062653
0.871063 0.762878 0.040009
0.904022 0.771210 0.022644
0.936462 0.776733 0.010498
0.968292 0.779419 0.004517
0.999725 0.780212 0.002777
0.062805 0.485504 0.122070
0.063385 0.490326 0.110443
0.064514 0.495361 0.098724
0.066223 0.500671 0.086090
0.070007 0.506470 0.073669
0.076660 0.512787 0.061066
0.087830 0.520020 0.050354
0.104919 0.528076 0.041016
0.128113 0.536865 0.033905
0.157440 0.546204 0.029175
0.191284 0.555725 0.026825
0.228577 0.565247 0.026031
0.268066 0.574615 0.026031
0.308594 0.583771 0.026825
0.349945 0.592499 0.029175
0.391510 0.601105 0.033905
0.432800 0.609253 0.041748
0.473541 0.617157 0.052979
0.513275 0.624664 0.070007
0.551910 0.631989 0.091736
0.589050 0.639465 0.117401
0.624939 0.647247 0.144501
0.659576 0.655853 0.170074
0.694183 0.670105 0.184784
0.729858 0.695709 0.174988
