src/assets/luts/ON1 Nature & Wildlife LUTs/CinematicX LUTs - 30 Free Cinematic LUTs - The Resolve Store 2022/Loiza - Rec709.cube
# Copyright: (C) Copyright 2022 The Resolve Store 
# Cannot be resold, shared or otherwise redistributed
TITLE "CinematicX (Rec.709)"
LUT_3D_SIZE 9
0.000000 0.000000 0.000000
0.105530 0.031921 0.023346
0.212646 0.062744 0.046814
0.319489 0.088135 0.069061
0.428131 0.109070 0.089386
0.539246 0.126190 0.107941
0.653381 0.138672 0.122742
0.769073 0.146027 0.133026
0.884277 0.148987 0.139465
0.007080 0.075165 0.013397
0.094330 0.104553 0.021606
0.209869 0.131561 0.037903
0.327972 0.154846 0.058105
0.447205 0.175079 0.072937
0.565582 0.192261 0.087372
0.682281 0.206512 0.101196
0.796021 0.217163 0.112244
0.907227 0.224640 0.120819
0.011810 0.148315 0.030731
0.077148 0.172150 0.022064
0.194244 0.206909 0.030457
0.337616 0.238007 0.041290
0.466919 0.254608 0.052399
0.589783 0.268341 0.062347
0.709991 0.280701 0.071838
0.825195 0.291779 0.081238
0.936310 0.301666 0.090576
0.018921 0.221008 0.056824
0.061035 0.242615 0.033905
0.162903 0.269867 0.029968
0.316864 0.317444 0.042114
0.474670 0.356689 0.040955
0.606934 0.369751 0.039978
0.731110 0.377380 0.042511
0.850708 0.384827 0.047150
0.967041 0.392395 0.052155
0.029175 0.296906 0.085602
0.052979 0.318207 0.052368
0.142548 0.345398 0.034698
0.283447 0.377441 0.042511
0.454407 0.437042 0.060883
0.612030 0.483643 0.035889
0.741699 0.494019 0.026398
0.867249 0.498932 0.019592
0.988190 0.502441 0.021393
0.043243 0.375671 0.108978
0.055573 0.396942 0.068390
0.130890 0.426178 0.040222
0.272644 0.459442 0.036285
0.431061 0.492950 0.072083
0.597900 0.562317 0.087646
0.744629 0.612335 0.029785
0.872284 0.621521 0.012177
0.997375 0.624237 0.006653
0.056824 0.451202 0.122070
0.065063 0.472565 0.075165
0.127472 0.502899 0.038635
0.269043 0.539673 0.029968
0.432404 0.573120 0.051666
0.587097 0.605469 0.131500
0.735992 0.685883 0.114044
0.872559 0.739563 0.024017
0.999603 0.748932 0.003265
0.068390 0.516724 0.117737
0.074646 0.537109 0.067871
0.129669 0.566986 0.027618
0.266785 0.604950 0.021301
0.431213 0.640472 0.033112
0.589264 0.670898 0.097107
0.725342 0.700958 0.209473
0.860809 0.801880 0.131104
0.997406 0.866150 0.018188
0.077667 0.572021 0.099518
0.084259 0.590820 0.048309
0.132996 0.618103 0.010254
0.263214 0.654663 0.012604
0.422943 0.690979 0.021271
0.582672 0.724670 0.054291
0.721466 0.749207 0.172607
0.835358 0.771637 0.301941
0.966919 0.901123 0.181000
0.007874 0.029968 0.104523
0.090027 0.043243 0.153076
0.206848 0.057434 0.175110
0.322235 0.074371 0.179230
0.431702 0.092987 0.178223
0.538147 0.111847 0.180328
0.646240 0.128082 0.187042
0.756714 0.139160 0.196228
0.868134 0.145630 0.205505
0.012604 0.102997 0.118408
0.079102 0.119415 0.138000
0.193298 0.135925 0.153534
0.323151 0.152466 0.160645
0.449188 0.170990 0.163757
0.567963 0.189911 0.170654
0.681091 0.206543 0.181213
0.789520 0.219788 0.193207
0.895477 0.229492 0.204742
0.019714 0.177155 0.140869
0.065063 0.193542 0.141144
0.178009 0.217407 0.144775
0.329987 0.240875 0.146912
0.465057 0.256439 0.153961
0.592377 0.271515 0.160980
0.712128 0.285645 0.169952
0.823334 0.298584 0.180756
0.929260 0.310059 0.192627
0.029968 0.250824 0.172394
0.052338 0.266510 0.159454
0.138000 0.287628 0.152832
0.299103 0.325714 0.150024
0.470306 0.359436 0.147766
0.608154 0.372437 0.149567
0.733124 0.380981 0.154572
0.851135 0.389709 0.161011
0.963959 0.398499 0.168671
0.041748 0.326111 0.196747
0.051666 0.342163 0.173981
0.114655 0.363281 0.158447
0.250671 0.391357 0.154907
0.439392 0.443756 0.156860
0.610046 0.485626 0.147278
0.742493 0.495819 0.144287
0.867523 0.500549 0.141907
0.987488 0.504547 0.145416
0.054932 0.401825 0.209656
0.059265 0.419037 0.179810
0.105652 0.441864 0.157196
0.232605 0.471893 0.151520
0.399567 0.504272 0.161682
0.588013 0.568298 0.171875
0.744019 0.613922 0.145355
0.872345 0.622070 0.135803
0.997375 0.624664 0.131622
0.066193 0.472626 0.209473
0.069458 0.490814 0.174896
0.107147 0.515594 0.146698
0.229431 0.549805 0.140594
0.396484 0.583069 0.149139
0.566193 0.616333 0.188385
0.731628 0.691284 0.194702
0.872437 0.740479 0.142792
0.999634 0.749054 0.127838
0.075684 0.532501 0.194733
0.078613 0.550903 0.157196
0.113617 0.576843 0.124969
0.235229 0.613647 0.119415
0.401733 0.649353 0.128113
0.569641 0.680664 0.162415
0.717712 0.712219 0.241974
0.860138 0.806519 0.214722
0.997467 0.866669 0.139404
0.082428 0.582520 0.168915
0.086090 0.600525 0.129333
0.122375 0.626678 0.094238
0.244812 0.664062 0.088715
0.406891 0.700165 0.098328
0.570618 0.733093 0.125916
0.716553 0.759521 0.207214
0.834900 0.783020 0.321198
0.967865 0.905487 0.263153
0.018127 0.055573 0.210754
0.063385 0.062805 0.258728
0.173309 0.065643 0.288269
0.304260 0.073120 0.297272
0.418060 0.090912 0.291229
0.523285 0.111359 0.278839
0.628601 0.128754 0.269073
0.734985 0.142670 0.266632
0.842224 0.152344 0.270477
0.022064 0.129974 0.209076
0.056183 0.139435 0.232086
0.146423 0.148865 0.258270
0.284363 0.158722 0.275269
0.425842 0.174103 0.274261
0.554199 0.191895 0.266693
0.668121 0.210388 0.265564
0.772675 0.226685 0.272583
0.873383 0.239838 0.284027
0.028381 0.204559 0.213684
0.057434 0.214233 0.221375
0.148590 0.229767 0.239105
0.289978 0.245514 0.257629
0.438934 0.259338 0.263611
0.578766 0.275391 0.262970
0.701843 0.292358 0.266571
0.810181 0.308594 0.276947
0.911163 0.323364 0.291260
0.039429 0.275391 0.243713
0.052979 0.286713 0.244171
0.123688 0.305237 0.249756
0.277679 0.334442 0.257263
0.455353 0.360870 0.259094
0.598877 0.373779 0.262024
0.727386 0.385284 0.266052
0.844177 0.396973 0.273346
0.953217 0.408722 0.283966
0.054291 0.349243 0.281433
0.058044 0.362885 0.273346
0.097107 0.380157 0.266632
0.219421 0.406281 0.266083
0.415802 0.449463 0.263519
0.602539 0.486267 0.261261
0.740601 0.497314 0.261963
0.865265 0.502991 0.263855
0.984131 0.508514 0.268280
0.067291 0.424835 0.302338
0.068939 0.440399 0.283447
0.091736 0.458191 0.266357
0.192108 0.484741 0.262054
0.359833 0.516174 0.263519
0.570251 0.573059 0.268250
0.741821 0.615143 0.261597
0.871918 0.622711 0.258636
0.997101 0.625275 0.256165
0.077637 0.493439 0.298523
0.078125 0.509918 0.272522
0.095490 0.529633 0.248993
0.187958 0.559845 0.243713
0.351288 0.593475 0.249451
0.535278 0.627533 0.265656
0.723053 0.695892 0.282593
0.871887 0.741211 0.261871
0.999542 0.748932 0.253357
0.084259 0.549377 0.276337
0.085175 0.565918 0.246826
0.103394 0.587311 0.219788
0.197937 0.621155 0.214050
0.361725 0.657928 0.222595
0.539978 0.690765 0.240875
0.703583 0.723846 0.291351
0.857697 0.810486 0.302704
0.997498 0.866821 0.261932
0.089172 0.595062 0.244171
0.090912 0.611115 0.212769
0.112549 0.633667 0.183075
0.215698 0.669678 0.176025
0.379028 0.707336 0.184570
0.550201 0.741486 0.203979
0.705963 0.770203 0.256378
0.831604 0.795410 0.351593
0.968262 0.909363 0.349182
0.026794 0.079559 0.277313
0.044739 0.089600 0.324554
0.112549 0.092987 0.368622
0.250824 0.090027 0.397034
0.390808 0.094238 0.404144
0.503693 0.111877 0.394470
0.602509 0.137726 0.376038
0.701569 0.158569 0.357208
0.804169 0.172180 0.344360
0.033112 0.154633 0.281860
0.043243 0.161926 0.304626
0.086945 0.167725 0.336426
0.207977 0.172607 0.371796
0.374359 0.179352 0.388641
0.519196 0.194153 0.381439
0.635468 0.217133 0.366302
0.739868 0.237305 0.358307
0.837097 0.255402 0.359222
0.039429 0.228577 0.280792
0.051666 0.234253 0.288788
0.102631 0.243256 0.310608
0.212402 0.255188 0.347076
0.366699 0.265503 0.373413
0.529327 0.279449 0.373962
0.668121 0.297729 0.365509
0.779846 0.318115 0.367188
0.878448 0.338257 0.378296
0.048279 0.297760 0.289673
0.058655 0.305969 0.294647
0.113953 0.320587 0.309906
0.245270 0.343842 0.340149
0.401825 0.360931 0.365051
0.556305 0.373627 0.373474
0.699951 0.389130 0.373383
0.820557 0.406494 0.379028
0.927277 0.423920 0.391724
0.062225 0.365906 0.328888
0.067291 0.379028 0.333069
0.097107 0.394623 0.338867
0.211487 0.423676 0.355347
0.395935 0.457855 0.369690
0.583344 0.485535 0.375854
0.728210 0.497620 0.379333
0.854645 0.507294 0.383331
0.972382 0.516754 0.389740
0.077148 0.440247 0.368652
0.079559 0.457306 0.365723
0.091309 0.473053 0.360626
0.164612 0.497894 0.363983
0.324432 0.530731 0.372345
0.541901 0.576935 0.377014
0.733093 0.614258 0.380219
0.869110 0.623413 0.381073
0.994995 0.626801 0.381012
0.089172 0.511078 0.383362
0.090027 0.528259 0.368347
0.096313 0.544739 0.352509
0.152832 0.569672 0.348206
0.298004 0.603790 0.357452
0.489868 0.638733 0.366791
0.704926 0.699158 0.382355
0.869873 0.741608 0.381470
0.999268 0.748901 0.378632
0.095490 0.567230 0.366791
0.095917 0.582581 0.343872
0.101868 0.599731 0.321381
0.159698 0.627808 0.313202
0.306335 0.665527 0.323425
0.492615 0.700867 0.337708
0.676178 0.735840 0.366486
0.851013 0.813507 0.396484
0.997314 0.866730 0.384247
0.099121 0.610992 0.334045
0.099518 0.624390 0.307892
0.107880 0.641968 0.281036
0.175354 0.673096 0.269165
0.328461 0.712738 0.277008
0.509644 0.749512 0.293640
0.681458 0.781219 0.327362
0.821777 0.808777 0.399567
0.967621 0.912598 0.437225
0.034698 0.103027 0.316467
0.044739 0.118073 0.365234
0.070526 0.124969 0.417389
0.164368 0.123352 0.466125
0.327026 0.115692 0.496979
0.472626 0.117065 0.504608
0.585449 0.134216 0.493622
0.681641 0.160461 0.471863
0.767517 0.191498 0.445770
0.043243 0.176025 0.336945
0.048279 0.184357 0.360138
0.061035 0.188995 0.390472
0.124023 0.192108 0.436371
0.284485 0.193939 0.480133
0.466492 0.196960 0.495575
0.603760 0.211121 0.485229
0.707825 0.236359 0.467072
0.793335 0.267914 0.450378
0.051666 0.245911 0.350067
0.054932 0.251282 0.357849
0.068390 0.254883 0.374268
0.122711 0.261627 0.411652
0.260345 0.272247 0.459961
0.455109 0.281189 0.486267
0.617889 0.294891 0.481171
0.733948 0.319794 0.469421
0.829315 0.348999 0.465759
0.057434 0.315643 0.340607
0.063385 0.323212 0.345123
0.088287 0.330780 0.358063
0.173523 0.345825 0.395508
0.305969 0.361908 0.443573
0.464630 0.373291 0.476990
0.632874 0.388550 0.483093
0.769379 0.411957 0.481537
0.881287 0.437317 0.488770
0.068390 0.380981 0.361725
0.075165 0.393585 0.369598
0.099915 0.406372 0.380066
0.195160 0.431946 0.409088
0.360718 0.462799 0.448792
0.519073 0.480347 0.476166
0.674286 0.494598 0.490814
0.817688 0.512421 0.496582
0.939270 0.530762 0.504852
0.082886 0.449646 0.405365
0.087402 0.467499 0.414001
0.099915 0.483032 0.420685
0.158203 0.506744 0.435577
0.308960 0.544312 0.462799
0.512390 0.581726 0.484344
0.710083 0.612000 0.497101
0.856262 0.624084 0.502502
0.983185 0.632172 0.506073
0.097534 0.520874 0.443390
0.100311 0.540283 0.444550
0.104553 0.556641 0.442108
0.135681 0.577332 0.444397
0.251129 0.611908 0.461426
0.441711 0.649994 0.478821
0.673645 0.701202 0.493591
0.862244 0.740387 0.502441
0.997131 0.749115 0.503540
0.107147 0.582092 0.454193
0.108276 0.597992 0.442474
0.110077 0.613159 0.428680
0.135681 0.634491 0.420685
0.245758 0.670898 0.432007
0.429657 0.710266 0.449860
0.632477 0.747803 0.468872
0.836151 0.815369 0.498962
0.996155 0.865997 0.506226
0.112213 0.629395 0.437439
0.111877 0.640778 0.416412
0.113281 0.653809 0.393860
0.141724 0.676514 0.377441
0.257996 0.715393 0.382538
0.443390 0.757019 0.399902
0.636749 0.793030 0.424561
0.801819 0.823547 0.472565
0.963837 0.914551 0.530701
0.041779 0.124329 0.349457
0.052338 0.143127 0.401825
0.063934 0.153107 0.452942
0.101471 0.153625 0.508942
0.228088 0.149414 0.558655
0.410889 0.137451 0.589752
0.556122 0.137726 0.597595
0.666809 0.155182 0.587982
0.765808 0.178711 0.570251
0.052338 0.193726 0.381256
0.057434 0.203613 0.406219
0.062805 0.208710 0.432281
0.083344 0.210205 0.475464
0.182434 0.212219 0.536560
0.381470 0.210022 0.582458
0.559906 0.210754 0.595093
0.683472 0.226379 0.585724
0.784424 0.250366 0.569580
0.062225 0.257538 0.410217
0.064514 0.263367 0.418884
0.067291 0.265656 0.430695
0.080994 0.267639 0.458557
0.154907 0.276062 0.513885
0.348755 0.285919 0.570526
0.557892 0.291351 0.592834
0.698944 0.306915 0.587158
0.804718 0.332733 0.575684
0.067871 0.324341 0.402863
0.070007 0.332184 0.405792
0.076172 0.335876 0.414337
0.102234 0.339935 0.440704
0.180695 0.352112 0.493164
0.342804 0.369598 0.554382
0.553589 0.382996 0.590332
0.716187 0.401642 0.594147
0.832642 0.430664 0.590851
0.074677 0.391632 0.395813
0.079102 0.403900 0.402710
0.092590 0.413330 0.411713
0.137146 0.425812 0.434631
0.247589 0.448883 0.484406
0.400360 0.470703 0.542725
0.571014 0.486938 0.587311
0.741760 0.508881 0.605255
0.878052 0.537262 0.611389
0.086975 0.456573 0.429077
0.092590 0.473541 0.440643
0.107513 0.488434 0.451813
0.149384 0.506561 0.469086
0.263367 0.539612 0.506622
0.460632 0.579407 0.558533
0.633057 0.602631 0.594666
0.797363 0.621704 0.615936
0.943481 0.640564 0.625427
0.101471 0.523682 0.473633
0.106049 0.543030 0.484406
0.113617 0.560089 0.493347
0.137726 0.579041 0.505066
0.219269 0.611420 0.530609
0.400787 0.656464 0.568909
0.634583 0.702240 0.601715
0.839722 0.737488 0.620911
0.986847 0.750031 0.627380
0.114685 0.587158 0.509338
0.117401 0.604309 0.512787
0.120087 0.620056 0.513489
0.132111 0.638397 0.515015
0.199921 0.671356 0.531158
0.364258 0.716064 0.560089
0.583282 0.759094 0.585754
0.811127 0.816559 0.611298
0.991425 0.863739 0.628021
0.124664 0.641815 0.527954
0.124969 0.653687 0.519684
0.125610 0.665741 0.508484
0.133301 0.682770 0.497223
0.198944 0.716553 0.501404
0.368042 0.764160 0.523956
0.580353 0.806580 0.547638
0.774048 0.840515 0.576904
0.957428 0.915771 0.629852
0.048309 0.142578 0.380707
0.059845 0.163635 0.437195
0.069489 0.176025 0.485626
0.083344 0.178284 0.535889
0.144501 0.177399 0.591980
0.311798 0.171234 0.640015
0.505890 0.152832 0.671204
0.644257 0.154144 0.679352
0.754669 0.169373 0.674652
0.059265 0.207031 0.417236
0.065063 0.218018 0.443939
0.069489 0.223816 0.467560
0.077148 0.224823 0.501862
0.118073 0.225861 0.563538
0.272675 0.227570 0.630463
0.494354 0.218903 0.671539
0.653442 0.219788 0.681793
0.769592 0.234253 0.676514
0.070007 0.265381 0.451508
0.072083 0.270996 0.461273
0.074158 0.273071 0.471069
0.077667 0.273468 0.490387
0.102997 0.277435 0.539978
0.234100 0.288269 0.614349
0.474884 0.291840 0.669250
0.660461 0.295013 0.685547
0.785156 0.310028 0.681702
0.076660 0.325348 0.459381
0.078125 0.332397 0.462158
0.079590 0.334900 0.468872
0.084259 0.334045 0.485718
0.108246 0.338776 0.525818
0.216766 0.357239 0.596008
0.452332 0.375854 0.663239
0.665344 0.385742 0.691376
0.804535 0.403473 0.692932
0.080536 0.393219 0.435181
0.082886 0.404510 0.438934
0.086975 0.411041 0.446320
0.097534 0.414246 0.462158
0.135681 0.422974 0.500610
0.250214 0.445770 0.572479
0.455750 0.472992 0.652557
0.673096 0.492767 0.698792
0.832642 0.514709 0.710754
0.089600 0.458344 0.445923
0.093842 0.473480 0.456512
0.103760 0.486176 0.467133
0.126221 0.498230 0.480743
0.175812 0.516998 0.508606
0.309906 0.551666 0.569397
0.510101 0.585388 0.646942
0.700012 0.609222 0.704346
0.873840 0.633850 0.730011
0.103027 0.521393 0.487549
0.107544 0.538910 0.500061
0.117401 0.555542 0.512665
0.142853 0.574402 0.528839
0.193542 0.600403 0.553741
0.326782 0.643921 0.601807
0.574860 0.696167 0.670166
0.763611 0.727051 0.716125
0.937805 0.748718 0.743347
0.116730 0.582886 0.529999
0.120087 0.599365 0.540283
0.124969 0.615540 0.550201
0.139160 0.635071 0.563202
0.181763 0.665375 0.586731
0.302094 0.711609 0.627167
0.531525 0.764801 0.677429
0.776978 0.816437 0.718842
0.975861 0.859070 0.745911
0.129059 0.640472 0.567322
0.131500 0.652954 0.572479
0.133606 0.666260 0.576782
0.137726 0.683289 0.581879
0.168427 0.713287 0.596649
0.295654 0.765076 0.632629
0.516998 0.818054 0.671356
0.742859 0.857483 0.698151
0.950043 0.916077 0.732513
0.054291 0.156952 0.408691
0.066193 0.179169 0.466553
0.075165 0.193756 0.510803
0.082428 0.197968 0.548462
0.104919 0.196564 0.600189
0.208710 0.196960 0.657623
0.416321 0.181580 0.705750
0.609100 0.156433 0.737030
0.746094 0.155182 0.750549
0.064514 0.216949 0.443634
0.070526 0.227753 0.471008
0.074677 0.233917 0.492889
0.079590 0.235229 0.518127
0.094696 0.234741 0.569244
0.181122 0.237671 0.643738
0.395538 0.233093 0.705933
0.611420 0.216400 0.742096
0.759644 0.216400 0.757812
0.074158 0.270844 0.475311
0.076660 0.275269 0.485352
0.078125 0.276764 0.494019
0.080536 0.276093 0.507782
0.090027 0.276917 0.546387
0.154633 0.284088 0.623322
0.365448 0.291840 0.701324
0.608704 0.285797 0.746765
0.772125 0.288635 0.764954
0.081970 0.324341 0.492340
0.083344 0.329010 0.496490
0.084259 0.329803 0.502563
0.086090 0.327240 0.514069
0.092590 0.327576 0.542053
0.140015 0.339752 0.606689
0.333191 0.362091 0.692566
0.601196 0.370544 0.751434
0.788330 0.377167 0.776031
0.085175 0.388580 0.469421
0.086517 0.397125 0.472351
0.088287 0.400787 0.479858
0.091339 0.399750 0.495422
0.101471 0.400269 0.526367
0.155670 0.415405 0.590179
0.331421 0.448364 0.682037
0.597015 0.472351 0.756226
0.810547 0.485016 0.792236
0.090454 0.453674 0.456940
0.093445 0.466217 0.465332
0.097534 0.475647 0.474548
0.105682 0.482697 0.487000
0.122040 0.491943 0.510101
0.187531 0.515411 0.565521
0.371033 0.554260 0.663330
0.614563 0.587494 0.757751
0.840759 0.608246 0.812775
0.102631 0.513550 0.490479
0.106049 0.529022 0.502563
0.112915 0.543854 0.514893
0.131500 0.560760 0.530731
0.162415 0.582123 0.552643
0.229767 0.616089 0.593079
0.422150 0.666077 0.670532
0.665833 0.707153 0.761658
0.879395 0.733093 0.830872
0.115692 0.572693 0.534027
0.119415 0.587982 0.545502
0.124969 0.604095 0.558197
0.142578 0.625458 0.576172
0.180695 0.655670 0.603394
0.254425 0.697815 0.643799
0.445862 0.754333 0.706787
0.717163 0.808899 0.780945
0.929291 0.842560 0.840057
0.129059 0.631073 0.576447
0.131805 0.643311 0.585022
0.134796 0.657135 0.594788
0.140594 0.675659 0.608398
0.164856 0.707001 0.633606
0.244965 0.758270 0.678680
0.434387 0.818481 0.736572
0.697998 0.868530 0.789062
0.946869 0.922119 0.839233
0.059875 0.168457 0.434326
0.071045 0.190887 0.488556
0.078613 0.206482 0.525604
0.083344 0.212433 0.549225
0.091339 0.211517 0.588013
0.132996 0.208923 0.653442
0.304504 0.205902 0.712891
0.545044 0.168915 0.764191
0.858185 0.066772 0.875000
0.068939 0.224487 0.463104
0.074158 0.234741 0.488770
0.077667 0.240723 0.507843
0.081024 0.242004 0.524872
0.087402 0.240875 0.560638
0.122375 0.239624 0.634735
0.285278 0.241974 0.711670
0.543304 0.218903 0.771820
0.875366 0.153870 0.889893
0.077148 0.275116 0.489105
0.078613 0.277832 0.498108
0.080078 0.277985 0.505585
0.081482 0.275818 0.515350
0.086517 0.274445 0.541962
0.111877 0.275940 0.611572
0.257263 0.285278 0.703796
0.532135 0.279449 0.776245
0.880066 0.256226 0.891724
0.084259 0.324127 0.507385
0.085175 0.325592 0.512268
0.086090 0.323792 0.517548
0.086975 0.319366 0.525116
0.089600 0.316833 0.542969
0.106781 0.321991 0.596893
0.227570 0.341309 0.692505
0.514069 0.355225 0.780029
0.889648 0.362976 0.898285
0.087860 0.383118 0.490997
0.089172 0.387756 0.495911
0.090454 0.387756 0.505005
0.092163 0.383301 0.520203
0.095917 0.379333 0.544556
0.112549 0.385956 0.595520
0.222412 0.416229 0.687836
0.502716 0.449402 0.784851
0.895752 0.476501 0.904297
0.090912 0.446075 0.464264
0.093018 0.455383 0.471283
0.094696 0.461578 0.480469
0.097137 0.464264 0.494110
0.101868 0.466980 0.517944
0.130585 0.480957 0.571289
0.266357 0.519257 0.674133
0.524628 0.561096 0.787415
0.898407 0.597229 0.908875
0.100708 0.502716 0.487152
0.103790 0.516052 0.498016
0.107147 0.528595 0.509186
0.112213 0.541107 0.521881
0.125275 0.557556 0.540924
0.159454 0.585754 0.578918
0.301483 0.633942 0.661560
0.566254 0.680817 0.779846
0.900787 0.720520 0.910706
0.113617 0.559784 0.529938
0.117065 0.574036 0.541718
0.121399 0.589569 0.554962
0.134216 0.609924 0.573303
0.167236 0.639954 0.601562
0.215881 0.679565 0.640106
0.344055 0.733704 0.700317
0.607452 0.788422 0.789490
0.916443 0.837891 0.914429
0.127197 0.617889 0.575470
0.129974 0.629883 0.585266
0.133606 0.644409 0.597107
0.143677 0.665649 0.614960
0.180695 0.702026 0.647461
0.239777 0.750793 0.691528
0.366333 0.810669 0.749786
0.644409 0.877594 0.831421
1.000000 1.000000 1.000000
