src/assets/luts/ON1 Nature & Wildlife LUTs/CinematicX LUTs - 30 Free Cinematic LUTs - The Resolve Store 2022/Loiza - Rec709.cube
# Copyright: (C) Copyright 2022 The Resolve Store 
# Cannot be resold, shared or otherwise redistributed
TITLE "CinematicX (Rec.709)"
LUT_3D_SIZE 5
0.000000 0.000000 0.000000
0.212646 0.062744 0.046814
0.428131 0.109070 0.089386
0.653381 0.138672 0.122742
0.884277 0.148987 0.139465
0.011810 0.148315 0.030731
0.194244 0.206909 0.030457
0.466919 0.254608 0.052399
0.709991 0.280701 0.071838
0.936310 0.301666 0.090576
0.029175 0.296906 0.085602
0.142548 0.345398 0.034698
0.454407 0.437042 0.060883
0.741699 0.494019 0.026398
0.988190 0.502441 0.021393
0.056824 0.451202 0.122070
0.127472 0.502899 0.038635
0.432404 0.573120 0.051666
0.735992 0.685883 0.114044
0.999603 0.748932 0.003265
0.077667 0.572021 0.099518
0.132996 0.618103 0.010254
0.422943 0.690979 0.021271
0.721466 0.749207 0.172607
0.966919 0.901123 0.181000
0.018127 0.055573 0.210754
0.173309 0.065643 0.288269
0.418060 0.090912 0.291229
0.628601 0.128754 0.269073
0.842224 0.152344 0.270477
0.028381 0.204559 0.213684
0.148590 0.229767 0.239105
0.438934 0.259338 0.263611
0.701843 0.292358 0.266571
0.911163 0.323364 0.291260
0.054291 0.349243 0.281433
0.097107 0.380157 0.266632
0.415802 0.449463 0.263519
0.740601 0.497314 0.261963
0.984131 0.508514 0.268280
0.077637 0.493439 0.298523
0.095490 0.529633 0.248993
0.351288 0.593475 0.249451
0.723053 0.695892 0.282593
0.999542 0.748932 0.253357
0.089172 0.595062 0.244171
0.112549 0.633667 0.183075
0.379028 0.707336 0.184570
0.705963 0.770203 0.256378
0.968262 0.909363 0.349182
0.034698 0.103027 0.316467
0.070526 0.124969 0.417389
0.327026 0.115692 0.496979
0.585449 0.134216 0.493622
0.767517 0.191498 0.445770
0.051666 0.245911 0.350067
0.068390 0.254883 0.374268
0.260345 0.272247 0.459961
0.617889 0.294891 0.481171
0.829315 0.348999 0.465759
0.068390 0.380981 0.361725
0.099915 0.406372 0.380066
0.360718 0.462799 0.448792
0.674286 0.494598 0.490814
0.939270 0.530762 0.504852
0.097534 0.520874 0.443390
0.104553 0.556641 0.442108
0.251129 0.611908 0.461426
0.673645 0.701202 0.493591
0.997131 0.749115 0.503540
0.112213 0.629395 0.437439
0.113281 0.653809 0.393860
0.257996 0.715393 0.382538
0.636749 0.793030 0.424561
0.963837 0.914551 0.530701
0.048309 0.142578 0.380707
0.069489 0.176025 0.485626
0.144501 0.177399 0.591980
0.505890 0.152832 0.671204
0.754669 0.169373 0.674652
0.070007 0.265381 0.451508
0.074158 0.273071 0.471069
0.102997 0.277435 0.539978
0.474884 0.291840 0.669250
0.785156 0.310028 0.681702
0.080536 0.393219 0.435181
0.086975 0.411041 0.446320
0.135681 0.422974 0.500610
0.455750 0.472992 0.652557
0.832642 0.514709 0.710754
0.103027 0.521393 0.487549
0.117401 0.555542 0.512665
0.193542 0.600403 0.553741
0.574860 0.696167 0.670166
0.937805 0.748718 0.743347
0.129059 0.640472 0.567322
0.133606 0.666260 0.576782
0.168427 0.713287 0.596649
0.516998 0.818054 0.671356
0.950043 0.916077 0.732513
0.059875 0.168457 0.434326
0.078613 0.206482 0.525604
0.091339 0.211517 0.588013
0.304504 0.205902 0.712891
0.858185 0.066772 0.875000
0.077148 0.275116 0.489105
0.080078 0.277985 0.505585
0.086517 0.274445 0.541962
0.257263 0.285278 0.703796
0.880066 0.256226 0.891724
0.087860 0.383118 0.490997
0.090454 0.387756 0.505005
0.095917 0.379333 0.544556
0.222412 0.416229 0.687836
0.895752 0.476501 0.904297
0.100708 0.502716 0.487152
0.107147 0.528595 0.509186
0.125275 0.557556 0.540924
0.301483 0.633942 0.661560
0.900787 0.720520 0.910706
0.127197 0.617889 0.575470
0.133606 0.644409 0.597107
0.180695 0.702026 0.647461
0.366333 0.810669 0.749786
1.000000 1.000000 1.000000
