src/assets/luts/ON1 Nature & Wildlife LUTs/CinematicX LUTs - 30 Free Cinematic LUTs - The Resolve Store 2022/Majada - Rec709.cube
# Copyright: (C) Copyright 2022 The Resolve Store 
# Cannot be resold, shared or otherwise redistributed
TITLE "CinematicX (Rec.709)"
LUT_3D_SIZE 5
0.002380 0.000793 0.000000
0.189575 0.062103 0.053375
0.420624 0.082031 0.062103
0.665741 0.100250 0.084045
0.915436 0.093628 0.060089
0.105164 0.127441 0.013611
0.234467 0.181091 0.040710
0.461945 0.225342 0.050568
0.680573 0.246460 0.068176
0.890076 0.264648 0.070221
0.284058 0.284454 0.036652
0.344910 0.332947 0.038055
0.472137 0.400726 0.044739
0.679565 0.449371 0.018158
0.887909 0.449554 0.010345
0.459747 0.449524 0.125061
0.483521 0.480103 0.110352
0.539490 0.535217 0.047455
0.653687 0.589905 0.000000
0.896423 0.673126 0.005493
0.568909 0.579834 0.246704
0.597260 0.597260 0.219086
0.633667 0.660065 0.118011
0.702972 0.753418 0.000610
0.863007 0.837830 0.000000
0.000000 0.018616 0.032806
0.126160 0.054749 0.098602
0.373322 0.065552 0.143982
0.627045 0.084534 0.186218
0.887421 0.102875 0.210480
0.010925 0.119293 0.099731
0.167053 0.169495 0.135376
0.478180 0.196869 0.181366
0.697113 0.208008 0.193665
0.925873 0.178711 0.138000
0.165131 0.260742 0.101898
0.286743 0.315186 0.107452
0.472443 0.406006 0.148468
0.690308 0.445251 0.180176
0.891571 0.435028 0.139832
0.390350 0.423096 0.164154
0.449799 0.452789 0.153046
0.528656 0.525909 0.113983
0.653809 0.593292 0.058502
0.900391 0.673218 0.147888
0.537903 0.578308 0.278381
0.579315 0.591766 0.260284
0.631378 0.645325 0.201416
0.703064 0.752869 0.021088
0.887878 0.867188 0.041168
0.000000 0.055603 0.101318
0.050171 0.073273 0.150421
0.264282 0.111115 0.191650
0.497559 0.097656 0.257721
0.773315 0.116486 0.336609
0.000000 0.140228 0.184601
0.042938 0.160248 0.217194
0.357697 0.210480 0.287811
0.591949 0.189667 0.315125
0.845123 0.213715 0.363190
0.021667 0.303741 0.293884
0.115112 0.343109 0.326141
0.446533 0.436493 0.401031
0.705261 0.431030 0.420380
0.890991 0.410278 0.372894
0.246277 0.451477 0.343353
0.336517 0.479614 0.346741
0.508545 0.538544 0.371155
0.675598 0.615692 0.363342
0.923370 0.675873 0.338074
0.450012 0.606506 0.393524
0.519501 0.621338 0.388214
0.614777 0.656036 0.378998
0.720978 0.758118 0.292603
0.913879 0.902435 0.103485
0.000000 0.089386 0.175842
0.016693 0.104492 0.206787
0.209625 0.153778 0.280182
0.399475 0.164642 0.283264
0.601624 0.160461 0.374542
0.000000 0.169617 0.252869
0.019165 0.186584 0.277039
0.233368 0.267944 0.379333
0.483185 0.255066 0.370789
0.682831 0.279846 0.451050
0.014801 0.364288 0.428406
0.076263 0.385986 0.455688
0.336639 0.470428 0.534302
0.611023 0.494904 0.543579
0.793396 0.464355 0.563293
0.191895 0.573059 0.567993
0.245148 0.586121 0.579498
0.450378 0.634125 0.618469
0.663055 0.654449 0.613922
0.928650 0.656036 0.619720
0.407196 0.712097 0.631775
0.473145 0.724701 0.632599
0.574707 0.747589 0.634399
0.702484 0.794006 0.614105
0.930084 0.926300 0.472656
0.000000 0.138733 0.268219
0.015411 0.160645 0.296600
0.144623 0.231079 0.381561
0.468658 0.322052 0.457672
0.552368 0.279327 0.410034
0.000000 0.221741 0.345032
0.020386 0.241882 0.369629
0.153442 0.312500 0.448853
0.502411 0.413940 0.531036
0.618591 0.393585 0.497345
0.037445 0.410156 0.529419
0.086548 0.425964 0.548187
0.256592 0.484436 0.603943
0.554657 0.562164 0.643066
0.697968 0.547821 0.613342
0.207764 0.650208 0.728638
0.275269 0.662201 0.744812
0.451416 0.707214 0.789337
0.642731 0.730255 0.779388
0.788422 0.710327 0.736023
0.402802 0.882141 0.884491
0.431793 0.900696 0.902100
0.508301 0.926514 0.924103
0.696564 0.925659 0.913849
0.865814 0.912231 0.862701
