src/assets/luts/ON1 Nature & Wildlife LUTs/CinematicX LUTs - 30 Free Cinematic LUTs - The Resolve Store 2022/Majada - Rec709.cube
# Copyright: (C) Copyright 2022 The Resolve Store 
# Cannot be resold, shared or otherwise redistributed
TITLE "CinematicX (Rec.709)"
LUT_3D_SIZE 33
0.002380 0.000793 0.000000
0.027008 0.009399 0.008606
0.049774 0.017944 0.017181
0.072723 0.026428 0.026154
0.095764 0.034058 0.034058
0.119080 0.042023 0.040344
0.141571 0.049744 0.045868
0.165375 0.056335 0.050049
0.189575 0.062103 0.053375
0.214600 0.067200 0.055603
0.241119 0.071075 0.057251
0.269012 0.074127 0.058258
0.297882 0.076660 0.059174
0.327911 0.078461 0.060028
0.358276 0.079926 0.060333
0.389526 0.080933 0.061157
0.420624 0.082031 0.062103
0.451874 0.082977 0.062988
0.483002 0.084045 0.064667
0.514099 0.085693 0.066498
0.544830 0.087616 0.068756
0.575531 0.090057 0.071777
0.605835 0.092957 0.075378
0.635925 0.096405 0.079468
0.665741 0.100250 0.084045
0.695343 0.104401 0.089081
0.724854 0.108704 0.093872
0.754425 0.112366 0.097656
0.784576 0.114563 0.099182
0.815704 0.113892 0.096161
0.848022 0.110016 0.088257
0.881622 0.102814 0.075531
0.915436 0.093628 0.060089
0.007172 0.013641 0.001129
0.029663 0.024048 0.008606
0.054565 0.032410 0.017548
0.078766 0.040131 0.026154
0.102814 0.048218 0.034119
0.126251 0.055847 0.040436
0.149323 0.063171 0.045166
0.172943 0.069580 0.049347
0.197327 0.075378 0.052124
0.222626 0.080139 0.054291
0.249329 0.084167 0.056000
0.276947 0.087158 0.057068
0.305786 0.089630 0.058075
0.335236 0.091705 0.058960
0.365326 0.093353 0.059753
0.395874 0.094818 0.060211
0.426605 0.096100 0.061401
0.457367 0.097351 0.062592
0.488068 0.098755 0.063934
0.518463 0.100464 0.066101
0.548889 0.102722 0.068420
0.579163 0.105255 0.071411
0.609161 0.108154 0.075043
0.638885 0.111664 0.079041
0.668182 0.115479 0.083496
0.697388 0.119629 0.088379
0.726501 0.123840 0.093018
0.755646 0.127625 0.096771
0.785156 0.130157 0.098206
0.815460 0.130341 0.095764
0.846893 0.127655 0.088501
0.879517 0.122162 0.076935
0.912292 0.114563 0.062683
0.013000 0.028046 0.002716
0.035126 0.037750 0.009430
0.058502 0.047974 0.016785
0.082458 0.056580 0.024292
0.106903 0.064392 0.032166
0.131653 0.071625 0.038757
0.156281 0.077698 0.044159
0.180603 0.083710 0.048248
0.205139 0.089294 0.051056
0.230377 0.093719 0.052887
0.257050 0.097717 0.054688
0.284760 0.100952 0.055847
0.313293 0.103546 0.056885
0.342621 0.105713 0.057831
0.372223 0.107635 0.058716
0.402252 0.109222 0.059509
0.432617 0.110901 0.060425
0.462799 0.112427 0.061859
0.493073 0.114227 0.063354
0.523102 0.116028 0.065399
0.552979 0.118286 0.067993
0.582764 0.121063 0.071014
0.612396 0.124115 0.074493
0.641693 0.127502 0.078430
0.670624 0.131317 0.082794
0.699341 0.135529 0.087402
0.728027 0.139679 0.091888
0.756744 0.143585 0.095642
0.785614 0.146362 0.097229
0.815125 0.147278 0.095215
0.845490 0.145844 0.089020
0.877106 0.141907 0.078644
0.908783 0.136230 0.065887
0.021210 0.042694 0.003662
0.043610 0.052368 0.009888
0.065491 0.062134 0.016602
0.087921 0.071503 0.023712
0.111816 0.079834 0.030121
0.136444 0.087494 0.036163
0.160919 0.093597 0.041168
0.186188 0.099030 0.045776
0.211700 0.103394 0.049164
0.237701 0.107788 0.051300
0.264465 0.111877 0.053131
0.292297 0.115234 0.054382
0.320740 0.118134 0.055481
0.349701 0.120392 0.056519
0.378967 0.122345 0.057465
0.408661 0.124359 0.058289
0.438385 0.126221 0.059296
0.468231 0.128174 0.060760
0.497986 0.130157 0.062561
0.527618 0.132263 0.064606
0.557037 0.134644 0.067230
0.586334 0.137451 0.070251
0.615417 0.140564 0.073639
0.644348 0.144043 0.077515
0.672913 0.147858 0.081696
0.701233 0.151978 0.086243
0.729431 0.156036 0.090454
0.757568 0.159943 0.094055
0.785919 0.162994 0.095764
0.814697 0.164551 0.094299
0.844116 0.164185 0.089355
0.874481 0.161865 0.080780
0.905060 0.157990 0.069672
0.032623 0.059265 0.004639
0.053741 0.067841 0.010559
0.074646 0.076782 0.016968
0.095978 0.085632 0.023346
0.118134 0.094391 0.029419
0.141602 0.102783 0.034729
0.165833 0.109253 0.038574
0.190887 0.114685 0.042664
0.216766 0.119263 0.046082
0.243927 0.123383 0.048950
0.271393 0.126892 0.051025
0.299286 0.130493 0.052673
0.327698 0.133453 0.053589
0.356628 0.136200 0.054962
0.385651 0.138550 0.056000
0.414948 0.140625 0.056915
0.444153 0.142700 0.057953
0.473541 0.144836 0.059479
0.502777 0.147064 0.061432
0.531952 0.149414 0.063660
0.561035 0.152069 0.066071
0.589813 0.154938 0.069153
0.618469 0.158081 0.072571
0.646881 0.161469 0.076355
0.675049 0.165314 0.080292
0.702942 0.169281 0.084442
0.730652 0.173309 0.088531
0.758331 0.177185 0.091919
0.786133 0.180420 0.093781
0.814209 0.182404 0.093018
0.842743 0.182953 0.089325
0.871918 0.182037 0.082520
0.901337 0.179810 0.073700
0.047516 0.075989 0.006439
0.066833 0.084137 0.011536
0.086426 0.092041 0.017853
0.105713 0.099579 0.023621
0.126007 0.107361 0.029297
0.147003 0.115479 0.034607
0.170532 0.124023 0.037415
0.195435 0.130554 0.040192
0.221405 0.135803 0.042908
0.248718 0.140350 0.045807
0.276886 0.143829 0.048431
0.305756 0.147125 0.050323
0.334167 0.150513 0.051605
0.362976 0.153442 0.052795
0.391754 0.156097 0.053894
0.420654 0.158508 0.055023
0.449615 0.160736 0.056427
0.478607 0.163116 0.058014
0.507385 0.165497 0.059998
0.536072 0.168030 0.062347
0.564636 0.170715 0.064697
0.593018 0.173645 0.067627
0.621246 0.176788 0.070953
0.649170 0.180206 0.074463
0.676910 0.183868 0.078094
0.704407 0.187714 0.081970
0.731720 0.191620 0.085815
0.758972 0.195343 0.089020
0.786133 0.198547 0.091034
0.813629 0.200897 0.091003
0.841339 0.202209 0.088440
0.869568 0.202332 0.083405
0.897736 0.201630 0.076813
0.065216 0.093201 0.008392
0.082001 0.099976 0.013184
0.099518 0.107056 0.018524
0.117218 0.113922 0.023621
0.135223 0.120911 0.028442
0.154358 0.127625 0.033813
0.175476 0.136292 0.037781
0.199585 0.145386 0.038971
0.225677 0.152679 0.040680
0.253082 0.158264 0.042908
0.281433 0.162781 0.045288
0.310577 0.166473 0.047363
0.339783 0.169403 0.049561
0.368530 0.172577 0.050781
0.397156 0.175476 0.051941
0.425842 0.178253 0.053131
0.454376 0.180695 0.054718
0.482880 0.183105 0.056244
0.511292 0.185577 0.058289
0.539642 0.188232 0.060364
0.567749 0.190948 0.062988
0.595734 0.193817 0.065674
0.623535 0.196930 0.068726
0.651154 0.200256 0.072021
0.678467 0.203674 0.075500
0.705597 0.207275 0.079041
0.732574 0.210938 0.082336
0.759430 0.214417 0.085266
0.786194 0.217560 0.087311
0.812958 0.220123 0.087616
0.839996 0.221802 0.086090
0.867371 0.222717 0.082672
0.894623 0.222900 0.077820
0.084656 0.110474 0.010712
0.099152 0.115967 0.015106
0.114380 0.122162 0.019562
0.129517 0.128357 0.023865
0.145813 0.134766 0.027985
0.163055 0.141083 0.032196
0.182343 0.148102 0.036926
0.204407 0.157776 0.039795
0.229889 0.168182 0.040009
0.257172 0.176422 0.041199
0.285583 0.182495 0.042358
0.314667 0.187286 0.044373
0.343872 0.190857 0.046478
0.373169 0.193878 0.048309
0.401978 0.196686 0.049744
0.430298 0.199585 0.051270
0.458466 0.202240 0.052490
0.486572 0.204742 0.054291
0.514679 0.207367 0.056091
0.542511 0.209839 0.058197
0.570343 0.212585 0.060760
0.597931 0.215332 0.063263
0.625397 0.218262 0.066101
0.652618 0.221344 0.069122
0.679688 0.224579 0.072113
0.706512 0.227814 0.075317
0.733185 0.231140 0.078247
0.759766 0.234344 0.080688
0.786163 0.237244 0.082306
0.812531 0.239716 0.082764
0.838928 0.241699 0.081818
0.865570 0.243042 0.079285
0.892090 0.243927 0.075836
0.105164 0.127441 0.013611
0.117340 0.132324 0.017456
0.130035 0.137573 0.021149
0.143219 0.142944 0.024750
0.157410 0.148987 0.027985
0.173279 0.155457 0.031158
0.190918 0.162415 0.034760
0.211243 0.170074 0.038910
0.234467 0.181091 0.040710
0.261017 0.192780 0.040558
0.289307 0.201843 0.041046
0.318268 0.208557 0.042023
0.347412 0.213562 0.043427
0.376343 0.217194 0.045197
0.405334 0.220062 0.047241
0.433929 0.222656 0.049133
0.461945 0.225342 0.050568
0.489594 0.227905 0.052032
0.517334 0.230469 0.053802
0.544891 0.232971 0.055878
0.572327 0.235443 0.058014
0.599640 0.238098 0.060455
0.626770 0.240753 0.062866
0.653809 0.243622 0.065704
0.680573 0.246460 0.068176
0.707184 0.249359 0.070709
0.733643 0.252197 0.073120
0.759918 0.255096 0.074921
0.786072 0.257629 0.076111
0.812103 0.259918 0.076233
0.838104 0.261841 0.075195
0.864166 0.263458 0.073151
0.890076 0.264648 0.070221
0.125702 0.144623 0.016479
0.135956 0.148987 0.019379
0.146851 0.153595 0.022308
0.158051 0.158417 0.025177
0.170685 0.164093 0.028076
0.184845 0.170685 0.030884
0.201263 0.177856 0.033112
0.220154 0.185608 0.036438
0.241547 0.194397 0.039917
0.265869 0.206573 0.041260
0.293091 0.219147 0.040802
0.321503 0.228882 0.040924
0.350433 0.236084 0.041260
0.379150 0.241211 0.042542
0.407654 0.244965 0.044037
0.436005 0.247803 0.046082
0.464233 0.250122 0.048065
0.492096 0.252380 0.049988
0.519440 0.254791 0.051453
0.546570 0.257202 0.053223
0.573700 0.259521 0.055206
0.600739 0.261902 0.057251
0.627655 0.264313 0.059357
0.654480 0.266846 0.061615
0.681091 0.269318 0.063721
0.707611 0.271790 0.065552
0.733856 0.274261 0.067108
0.759979 0.276611 0.068085
0.785950 0.278778 0.068512
0.811737 0.280762 0.067871
0.837402 0.282532 0.066376
0.863129 0.284058 0.064026
0.888702 0.285309 0.061127
0.146271 0.162231 0.019226
0.154968 0.166107 0.021179
0.164154 0.170288 0.023712
0.174194 0.174988 0.025635
0.185394 0.180511 0.028076
0.198395 0.187012 0.030121
0.213593 0.194672 0.032135
0.231293 0.203003 0.034607
0.251312 0.211670 0.037567
0.273529 0.221283 0.040741
0.298035 0.234100 0.041779
0.325195 0.247253 0.041107
0.353363 0.257324 0.040955
0.381622 0.264679 0.040924
0.409729 0.269867 0.041840
0.437622 0.273621 0.043030
0.465179 0.276306 0.044891
0.492798 0.278625 0.046783
0.520416 0.280548 0.048859
0.547821 0.282532 0.050598
0.574646 0.284607 0.051971
0.601410 0.286743 0.053589
0.628174 0.288910 0.055298
0.654755 0.290924 0.056854
0.681244 0.292999 0.058136
0.707611 0.295074 0.059204
0.733826 0.297119 0.059967
0.759857 0.299011 0.060059
0.785706 0.300781 0.059540
0.811371 0.302399 0.058044
0.836884 0.303833 0.055878
0.862366 0.305145 0.053009
0.887695 0.306274 0.049805
0.167023 0.180573 0.021149
0.174469 0.184052 0.022888
0.182739 0.188080 0.024658
0.191681 0.192627 0.026276
0.201874 0.198090 0.028198
0.213959 0.204742 0.029785
0.228149 0.212738 0.031708
0.244354 0.221375 0.033630
0.262909 0.230499 0.035828
0.283508 0.239685 0.038727
0.305878 0.249756 0.041504
0.330231 0.262939 0.042542
0.356628 0.275940 0.041687
0.384064 0.286133 0.041016
0.411560 0.293457 0.040710
0.439056 0.298767 0.041290
0.466339 0.302551 0.042114
0.493469 0.305206 0.043610
0.520538 0.307434 0.045227
0.547577 0.309235 0.046906
0.574707 0.310791 0.048370
0.601746 0.312408 0.049744
0.628479 0.314087 0.050903
0.654938 0.315826 0.051636
0.681274 0.317505 0.052002
0.707520 0.319153 0.052185
0.733612 0.320740 0.052032
0.759613 0.322266 0.051208
0.785370 0.323639 0.049774
0.811005 0.324860 0.047638
0.836456 0.325958 0.044769
0.861877 0.326965 0.041504
0.886993 0.327911 0.037994
0.188354 0.199768 0.023071
0.195099 0.203064 0.024506
0.202454 0.206848 0.025787
0.210754 0.211304 0.027039
0.220184 0.216797 0.028198
0.231262 0.223602 0.029755
0.244415 0.231720 0.031006
0.259399 0.240723 0.032684
0.276520 0.250275 0.034607
0.295532 0.259827 0.036804
0.316101 0.268890 0.039825
0.337921 0.279022 0.042664
0.361481 0.292023 0.043457
0.387085 0.304749 0.042572
0.413513 0.314728 0.041443
0.440369 0.322144 0.040894
0.467346 0.327545 0.040588
0.494202 0.331299 0.041016
0.520935 0.334045 0.041779
0.547516 0.336029 0.042847
0.574219 0.337769 0.043823
0.600983 0.339172 0.044617
0.627869 0.340393 0.045441
0.654572 0.341583 0.045898
0.681152 0.342712 0.045746
0.707367 0.343964 0.045013
0.733429 0.345154 0.043793
0.759338 0.346313 0.042236
0.785126 0.347321 0.040161
0.810730 0.348206 0.037598
0.836151 0.348969 0.034698
0.861542 0.349701 0.031189
0.886658 0.350342 0.027618
0.210785 0.219818 0.024994
0.216888 0.222931 0.025940
0.223785 0.226807 0.027039
0.231384 0.231171 0.027985
0.240143 0.236725 0.028961
0.250397 0.243469 0.030029
0.262573 0.251648 0.031250
0.276367 0.260834 0.032623
0.291931 0.270599 0.034302
0.309174 0.280426 0.036224
0.327972 0.289764 0.038422
0.347961 0.298370 0.041656
0.368958 0.308105 0.044220
0.391357 0.320557 0.044464
0.416046 0.333008 0.043121
0.441711 0.342926 0.041687
0.468109 0.350433 0.040527
0.494659 0.355927 0.039673
0.521332 0.359802 0.039215
0.547760 0.362488 0.039154
0.574158 0.364502 0.039246
0.600525 0.365997 0.039337
0.627014 0.367279 0.039154
0.653656 0.368256 0.039062
0.680298 0.369049 0.038452
0.706879 0.369690 0.037659
0.733307 0.370331 0.036377
0.759247 0.371094 0.034241
0.785004 0.371796 0.031830
0.810577 0.372375 0.029083
0.835999 0.372894 0.026123
0.861389 0.373291 0.022858
0.886475 0.373779 0.019440
0.234344 0.240845 0.027802
0.240021 0.243866 0.028564
0.246429 0.247559 0.028870
0.253510 0.251984 0.029785
0.261627 0.257446 0.030762
0.271057 0.264313 0.030914
0.282074 0.272400 0.031891
0.294678 0.281525 0.033203
0.308777 0.291260 0.034546
0.324310 0.301178 0.036224
0.341370 0.310699 0.038147
0.359558 0.319427 0.040375
0.378601 0.327332 0.043427
0.398468 0.336517 0.045715
0.419830 0.348328 0.045624
0.443573 0.360535 0.043823
0.468781 0.370422 0.041382
0.494843 0.378052 0.039185
0.521271 0.383698 0.037689
0.547852 0.387848 0.036316
0.574280 0.390594 0.035095
0.600555 0.392578 0.033997
0.626801 0.394043 0.033173
0.653107 0.395081 0.032043
0.679474 0.395844 0.031189
0.705963 0.396423 0.029816
0.732391 0.396759 0.028473
0.758881 0.396942 0.026886
0.785095 0.397034 0.025269
0.810638 0.397430 0.022644
0.836090 0.397675 0.019684
0.861481 0.397919 0.016754
0.886658 0.398163 0.014008
0.258759 0.262329 0.031647
0.264252 0.265442 0.031860
0.270081 0.269073 0.032440
0.276550 0.273468 0.032440
0.283936 0.278778 0.032898
0.292633 0.285522 0.033081
0.302490 0.293427 0.033813
0.313812 0.302460 0.034760
0.326599 0.312164 0.035736
0.340668 0.322052 0.036682
0.355865 0.331512 0.038361
0.372253 0.340271 0.040375
0.389587 0.348022 0.042908
0.407471 0.354980 0.045380
0.426147 0.363586 0.046936
0.446594 0.375000 0.045898
0.469940 0.387085 0.043091
0.494843 0.397095 0.039948
0.520813 0.404968 0.036987
0.547302 0.410980 0.033875
0.573975 0.415344 0.031372
0.600555 0.418335 0.029205
0.626892 0.420349 0.027496
0.653076 0.421722 0.025757
0.679291 0.422668 0.024414
0.705566 0.423309 0.022858
0.731873 0.423645 0.021515
0.758209 0.423859 0.019958
0.784454 0.423828 0.018707
0.810577 0.423615 0.017303
0.836456 0.423431 0.015533
0.862000 0.423401 0.013458
0.887177 0.423401 0.011169
0.284058 0.284454 0.036652
0.288971 0.287506 0.036652
0.294250 0.291046 0.036652
0.300079 0.295258 0.036652
0.306854 0.300507 0.036652
0.314636 0.306976 0.036652
0.323486 0.314789 0.037048
0.333557 0.323517 0.037079
0.344910 0.332947 0.038055
0.357635 0.342743 0.038605
0.371277 0.352051 0.039703
0.385925 0.360779 0.041290
0.401428 0.368439 0.043152
0.417725 0.375092 0.045227
0.434448 0.381226 0.046387
0.452179 0.389435 0.046661
0.472137 0.400726 0.044739
0.495209 0.412781 0.040833
0.520020 0.423035 0.036407
0.546143 0.431274 0.032196
0.572876 0.437714 0.028290
0.599792 0.442413 0.024872
0.626617 0.445679 0.022308
0.653198 0.447906 0.019928
0.679565 0.449371 0.018158
0.705719 0.450195 0.016724
0.731934 0.450714 0.015564
0.758118 0.450958 0.014465
0.784302 0.450958 0.013397
0.810364 0.450745 0.012848
0.836395 0.450409 0.012024
0.862427 0.449951 0.011383
0.887909 0.449554 0.010345
0.309387 0.306702 0.043762
0.313812 0.309723 0.043030
0.318420 0.313110 0.042694
0.323578 0.317139 0.042480
0.329559 0.322235 0.041962
0.336639 0.328552 0.041901
0.344574 0.335999 0.041412
0.353516 0.344421 0.041412
0.363617 0.353577 0.041443
0.374939 0.363037 0.041656
0.387085 0.372223 0.042419
0.400269 0.380829 0.043152
0.414154 0.388458 0.044037
0.428894 0.395172 0.045227
0.444122 0.400757 0.046173
0.459747 0.406128 0.046051
0.476807 0.414215 0.044312
0.496552 0.425476 0.040833
0.519562 0.437714 0.035828
0.544708 0.448364 0.030548
0.571106 0.457153 0.025543
0.598206 0.464050 0.021271
0.625519 0.469208 0.017822
0.652649 0.472778 0.014984
0.679657 0.475311 0.013275
0.706238 0.476929 0.011993
0.732483 0.477783 0.011108
0.758636 0.478210 0.010468
0.784760 0.478302 0.009918
0.810791 0.478180 0.009735
0.836761 0.477814 0.009796
0.862762 0.477325 0.009705
0.888519 0.476746 0.009521
0.334412 0.329071 0.051910
0.338135 0.331787 0.051727
0.342255 0.335114 0.050964
0.346863 0.339081 0.050140
0.352112 0.343872 0.049347
0.358185 0.349823 0.048553
0.365295 0.356964 0.047699
0.373322 0.365021 0.046906
0.382233 0.373657 0.046631
0.392242 0.382874 0.045929
0.403137 0.391846 0.045990
0.414978 0.400299 0.045990
0.427521 0.408020 0.046051
0.440643 0.414673 0.046082
0.454529 0.420319 0.046143
0.468842 0.424927 0.045105
0.483734 0.429932 0.042969
0.500336 0.438049 0.039642
0.520020 0.449432 0.034485
0.543396 0.462067 0.028290
0.568878 0.473267 0.022797
0.595734 0.482666 0.017944
0.623291 0.490112 0.014008
0.651093 0.495758 0.011353
0.678802 0.499847 0.009766
0.706116 0.502655 0.008575
0.733093 0.504486 0.008148
0.759521 0.505463 0.007996
0.785675 0.505768 0.007874
0.811768 0.505798 0.007935
0.837738 0.505524 0.008331
0.863708 0.505096 0.008759
0.889435 0.504456 0.008789
0.358429 0.350891 0.062531
0.361664 0.353638 0.061768
0.365265 0.356873 0.060944
0.369324 0.360626 0.059845
0.373901 0.365173 0.058350
0.379211 0.370850 0.057404
0.385468 0.377472 0.055969
0.392578 0.385071 0.054779
0.400513 0.393372 0.053589
0.409363 0.402069 0.052704
0.419037 0.410706 0.051727
0.429688 0.419067 0.050690
0.440948 0.426758 0.049774
0.452850 0.433533 0.048248
0.465363 0.439270 0.046936
0.478455 0.443970 0.044006
0.491974 0.447815 0.040985
0.506317 0.452637 0.036621
0.522797 0.460907 0.031006
0.542786 0.472748 0.025177
0.566650 0.485931 0.019714
0.592712 0.497803 0.014832
0.620117 0.507812 0.011230
0.648315 0.515961 0.008667
0.676758 0.522186 0.007538
0.704956 0.526764 0.006714
0.732788 0.529999 0.006256
0.760132 0.532074 0.006439
0.786865 0.533203 0.006775
0.813080 0.533478 0.006836
0.839142 0.533447 0.007233
0.865173 0.533112 0.007935
0.890961 0.532623 0.008423
0.381348 0.372437 0.074280
0.384125 0.375031 0.073578
0.387207 0.377930 0.072327
0.390717 0.381531 0.070862
0.394745 0.385864 0.069550
0.399445 0.391113 0.067993
0.404907 0.397369 0.066345
0.411255 0.404541 0.064667
0.418396 0.412354 0.062775
0.426208 0.420593 0.060944
0.434875 0.428955 0.059052
0.444305 0.437134 0.056885
0.454437 0.444733 0.054504
0.465210 0.451599 0.052155
0.476562 0.457550 0.048798
0.488373 0.462433 0.044495
0.500885 0.466522 0.039520
0.513947 0.469910 0.034119
0.528015 0.474670 0.027893
0.544586 0.483368 0.020966
0.565033 0.495728 0.016052
0.589539 0.509583 0.011719
0.616302 0.522125 0.008728
0.644440 0.532898 0.006897
0.673401 0.541809 0.006042
0.702423 0.548676 0.005341
0.731171 0.553680 0.005310
0.759521 0.557281 0.005524
0.787323 0.559692 0.005859
0.814453 0.561066 0.006256
0.840851 0.561432 0.006622
0.867004 0.561371 0.007294
0.892822 0.561066 0.007751
0.403046 0.393250 0.086700
0.405457 0.395660 0.085785
0.408020 0.398468 0.084686
0.411072 0.401764 0.083282
0.414612 0.405792 0.081696
0.418823 0.410736 0.079987
0.423676 0.416565 0.078003
0.429199 0.423187 0.075684
0.435547 0.430573 0.073486
0.442627 0.438385 0.071075
0.450409 0.446442 0.068298
0.458801 0.454407 0.064972
0.467865 0.461945 0.061279
0.477631 0.468872 0.057281
0.487946 0.475067 0.052368
0.498871 0.480286 0.046021
0.510223 0.484711 0.039093
0.522217 0.488251 0.032166
0.534973 0.491333 0.024933
0.548981 0.496429 0.018036
0.565918 0.505737 0.012115
0.587036 0.518738 0.008423
0.612335 0.533234 0.006195
0.639862 0.546539 0.005157
0.668884 0.558105 0.004669
0.698456 0.567657 0.004517
0.728149 0.575134 0.004761
0.757507 0.580658 0.004974
0.786377 0.584686 0.005219
0.814636 0.587463 0.005798
0.842133 0.589081 0.006104
0.868866 0.589691 0.006683
0.894897 0.589752 0.007141
0.423370 0.413116 0.099487
0.425476 0.415405 0.098511
0.427795 0.417999 0.097382
0.430420 0.421112 0.095978
0.433533 0.424896 0.094482
0.437225 0.429504 0.092560
0.441620 0.434906 0.090485
0.446594 0.441193 0.088226
0.452209 0.447998 0.085205
0.458527 0.455414 0.082520
0.465485 0.463135 0.079102
0.473145 0.470825 0.074890
0.481262 0.478333 0.070068
0.490051 0.485382 0.064514
0.499451 0.491852 0.057434
0.509369 0.497406 0.049591
0.519836 0.502197 0.040497
0.530884 0.506195 0.031250
0.542664 0.509521 0.022766
0.555298 0.512634 0.015442
0.569611 0.518280 0.009827
0.587158 0.528229 0.005737
0.609009 0.541870 0.003387
0.635193 0.557129 0.003418
0.663666 0.571228 0.003235
0.693420 0.583496 0.003693
0.723694 0.593658 0.004089
0.754028 0.601715 0.004395
0.783936 0.607788 0.004913
0.813324 0.612335 0.005310
0.841980 0.615448 0.005676
0.869904 0.617462 0.006226
0.896790 0.618439 0.006592
0.442230 0.431915 0.112518
0.444183 0.434082 0.111298
0.446228 0.436554 0.110291
0.448639 0.439453 0.108948
0.451416 0.442993 0.107300
0.454681 0.447205 0.105469
0.458649 0.452362 0.103394
0.463135 0.458130 0.100739
0.468292 0.464630 0.097748
0.473907 0.471558 0.094635
0.480133 0.478943 0.090546
0.487091 0.486511 0.085846
0.494446 0.493896 0.080170
0.502441 0.501099 0.073273
0.510834 0.507843 0.064209
0.519958 0.513763 0.054352
0.529633 0.519043 0.043182
0.539917 0.523621 0.032471
0.550842 0.527496 0.022614
0.562592 0.530731 0.014221
0.575287 0.534119 0.008728
0.590118 0.540405 0.004333
0.608459 0.551086 0.001740
0.631134 0.565521 0.000671
0.658356 0.581512 0.001953
0.687622 0.596283 0.002686
0.718079 0.609131 0.003326
0.749054 0.619965 0.004028
0.779968 0.628601 0.004303
0.810455 0.635254 0.004852
0.840271 0.640289 0.005219
0.869385 0.643921 0.005585
0.897491 0.646393 0.006134
0.459747 0.449524 0.125061
0.461548 0.451569 0.124207
0.463379 0.453796 0.122955
0.465546 0.456573 0.121735
0.468170 0.459839 0.120178
0.471161 0.463806 0.118439
0.474792 0.468628 0.116211
0.478851 0.474030 0.113464
0.483521 0.480103 0.110352
0.488586 0.486725 0.106781
0.494263 0.493835 0.102386
0.500519 0.501190 0.097198
0.507263 0.508575 0.090790
0.514557 0.515900 0.082733
0.522247 0.522888 0.072693
0.530548 0.529419 0.060547
0.539490 0.535217 0.047455
0.549042 0.540466 0.034790
0.559296 0.545044 0.023621
0.570343 0.548981 0.014191
0.582245 0.552429 0.007996
0.595245 0.556091 0.003906
0.610718 0.563293 0.001617
0.629913 0.574707 0.000702
0.653687 0.589905 0.000000
0.681732 0.606537 0.001312
0.711792 0.621887 0.002319
0.742950 0.635345 0.003174
0.774536 0.646851 0.003937
0.805969 0.656128 0.004303
0.836884 0.663300 0.004822
0.867126 0.668884 0.005157
0.896423 0.673126 0.005493
0.476013 0.466034 0.138000
0.477692 0.467926 0.137115
0.479523 0.470154 0.135925
0.481598 0.472717 0.134552
0.484009 0.475830 0.132935
0.486847 0.479553 0.131042
0.490143 0.483978 0.128784
0.493958 0.489105 0.125946
0.498199 0.494843 0.122803
0.502930 0.501221 0.119110
0.508057 0.507996 0.114471
0.513702 0.515167 0.108643
0.519897 0.522583 0.101746
0.526520 0.529999 0.092743
0.533661 0.537262 0.081604
0.541290 0.544250 0.068085
0.549561 0.550873 0.053131
0.558502 0.556824 0.038635
0.568115 0.562164 0.025391
0.578552 0.566956 0.015411
0.589844 0.571228 0.008057
0.602051 0.574921 0.003662
0.615509 0.579132 0.001068
0.631775 0.587189 0.000397
0.652039 0.599457 0.000000
0.676758 0.615295 0.000000
0.705536 0.632477 0.000580
0.736298 0.648376 0.001862
0.768066 0.662476 0.002899
0.800171 0.674561 0.003540
0.831970 0.684387 0.004272
0.863281 0.692200 0.004578
0.893707 0.698425 0.005127
0.491211 0.481781 0.151398
0.492889 0.483612 0.150208
0.494720 0.485687 0.148987
0.496765 0.488098 0.147522
0.499054 0.491058 0.145935
0.501831 0.494537 0.143829
0.504974 0.498718 0.141449
0.508484 0.503540 0.138519
0.512451 0.509033 0.135223
0.516846 0.515076 0.131226
0.521637 0.521667 0.126312
0.526855 0.528748 0.120239
0.532501 0.536102 0.112579
0.538666 0.543671 0.103119
0.545227 0.551239 0.091095
0.552307 0.558746 0.076355
0.559998 0.565979 0.060028
0.568298 0.572784 0.043854
0.577362 0.579010 0.028870
0.587219 0.584747 0.017334
0.597992 0.589935 0.009277
0.609711 0.594604 0.004181
0.622345 0.598724 0.001617
0.636383 0.603546 0.000519
0.653656 0.612640 0.000000
