src/assets/luts/ON1 Nature & Wildlife LUTs/CinematicX LUTs - 30 Free Cinematic LUTs - The Resolve Store 2022/Majada - Rec709.cube
# Copyright: (C) Copyright 2022 The Resolve Store 
# Cannot be resold, shared or otherwise redistributed
TITLE "CinematicX (Rec.709)"
LUT_3D_SIZE 9
0.002380 0.000793 0.000000
0.095764 0.034058 0.034058
0.189575 0.062103 0.053375
0.297882 0.076660 0.059174
0.420624 0.082031 0.062103
0.544830 0.087616 0.068756
0.665741 0.100250 0.084045
0.784576 0.114563 0.099182
0.915436 0.093628 0.060089
0.032623 0.059265 0.004639
0.118134 0.094391 0.029419
0.216766 0.119263 0.046082
0.327698 0.133453 0.053589
0.444153 0.142700 0.057953
0.561035 0.152069 0.066071
0.675049 0.165314 0.080292
0.786133 0.180420 0.093781
0.901337 0.179810 0.073700
0.105164 0.127441 0.013611
0.157410 0.148987 0.027985
0.234467 0.181091 0.040710
0.347412 0.213562 0.043427
0.461945 0.225342 0.050568
0.572327 0.235443 0.058014
0.680573 0.246460 0.068176
0.786072 0.257629 0.076111
0.890076 0.264648 0.070221
0.188354 0.199768 0.023071
0.220184 0.216797 0.028198
0.276520 0.250275 0.034607
0.361481 0.292023 0.043457
0.467346 0.327545 0.040588
0.574219 0.337769 0.043823
0.681152 0.342712 0.045746
0.785126 0.347321 0.040161
0.886658 0.350342 0.027618
0.284058 0.284454 0.036652
0.306854 0.300507 0.036652
0.344910 0.332947 0.038055
0.401428 0.368439 0.043152
0.472137 0.400726 0.044739
0.572876 0.437714 0.028290
0.679565 0.449371 0.018158
0.784302 0.450958 0.013397
0.887909 0.449554 0.010345
0.381348 0.372437 0.074280
0.394745 0.385864 0.069550
0.418396 0.412354 0.062775
0.454437 0.444733 0.054504
0.500885 0.466522 0.039520
0.565033 0.495728 0.016052
0.673401 0.541809 0.006042
0.787323 0.559692 0.005859
0.892822 0.561066 0.007751
0.459747 0.449524 0.125061
0.468170 0.459839 0.120178
0.483521 0.480103 0.110352
0.507263 0.508575 0.090790
0.539490 0.535217 0.047455
0.582245 0.552429 0.007996
0.653687 0.589905 0.000000
0.774536 0.646851 0.003937
0.896423 0.673126 0.005493
0.518951 0.512482 0.179871
0.527649 0.520752 0.172943
0.540436 0.536804 0.160645
0.558228 0.562866 0.135620
0.582214 0.595795 0.076172
0.616180 0.627808 0.012817
0.665283 0.651886 0.000000
0.750031 0.700928 0.000000
0.877350 0.764313 0.001190
0.568909 0.579834 0.246704
0.582123 0.585144 0.235565
0.597260 0.597260 0.219086
0.613953 0.621582 0.188568
0.633667 0.660065 0.118011
0.660980 0.707489 0.026306
0.702972 0.753418 0.000610
0.764587 0.787750 0.000000
0.863007 0.837830 0.000000
0.000000 0.005402 0.009491
0.064789 0.030151 0.042725
0.168243 0.054962 0.076416
0.283356 0.065033 0.092651
0.405914 0.069244 0.104553
0.529846 0.077698 0.118408
0.654938 0.092896 0.136230
0.781647 0.104980 0.148346
0.922516 0.062714 0.096619
0.006866 0.058411 0.038971
0.082397 0.086243 0.058777
0.214569 0.107666 0.090332
0.336060 0.114014 0.095276
0.452576 0.115906 0.099915
0.567352 0.124695 0.110413
0.681061 0.142365 0.127869
0.795013 0.159454 0.139893
0.921356 0.135345 0.088074
0.048950 0.115662 0.040314
0.112640 0.141357 0.052277
0.223480 0.178864 0.075989
0.358032 0.208038 0.099487
0.475098 0.213837 0.104523
0.585388 0.220032 0.111969
0.692566 0.230804 0.124146
0.797455 0.241699 0.130585
0.905640 0.236237 0.099731
0.136444 0.187531 0.033905
0.180481 0.207245 0.039520
0.257355 0.244476 0.050049
0.359619 0.291626 0.073364
0.473694 0.326996 0.099365
0.582886 0.332916 0.107635
0.688690 0.336243 0.110382
0.791077 0.339417 0.104156
0.890930 0.339691 0.084106
0.240997 0.271149 0.050293
0.273102 0.287201 0.048737
0.325928 0.321320 0.047913
0.392700 0.364441 0.053192
0.471130 0.401611 0.070007
0.576355 0.438293 0.088531
0.683472 0.447205 0.088013
0.787567 0.446533 0.080688
0.888916 0.443787 0.071838
0.348511 0.357819 0.091187
0.370087 0.370972 0.085327
0.403534 0.398529 0.075256
0.445557 0.437195 0.064331
0.496155 0.466003 0.048859
0.564301 0.496796 0.039520
0.675629 0.542358 0.061646
0.789276 0.558289 0.072540
0.893280 0.558014 0.075867
0.439941 0.436462 0.137207
0.453003 0.446838 0.132263
0.473450 0.467834 0.122559
0.500549 0.499939 0.104187
0.534912 0.532135 0.064697
0.579498 0.553009 0.016357
0.653137 0.590698 0.018829
0.776031 0.647491 0.056976
0.897339 0.672699 0.075745
0.506348 0.505768 0.191528
0.517914 0.513397 0.185333
0.533875 0.528778 0.174835
0.554291 0.555267 0.154114
0.579712 0.590729 0.104889
0.614319 0.626404 0.031158
0.663971 0.652893 0.002014
0.750275 0.702332 0.019257
0.879730 0.766571 0.053955
0.558411 0.579468 0.259979
0.573944 0.584229 0.250397
0.592224 0.594635 0.236603
0.612061 0.616730 0.212128
0.633728 0.654510 0.156189
0.661652 0.704529 0.056946
0.703369 0.753967 0.004547
0.766724 0.791992 0.000153
0.875549 0.851868 0.019440
0.000000 0.018616 0.032806
0.032013 0.030609 0.064819
0.126160 0.054749 0.098602
0.248901 0.065521 0.123810
0.373322 0.065552 0.143982
0.499634 0.069550 0.163452
0.627045 0.084534 0.186218
0.754395 0.106720 0.211487
0.887421 0.102875 0.210480
0.000763 0.065674 0.075806
0.037384 0.080048 0.094788
0.150940 0.102875 0.123199
0.299255 0.109436 0.149689
0.423065 0.107361 0.159973
0.539764 0.114746 0.173859
0.656525 0.133759 0.194183
0.776184 0.152283 0.210907
0.915100 0.115479 0.171234
0.010925 0.119293 0.099731
0.051239 0.136475 0.110809
0.167053 0.169495 0.135376
0.351868 0.194458 0.179291
0.478180 0.196869 0.181366
0.589172 0.198486 0.184479
0.697113 0.208008 0.193665
0.805481 0.214386 0.194305
0.925873 0.178711 0.138000
0.065338 0.179504 0.094513
0.105743 0.198700 0.099701
0.206909 0.241547 0.119690
0.351288 0.293579 0.157562
0.483124 0.325806 0.195709
0.593719 0.326172 0.197296
0.697723 0.326569 0.193512
0.799774 0.325745 0.182037
0.901031 0.315979 0.146240
0.165131 0.260742 0.101898
0.206604 0.278229 0.102234
0.286743 0.315186 0.107452
0.379944 0.363892 0.120911
0.472443 0.406006 0.148468
0.583282 0.441986 0.184174
0.690308 0.445251 0.180176
0.793701 0.440277 0.161774
0.891571 0.435028 0.139832
0.280945 0.344299 0.129120
0.315216 0.357880 0.125885
0.373444 0.386658 0.121399
0.432343 0.428253 0.116943
0.491547 0.466156 0.109528
0.565430 0.500610 0.109863
0.681519 0.545990 0.145477
0.794037 0.557159 0.151062
0.895111 0.554016 0.145416
0.390350 0.423096 0.164154
0.412598 0.432251 0.159668
0.449799 0.452789 0.153046
0.488678 0.486481 0.141296
0.528656 0.525909 0.113983
0.576782 0.554138 0.063904
0.653809 0.593292 0.058502
0.780670 0.650360 0.118317
0.900391 0.673218 0.147888
0.474640 0.497955 0.212189
0.491241 0.504211 0.207001
0.516388 0.517944 0.199097
0.544952 0.543365 0.184448
0.574921 0.581146 0.149200
0.611481 0.622833 0.076019
0.662415 0.654388 0.017761
0.751190 0.704956 0.040710
0.884277 0.770660 0.109497
0.537903 0.578308 0.278381
0.556274 0.582886 0.270905
0.579315 0.591766 0.260284
0.605164 0.610260 0.241821
0.631378 0.645325 0.201416
0.661133 0.697571 0.109131
0.703064 0.752869 0.021088
0.768463 0.796814 0.001617
0.887878 0.867188 0.041168
0.000000 0.036591 0.066559
0.011566 0.043304 0.091034
0.081696 0.061646 0.126434
0.197662 0.083344 0.149445
0.317627 0.082642 0.173126
0.442841 0.076050 0.200989
0.574158 0.080231 0.229889
0.707916 0.099152 0.261536
0.838257 0.123840 0.292450
0.000000 0.075623 0.103424
0.012329 0.081757 0.119385
0.084381 0.099426 0.150970
0.227844 0.115570 0.177124
0.361938 0.110748 0.196167
0.482422 0.107452 0.216370
0.606323 0.118042 0.240601
0.734161 0.139191 0.267059
0.869354 0.145782 0.280579
0.000824 0.131317 0.151001
0.018097 0.139099 0.162720
0.090088 0.161591 0.188721
0.266266 0.192200 0.224823
0.430603 0.196320 0.251770
0.547943 0.191803 0.259644
0.660065 0.197906 0.271454
0.775238 0.206451 0.281097
0.903809 0.180267 0.259979
0.011810 0.195770 0.179443
0.036011 0.207886 0.187744
0.119659 0.243347 0.215729
0.297821 0.294861 0.258270
0.485016 0.316895 0.304169
0.597412 0.313324 0.299316
0.698364 0.310242 0.291779
0.800385 0.306885 0.281464
0.902832 0.291992 0.251831
0.068634 0.261444 0.191193
0.103729 0.276978 0.195526
0.197540 0.317169 0.215637
0.340576 0.372925 0.249695
0.474915 0.416656 0.283173
0.595245 0.444519 0.314270
0.700317 0.440063 0.303284
0.799988 0.432068 0.277039
0.894714 0.423706 0.242188
0.185577 0.345123 0.211517
0.225952 0.359863 0.212341
0.310059 0.391815 0.220703
0.404205 0.432159 0.234589
0.489471 0.473846 0.245880
0.573639 0.510590 0.254761
0.691406 0.552948 0.281952
0.801392 0.556641 0.263885
0.901428 0.548676 0.232941
0.315948 0.427185 0.235168
0.345306 0.435944 0.232300
0.405640 0.456757 0.232635
0.468414 0.485413 0.234833
0.524567 0.523956 0.232117
0.581757 0.560150 0.207245
0.661591 0.601440 0.184052
0.791962 0.658051 0.218842
0.910309 0.675964 0.230011
0.420593 0.503235 0.267517
0.442322 0.508148 0.262726
0.482635 0.520782 0.258789
0.528107 0.541595 0.253845
0.570374 0.575043 0.240265
0.613861 0.620087 0.196777
0.668549 0.660339 0.119324
0.759857 0.713470 0.095123
0.897064 0.780060 0.173767
0.499115 0.582825 0.317352
0.523254 0.587616 0.311401
0.554504 0.596130 0.304138
0.590179 0.611176 0.292938
0.626038 0.639771 0.269073
0.662354 0.689423 0.207367
0.707367 0.752289 0.102234
0.775452 0.806793 0.028809
0.898346 0.882172 0.075867
0.000000 0.055603 0.101318
0.006348 0.060760 0.119232
0.050171 0.073273 0.150421
0.155396 0.096710 0.178925
0.264282 0.111115 0.191650
0.373810 0.106110 0.219238
0.497559 0.097656 0.257721
0.633850 0.100433 0.297058
0.773315 0.116486 0.336609
0.000000 0.087311 0.132050
0.006683 0.091003 0.144257
0.044037 0.103027 0.172058
0.162720 0.126801 0.208679
0.295593 0.134918 0.220612
0.405548 0.126343 0.238647
0.525513 0.123444 0.271118
0.659210 0.134583 0.307739
0.801971 0.159943 0.348969
0.000000 0.140228 0.184601
0.010590 0.145416 0.194305
0.042938 0.160248 0.217194
0.176971 0.194977 0.263092
0.357697 0.210480 0.287811
0.480896 0.196533 0.297699
0.591949 0.189667 0.315125
0.712921 0.196930 0.337616
0.845123 0.213715 0.363190
0.000793 0.221497 0.247559
0.018463 0.229126 0.257721
0.069977 0.254669 0.286926
0.218567 0.302155 0.334412
0.415985 0.334076 0.366272
0.553375 0.326599 0.381104
0.656891 0.313354 0.381561
0.761353 0.307556 0.381744
0.866028 0.309998 0.383301
0.021667 0.303741 0.293884
0.044952 0.312775 0.300720
0.115112 0.343109 0.326141
0.272430 0.395630 0.370941
0.446533 0.436493 0.401031
0.596344 0.445648 0.429321
0.705261 0.431030 0.420380
0.798340 0.419159 0.396973
0.890991 0.410278 0.372894
0.116669 0.377899 0.325043
0.142883 0.386719 0.326904
0.218353 0.413025 0.339844
0.341217 0.453339 0.365204
0.470978 0.494934 0.389893
0.581818 0.527222 0.405426
0.705383 0.557892 0.430573
0.811005 0.551636 0.404297
0.910583 0.537567 0.359802
0.246277 0.451477 0.343353
0.270935 0.458740 0.341949
0.336517 0.479614 0.346741
0.422821 0.506775 0.358368
0.508545 0.538544 0.371155
0.587555 0.574341 0.373016
0.675598 0.615692 0.363342
0.807465 0.668213 0.373993
0.923370 0.675873 0.338074
0.358093 0.526733 0.361603
0.381409 0.531860 0.358673
0.431885 0.545319 0.358917
0.494873 0.563782 0.362793
0.557190 0.588654 0.366516
0.617371 0.627136 0.358582
0.683441 0.672882 0.315338
0.779846 0.730133 0.249146
0.919617 0.794220 0.264130
0.450012 0.606506 0.393524
0.480042 0.612305 0.390686
0.519501 0.621338 0.388214
0.565491 0.634613 0.385559
0.614777 0.656036 0.378998
0.665100 0.694946 0.357117
0.720978 0.758118 0.292603
0.796692 0.827637 0.164673
0.913879 0.902435 0.103485
0.000000 0.072906 0.137726
0.005127 0.077301 0.151215
0.028687 0.086761 0.175690
0.116302 0.106506 0.209778
0.235260 0.126801 0.227783
0.328522 0.134766 0.233368
0.427948 0.131104 0.266693
0.549927 0.126678 0.315674
0.683655 0.127655 0.362946
0.000000 0.100067 0.163757
0.005859 0.104065 0.173920
0.023407 0.113953 0.195831
0.110352 0.138641 0.237793
0.257629 0.161713 0.266235
0.357391 0.156036 0.260406
0.450867 0.148285 0.282410
0.571228 0.151642 0.328430
0.711334 0.172363 0.382721
0.000000 0.152466 0.216858
0.009399 0.157104 0.224976
0.024170 0.168732 0.243073
0.108917 0.201721 0.288818
0.294678 0.240356 0.336090
0.425934 0.230835 0.331940
0.516022 0.208740 0.336548
0.625702 0.207886 0.368317
0.760773 0.242798 0.420807
0.000427 0.237671 0.293304
0.015717 0.243439 0.301514
0.045013 0.261261 0.324005
0.146576 0.302917 0.369049
0.340424 0.353119 0.419373
0.500854 0.357239 0.426727
0.601807 0.331207 0.425598
0.700867 0.316681 0.437653
0.809357 0.332855 0.462769
0.014832 0.341827 0.371552
0.036255 0.348236 0.379578
0.089355 0.371216 0.405457
0.225800 0.417786 0.452484
0.397034 0.460876 0.486938
0.545288 0.475098 0.493713
0.655518 0.458588 0.500122
0.752167 0.437439 0.498779
0.850983 0.429047 0.495117
0.092316 0.437775 0.431335
0.112183 0.442749 0.435394
0.164429 0.460754 0.450806
0.285950 0.497742 0.482574
0.436554 0.533691 0.509583
0.565155 0.552979 0.516449
0.694092 0.560516 0.538147
0.809235 0.543701 0.525635
0.914764 0.522369 0.486816
0.209412 0.507385 0.463715
0.225616 0.510864 0.463531
0.273041 0.523987 0.469147
0.363373 0.547791 0.483612
0.475006 0.573669 0.498596
0.578796 0.600220 0.507965
0.680084 0.631836 0.512878
0.821045 0.672394 0.531067
0.942078 0.666260 0.474487
0.318665 0.569702 0.478607
0.336700 0.573456 0.476562
0.380981 0.584869 0.477997
0.450165 0.602875 0.484528
0.528992 0.622925 0.493042
0.607330 0.648926 0.497955
0.688263 0.688385 0.489258
0.794800 0.744690 0.447083
0.944458 0.805359 0.421753
0.412231 0.645630 0.498566
0.441650 0.652130 0.497437
0.482697 0.662018 0.498260
0.533752 0.675354 0.501129
0.592316 0.693176 0.504181
0.654510 0.720337 0.501892
0.722931 0.769958 0.479309
0.810486 0.842682 0.385193
0.933136 0.924286 0.252014
0.000000 0.089386 0.175842
0.005676 0.094360 0.186432
0.016693 0.104492 0.206787
0.076508 0.125183 0.243408
0.209625 0.153778 0.280182
0.327179 0.163940 0.285126
0.399475 0.164642 0.283264
0.489349 0.162445 0.320831
0.601624 0.160461 0.374542
0.000000 0.116943 0.200684
0.006836 0.121979 0.209656
0.015930 0.132874 0.228210
0.068848 0.157501 0.267609
0.219757 0.196259 0.319061
0.355927 0.202423 0.324646
0.423187 0.184601 0.306152
0.507965 0.181122 0.335693
0.628784 0.201477 0.398529
0.000000 0.169617 0.252869
0.009613 0.174957 0.260651
0.019165 0.186584 0.277039
0.066772 0.215302 0.315582
0.233368 0.267944 0.379333
0.406067 0.286682 0.399506
0.483185 0.255066 0.370789
0.559479 0.238586 0.383667
0.682831 0.279846 0.451050
0.000000 0.254364 0.333405
0.014679 0.259613 0.340546
0.032928 0.272614 0.357208
0.093811 0.305267 0.393494
0.264099 0.363190 0.453888
0.454010 0.398010 0.483521
0.558990 0.377655 0.466156
0.637085 0.352356 0.467621
0.738922 0.372833 0.511078
0.014801 0.364288 0.428406
0.035919 0.369720 0.435760
0.076263 0.385986 0.455688
0.179413 0.423279 0.494843
0.336639 0.470428 0.534302
0.496277 0.502441 0.552612
0.611023 0.494904 0.543579
0.699005 0.468689 0.543793
0.793396 0.464355 0.563293
0.087494 0.480072 0.512421
0.112183 0.484772 0.518311
0.156342 0.498901 0.534729
0.264984 0.532257 0.568604
0.412079 0.568176 0.599274
0.539337 0.586731 0.602966
0.644226 0.586884 0.594757
0.749115 0.572144 0.602081
0.861969 0.552795 0.600098
0.191895 0.573059 0.567993
0.211548 0.576569 0.571045
0.245148 0.586121 0.579498
0.325684 0.608551 0.599060
0.450378 0.634125 0.618469
0.565887 0.647430 0.621979
0.663055 0.654449 0.613922
0.797791 0.667664 0.630005
0.928650 0.656036 0.619720
0.301758 0.644714 0.605530
0.319427 0.647491 0.605957
0.352386 0.654358 0.608704
0.415131 0.667542 0.615875
0.504272 0.681976 0.622070
0.592651 0.693451 0.621429
0.678406 0.714569 0.617462
0.789276 0.754242 0.596405
0.948730 0.806030 0.601532
0.407196 0.712097 0.631775
0.434448 0.717102 0.631561
0.473145 0.724701 0.632599
0.520630 0.734802 0.634064
0.574707 0.747589 0.634399
0.633301 0.764313 0.629944
0.702484 0.794006 0.614105
0.797485 0.849609 0.561188
0.930084 0.926300 0.472656
0.000000 0.110840 0.218750
0.006866 0.117065 0.228577
0.014221 0.129547 0.247345
0.046326 0.152527 0.280579
0.173218 0.193237 0.335327
0.336334 0.224945 0.366028
0.426819 0.221100 0.354309
0.478302 0.214478 0.345764
0.552094 0.207214 0.379822
0.000000 0.140137 0.243774
0.007782 0.146332 0.252716
0.015198 0.159363 0.270905
0.044464 0.183838 0.304382
0.174072 0.231018 0.365387
0.353821 0.268616 0.404694
0.450439 0.254791 0.385864
0.498230 0.236725 0.366791
0.578644 0.246918 0.408325
0.000000 0.192871 0.295380
0.010071 0.198944 0.303497
0.019440 0.211761 0.319824
0.046783 0.237549 0.352051
0.177917 0.289734 0.414001
0.377533 0.340118 0.464111
0.494751 0.330658 0.450226
0.544373 0.300964 0.420746
0.630585 0.327789 0.467712
0.000519 0.275726 0.375946
0.015045 0.281219 0.382935
0.029358 0.292969 0.397736
0.066193 0.318848 0.427246
0.203369 0.371490 0.483276
0.404419 0.426697 0.531311
0.542694 0.434479 0.529663
0.606750 0.408600 0.503510
0.681885 0.417999 0.531830
0.021454 0.385803 0.479340
0.043213 0.390930 0.485931
0.073792 0.402832 0.500427
0.140564 0.429260 0.529236
0.278015 0.473907 0.568542
0.446686 0.518188 0.598907
0.579712 0.532745 0.596985
0.657318 0.514221 0.578461
0.731262 0.507202 0.592499
0.098328 0.507660 0.579498
0.126007 0.512146 0.585510
0.165741 0.522949 0.599426
0.251617 0.549011 0.627655
0.382874 0.583527 0.656342
0.509064 0.608887 0.664215
0.615540 0.618378 0.652924
0.699677 0.606323 0.637909
0.788269 0.593414 0.650879
0.191620 0.618896 0.653290
0.218658 0.622864 0.658142
0.252991 0.631805 0.668884
0.324799 0.653046 0.691589
0.447662 0.680878 0.715973
0.564240 0.695312 0.722046
0.652496 0.695312 0.704315
0.739624 0.686981 0.686707
0.856323 0.682281 0.699951
0.296112 0.717102 0.713745
0.319427 0.720978 0.717224
0.348846 0.728271 0.723938
0.400757 0.742310 0.736542
0.491608 0.760742 0.750580
0.587097 0.769501 0.751160
0.670746 0.769714 0.737610
0.761017 0.773102 0.714203
0.901611 0.799347 0.730835
0.416382 0.806396 0.774048
0.437866 0.811279 0.776764
0.467133 0.819458 0.781525
0.502533 0.829376 0.786316
0.548584 0.836731 0.785492
0.609192 0.840424 0.773895
0.683716 0.845459 0.752960
0.779114 0.867889 0.728760
0.902893 0.916901 0.701721
0.000000 0.138733 0.268219
0.007996 0.145691 0.277832
0.015411 0.160645 0.296600
0.036804 0.183502 0.324341
0.144623 0.231079 0.381561
0.335052 0.298523 0.450653
0.468658 0.322052 0.457672
0.525482 0.302917 0.432617
0.552368 0.279327 0.410034
0.000000 0.169373 0.293915
0.008789 0.176208 0.302704
0.016815 0.190674 0.320740
0.038513 0.214447 0.349091
0.145813 0.261719 0.404999
0.339294 0.329620 0.474457
0.482635 0.357391 0.486328
0.545990 0.339050 0.461426
0.580566 0.325439 0.445496
0.000000 0.221741 0.345032
0.010681 0.228088 0.353088
0.020386 0.241882 0.369629
0.043976 0.265717 0.396942
0.153442 0.312500 0.448853
0.347748 0.378723 0.513275
0.502411 0.413940 0.531036
0.577026 0.401703 0.510468
0.618591 0.393585 0.497345
0.002258 0.301636 0.423218
0.016571 0.307526 0.430664
0.031067 0.320129 0.446045
0.064606 0.343597 0.472565
0.184418 0.388306 0.518127
0.370361 0.447510 0.568787
0.525818 0.485352 0.585632
0.611969 0.481293 0.570465
0.657288 0.468353 0.553802
0.037445 0.410156 0.529419
0.059113 0.415344 0.535675
0.086548 0.425964 0.548187
0.136139 0.445923 0.570343
0.256592 0.484436 0.603943
0.417603 0.531219 0.636597
0.554657 0.562164 0.643066
0.646362 0.563904 0.630310
0.697968 0.547821 0.613342
0.122742 0.531433 0.639801
0.150787 0.535339 0.645050
0.186340 0.543701 0.655579
0.250458 0.562653 0.675995
0.363068 0.593933 0.700684
0.487762 0.623932 0.711792
0.595367 0.642212 0.705841
0.680389 0.643463 0.688782
0.742188 0.628357 0.674225
0.207764 0.650208 0.728638
0.238373 0.654144 0.733917
0.275269 0.662201 0.744812
0.340454 0.680542 0.766388
0.451416 0.707214 0.789337
0.559723 0.725006 0.795593
0.642731 0.730255 0.779388
0.714478 0.724670 0.752899
0.788422 0.710327 0.736023
0.303406 0.767639 0.805511
0.332855 0.772339 0.810791
0.365906 0.780609 0.820496
0.413391 0.796051 0.838013
0.493774 0.818268 0.859314
0.586884 0.832245 0.868866
0.677490 0.831146 0.859436
0.753387 0.818329 0.828766
0.830963 0.803497 0.801270
0.402802 0.882141 0.884491
0.417755 0.889618 0.891571
0.431793 0.900696 0.902100
0.453705 0.915375 0.915405
0.508301 0.926514 0.924103
0.600189 0.929443 0.923309
0.696564 0.925659 0.913849
0.783325 0.918213 0.894653
0.865814 0.912231 0.862701
