src/assets/luts/ON1 Nature & Wildlife LUTs/CinematicX LUTs - 30 Free Cinematic LUTs - The Resolve Store 2022/Maltilde - Rec709.cube
# Copyright: (C) Copyright 2022 The Resolve Store 
# Cannot be resold, shared or otherwise redistributed
TITLE "CinematicX (Rec.709)"
LUT_3D_SIZE 33
0.000000 0.000000 0.000000
0.012299 0.002441 0.000000
0.025299 0.004547 0.000458
0.040131 0.006927 0.000793
0.057312 0.009827 0.000793
0.077423 0.012848 0.001190
0.101379 0.016022 0.001648
0.126892 0.019623 0.001617
0.154297 0.023560 0.001678
0.184387 0.026825 0.001709
0.216156 0.029053 0.001678
0.249451 0.030609 0.001556
0.283661 0.029602 0.001526
0.317535 0.029114 0.001526
0.350647 0.028046 0.000885
0.383057 0.026703 0.000671
0.414703 0.025024 0.000000
0.446014 0.024628 0.000397
0.477783 0.022858 0.000641
0.508087 0.023163 0.000641
0.538361 0.024353 0.000610
0.569031 0.025909 0.000610
0.599457 0.027802 0.000610
0.630676 0.029480 0.000580
0.662048 0.031067 0.000885
0.693878 0.032898 0.001160
0.726288 0.034302 0.001678
0.758514 0.035461 0.001862
0.790985 0.036346 0.002167
0.822296 0.037689 0.002655
0.853638 0.038696 0.002747
0.884827 0.039795 0.003113
0.915680 0.041107 0.003052
0.001678 0.012695 0.001709
0.012146 0.014252 0.001801
0.028992 0.016968 0.001587
0.046906 0.019836 0.001801
0.066864 0.023407 0.001740
0.088470 0.026703 0.001831
0.113312 0.030365 0.002319
0.140442 0.034180 0.002472
0.169189 0.037872 0.002472
0.199097 0.040588 0.001892
0.231079 0.042938 0.002289
0.263214 0.043640 0.001709
0.296112 0.043640 0.001709
0.328461 0.043701 0.001648
0.360565 0.043121 0.001434
0.392914 0.041260 0.000824
0.424500 0.039551 0.000763
0.455231 0.038818 0.000275
0.486053 0.037415 0.000671
0.516449 0.036957 0.000671
0.546570 0.037659 0.000610
0.577423 0.039337 0.000610
0.607910 0.041412 0.000610
0.638611 0.043304 0.000580
0.669769 0.045349 0.000580
0.701691 0.047150 0.001129
0.733521 0.049164 0.001221
0.765808 0.050568 0.001648
0.797852 0.051849 0.002014
0.828857 0.053436 0.002136
0.859955 0.055054 0.002594
0.890717 0.056732 0.002533
0.921448 0.058502 0.002502
0.003448 0.025879 0.004150
0.013031 0.028107 0.004181
0.029999 0.030151 0.003174
0.052246 0.033630 0.002899
0.074951 0.037659 0.002838
0.098389 0.041962 0.002716
0.124786 0.045959 0.002686
0.152832 0.049744 0.002747
0.182281 0.053345 0.002777
0.212982 0.055786 0.002594
0.244537 0.058044 0.002686
0.276245 0.059143 0.002472
0.308105 0.059631 0.002472
0.339813 0.060120 0.002350
0.370972 0.059448 0.001678
0.402832 0.057892 0.001587
0.434204 0.056274 0.001099
0.464874 0.055145 0.000854
0.495941 0.053711 0.000671
0.526520 0.052368 0.000458
0.556488 0.052338 0.000763
0.586914 0.053833 0.000671
0.616943 0.055939 0.000671
0.647339 0.058228 0.000580
0.678558 0.060059 0.000580
0.709930 0.062317 0.001099
0.741180 0.064728 0.001129
0.772980 0.066742 0.001343
0.804474 0.068604 0.001617
0.835571 0.070557 0.002014
0.865967 0.072601 0.001984
0.896393 0.074615 0.001953
0.926880 0.076660 0.001923
0.005371 0.039703 0.006683
0.014465 0.042419 0.006622
0.031586 0.044678 0.005310
0.055359 0.047546 0.003845
0.081482 0.052277 0.003571
0.106995 0.057800 0.003693
0.135132 0.062592 0.003174
0.164246 0.066620 0.003113
0.194489 0.070129 0.003448
0.225708 0.072968 0.003418
0.257141 0.075195 0.003357
0.288513 0.076324 0.002777
0.320068 0.077484 0.003235
0.350739 0.078033 0.002625
0.381805 0.077759 0.002441
0.413025 0.076721 0.002441
0.443909 0.075623 0.002289
0.474792 0.074646 0.002197
0.505432 0.073547 0.001373
0.536133 0.071472 0.000977
0.566345 0.070374 0.000854
0.596558 0.071747 0.000854
0.626770 0.073700 0.000732
0.657135 0.075073 0.000702
0.687561 0.076721 0.000641
0.718170 0.078918 0.000580
0.748962 0.081512 0.001099
0.780151 0.083984 0.001099
0.810974 0.086365 0.001434
0.841492 0.088745 0.001434
0.871643 0.091248 0.001404
0.901978 0.093567 0.001343
0.932281 0.096069 0.001343
0.007355 0.054138 0.008331
0.018433 0.056946 0.009644
0.035187 0.059845 0.007812
0.059479 0.062164 0.004852
0.086517 0.066193 0.003906
0.113617 0.072937 0.004242
0.143799 0.079590 0.003815
0.174469 0.085175 0.003754
0.205688 0.089386 0.003967
0.237579 0.092499 0.003876
0.269226 0.094910 0.003632
0.300842 0.096558 0.003540
0.331726 0.097687 0.003510
0.362061 0.098694 0.003326
0.392609 0.099243 0.003326
0.422943 0.099182 0.003265
0.453583 0.098572 0.003143
0.484039 0.097992 0.003113
0.514435 0.097626 0.002716
0.545166 0.095947 0.002319
0.575836 0.093628 0.001831
0.605927 0.094177 0.001587
0.636230 0.094604 0.001343
0.666687 0.095215 0.001129
0.696594 0.096619 0.000946
0.726837 0.098267 0.000854
0.757233 0.100586 0.000885
0.787628 0.103271 0.001099
0.817841 0.106140 0.001068
0.847992 0.109100 0.001068
0.877960 0.112122 0.001038
0.908173 0.115051 0.001038
0.938477 0.118317 0.001068
0.010834 0.069763 0.010468
0.023621 0.073029 0.013031
0.039795 0.075745 0.009735
0.065704 0.077484 0.006256
0.092804 0.080688 0.004761
0.119049 0.087372 0.004303
0.150085 0.096497 0.004700
0.182739 0.104980 0.004761
0.215668 0.110992 0.004791
0.248230 0.115234 0.004639
0.280365 0.118195 0.004486
0.311798 0.119873 0.004456
0.342743 0.121460 0.004395
0.373169 0.122803 0.004272
0.402924 0.124054 0.004211
0.433075 0.125092 0.004028
0.463165 0.125275 0.003937
0.493408 0.125397 0.003845
0.523438 0.125214 0.003784
0.553864 0.124237 0.003265
0.584290 0.122131 0.003235
0.614288 0.122620 0.002960
0.644653 0.121918 0.002533
0.674988 0.121857 0.002472
0.705200 0.122437 0.002106
0.735321 0.123840 0.001923
0.765350 0.125671 0.001831
0.795288 0.127930 0.001770
0.825073 0.130859 0.001770
0.855042 0.134125 0.001770
0.884918 0.137970 0.001770
0.914764 0.141998 0.001770
0.944641 0.146973 0.001953
0.015594 0.086182 0.012329
0.031006 0.089020 0.015228
0.046814 0.092194 0.011444
0.073456 0.094299 0.007294
0.101501 0.097443 0.004974
0.126282 0.103577 0.004486
0.154877 0.112885 0.005310
0.188293 0.124115 0.005554
0.222534 0.133392 0.005676
0.256165 0.139862 0.005615
0.288971 0.144257 0.005554
0.320770 0.147064 0.005432
0.351868 0.149323 0.005280
0.382446 0.150940 0.005188
0.412689 0.152008 0.005035
0.442810 0.153107 0.004852
0.472626 0.153992 0.004761
0.502472 0.154449 0.004730
0.532349 0.154633 0.004547
0.562439 0.154205 0.004486
0.592560 0.153564 0.004395
0.622498 0.154510 0.004242
0.652374 0.155090 0.004028
0.682678 0.154846 0.003815
0.712830 0.155029 0.003601
0.742645 0.157104 0.003357
0.772430 0.158569 0.003235
0.802307 0.160156 0.003143
0.831909 0.162628 0.003052
0.861633 0.165741 0.003021
0.891083 0.170013 0.003021
0.920685 0.174866 0.002991
0.949860 0.180695 0.003723
0.022766 0.102997 0.013794
0.040680 0.105377 0.016632
0.056549 0.109039 0.011841
0.084869 0.111450 0.008026
0.112122 0.115204 0.005646
0.135803 0.122620 0.005127
0.161530 0.130646 0.005432
0.192749 0.141846 0.005890
0.227203 0.153809 0.006592
0.261414 0.163940 0.006622
0.294891 0.171295 0.006531
0.327637 0.176025 0.006104
0.359436 0.178955 0.006073
0.390320 0.181000 0.006104
0.421021 0.182526 0.006042
0.451263 0.183685 0.005798
0.480957 0.184723 0.005493
0.510620 0.185516 0.005463
0.540497 0.186096 0.005371
0.570374 0.186432 0.005219
0.600281 0.186798 0.005157
0.630096 0.187958 0.004944
0.659668 0.189423 0.004883
0.689636 0.190186 0.004852
0.719574 0.191193 0.004608
0.749023 0.193451 0.004578
0.778381 0.195160 0.004547
0.808075 0.196564 0.004517
0.837585 0.198792 0.004303
0.867004 0.201508 0.004272
0.896332 0.205261 0.004242
0.925568 0.209534 0.004272
0.954132 0.214752 0.005188
0.039001 0.120514 0.018127
0.054565 0.123566 0.015778
0.073486 0.126678 0.010437
0.100647 0.128998 0.007172
0.125153 0.133636 0.005554
0.146515 0.141449 0.005310
0.170502 0.150818 0.005676
0.199188 0.160950 0.006531
0.231720 0.173035 0.007050
0.266296 0.185822 0.007233
0.300323 0.196716 0.007324
0.333344 0.204346 0.007416
0.365662 0.209442 0.007355
0.396912 0.212738 0.007019
0.427704 0.214722 0.006989
0.458038 0.216187 0.006744
0.487823 0.217285 0.006470
0.517517 0.218353 0.006378
0.547302 0.219391 0.006165
0.577148 0.220306 0.006042
0.606964 0.221252 0.005920
0.636505 0.222504 0.005768
0.666077 0.224030 0.005676
0.695435 0.225586 0.005737
0.725006 0.226868 0.005829
0.754272 0.228577 0.005768
0.783478 0.230530 0.005676
0.812897 0.232391 0.005615
0.842224 0.234467 0.005402
0.871552 0.236938 0.005341
0.900818 0.239655 0.005280
0.929962 0.242676 0.005310
0.957977 0.247284 0.006256
0.059967 0.139832 0.017975
0.072754 0.143280 0.011993
0.095184 0.145386 0.008636
0.117920 0.148102 0.006897
0.139099 0.152740 0.005981
0.158630 0.160431 0.005920
0.180969 0.171234 0.006226
0.207489 0.182404 0.006897
0.237762 0.193634 0.008057
0.271118 0.206390 0.008331
0.305420 0.219940 0.008545
0.338806 0.230957 0.008789
0.371033 0.238800 0.008545
0.402313 0.244232 0.008301
0.433044 0.247681 0.008026
0.463196 0.249817 0.007812
0.493439 0.251343 0.007568
0.523163 0.252686 0.007324
0.552734 0.254150 0.007050
0.582428 0.255249 0.007141
0.612152 0.256317 0.007141
0.641632 0.257507 0.006958
0.670929 0.258820 0.006805
0.700134 0.260315 0.006714
0.729462 0.261566 0.006470
0.758698 0.262878 0.006378
0.787872 0.264679 0.006287
0.817108 0.266571 0.006226
0.846436 0.268402 0.006012
0.875793 0.270142 0.005920
0.904999 0.272278 0.005859
0.933960 0.274963 0.006073
0.961639 0.278870 0.007263
0.081421 0.160706 0.012604
0.098999 0.163208 0.009918
0.118164 0.165527 0.007690
0.136932 0.168610 0.006744
0.154785 0.173096 0.006409
0.172852 0.180023 0.006409
0.193298 0.191284 0.006378
0.217529 0.204285 0.007050
0.245880 0.216614 0.008392
0.277588 0.228241 0.008789
0.311157 0.241608 0.009735
0.344574 0.255280 0.010071
0.376526 0.266022 0.010468
0.407410 0.274139 0.010101
0.437653 0.279724 0.009766
0.467804 0.283539 0.009094
0.497864 0.285950 0.009094
0.527618 0.287537 0.008759
0.557190 0.288940 0.008423
0.586639 0.290161 0.008118
0.616241 0.291199 0.007812
0.645569 0.292175 0.007721
0.674683 0.293365 0.007507
0.703827 0.294495 0.007355
0.733093 0.295563 0.007080
0.762329 0.296814 0.006989
0.791473 0.298370 0.006927
0.820740 0.299957 0.006805
0.850037 0.301453 0.006592
0.879486 0.302673 0.006500
0.908600 0.304626 0.006439
0.937408 0.307190 0.006714
0.964752 0.310730 0.008392
0.107513 0.181488 0.009827
0.123810 0.183716 0.008423
0.140167 0.186493 0.007294
0.156006 0.189819 0.006653
0.171997 0.194275 0.006775
0.189148 0.200500 0.006897
0.208099 0.211334 0.007019
0.230255 0.225647 0.007599
0.255951 0.240234 0.008575
0.285583 0.252930 0.009399
0.317932 0.264526 0.010742
0.350647 0.277710 0.011505
0.382507 0.290802 0.011993
0.413300 0.301758 0.011719
0.443268 0.309845 0.011353
0.472595 0.315552 0.010895
0.501923 0.319519 0.010559
0.531342 0.322052 0.010040
0.560669 0.323639 0.009674
0.589813 0.324677 0.009338
0.619110 0.325592 0.008667
0.648315 0.326508 0.008423
0.677490 0.327423 0.008423
0.706696 0.328430 0.008118
0.735809 0.329468 0.007721
0.765137 0.330475 0.007629
0.794464 0.331635 0.007538
0.823730 0.332947 0.007294
0.853058 0.334229 0.007172
0.882538 0.335419 0.007080
0.911682 0.337036 0.006989
0.940430 0.339264 0.007294
0.967621 0.342529 0.009064
0.134064 0.202362 0.008942
0.148041 0.205200 0.007935
0.162018 0.208374 0.007507
0.176270 0.212189 0.007568
0.191223 0.216736 0.007172
0.207520 0.222656 0.007202
0.225769 0.232269 0.007538
0.245819 0.246185 0.008362
0.268982 0.262634 0.009064
0.296112 0.278412 0.010468
0.326599 0.289948 0.011993
0.358032 0.301575 0.013367
0.389374 0.314423 0.013855
0.420166 0.327209 0.014038
0.449646 0.337646 0.013916
0.478180 0.345367 0.013641
0.506622 0.350983 0.012878
0.535004 0.354706 0.012054
0.563477 0.357147 0.011444
0.592133 0.358643 0.010498
0.621094 0.359589 0.010101
0.650116 0.360504 0.009766
0.679321 0.361359 0.009399
0.708527 0.362183 0.008850
0.737701 0.363037 0.008484
0.767181 0.363831 0.008362
0.796631 0.364777 0.008148
0.825989 0.365875 0.007904
0.855408 0.366913 0.007751
0.884918 0.368042 0.007660
0.914276 0.369354 0.007568
0.943176 0.371307 0.007721
0.970551 0.374268 0.009583
0.159790 0.224976 0.008850
0.171753 0.228088 0.008179
0.184235 0.231689 0.007904
0.197479 0.235626 0.008057
0.212219 0.240173 0.008118
0.228363 0.245758 0.008331
0.245605 0.254669 0.008484
0.264191 0.267914 0.009369
0.285065 0.284973 0.010406
0.309570 0.302734 0.011444
0.337341 0.316498 0.012909
0.367249 0.327759 0.014771
0.397736 0.338989 0.016022
0.427704 0.351227 0.016754
0.456696 0.363190 0.016876
0.484619 0.372772 0.016205
0.511841 0.379974 0.015472
0.539001 0.385254 0.014740
0.566650 0.388824 0.013611
0.594635 0.391266 0.012878
0.622925 0.392883 0.011841
0.651642 0.393951 0.011292
0.680664 0.394775 0.010651
0.709778 0.395569 0.010132
0.739075 0.396301 0.009766
0.768585 0.397034 0.009430
0.798096 0.397827 0.009186
0.827637 0.398743 0.008881
0.857178 0.399597 0.008362
0.886719 0.400635 0.008240
0.916382 0.401794 0.008148
0.945648 0.403442 0.008026
0.973236 0.406036 0.010010
0.184479 0.249023 0.009491
0.195526 0.252258 0.009064
0.207428 0.255920 0.009094
0.220673 0.260132 0.009064
0.235260 0.264740 0.008850
0.251007 0.270111 0.009552
0.267578 0.278412 0.009674
0.285004 0.290863 0.010315
0.303925 0.307587 0.011444
0.325623 0.326477 0.012665
0.350830 0.342896 0.013824
0.378265 0.355316 0.015778
0.407135 0.365356 0.017761
0.436401 0.375610 0.019348
0.464539 0.387054 0.020142
0.491364 0.397705 0.019470
0.517761 0.406616 0.018463
0.544220 0.413635 0.017456
0.570770 0.418671 0.016418
0.597687 0.422302 0.015167
0.625244 0.424774 0.014160
0.653320 0.426605 0.013031
0.681946 0.427704 0.012482
0.710815 0.428528 0.011566
0.740082 0.429260 0.010956
0.769562 0.429901 0.010284
0.799103 0.430634 0.009857
0.828735 0.431366 0.009613
0.858490 0.432129 0.008972
0.888367 0.433105 0.008850
0.918182 0.434204 0.008514
0.947693 0.435730 0.008514
0.975647 0.437897 0.010101
0.209137 0.273834 0.011169
0.219818 0.277283 0.010406
0.231628 0.280975 0.010529
0.245148 0.285217 0.010162
0.259705 0.290009 0.010193
0.275391 0.295593 0.010712
0.291229 0.303314 0.011414
0.307404 0.314514 0.011902
0.324799 0.330353 0.012817
0.344452 0.349457 0.014191
0.366730 0.367859 0.015686
0.391449 0.382629 0.017609
0.417908 0.393311 0.019592
0.445312 0.401520 0.021729
0.472626 0.410828 0.023071
0.498810 0.421082 0.023071
0.524536 0.431091 0.022247
0.550140 0.439606 0.021454
0.575836 0.446442 0.020050
0.601807 0.451538 0.018524
0.628387 0.455200 0.016937
0.655609 0.457794 0.015625
0.683533 0.459656 0.014313
0.712006 0.460907 0.013275
0.740936 0.461792 0.012634
0.770325 0.462433 0.011658
0.799866 0.463135 0.011139
0.829681 0.463928 0.010376
0.859711 0.464752 0.009613
0.889709 0.465576 0.009460
0.919586 0.466614 0.009094
0.949249 0.467987 0.009033
0.977600 0.469788 0.010315
0.234833 0.299561 0.014771
0.245514 0.303040 0.013367
0.257690 0.306885 0.012695
0.271118 0.311157 0.012360
0.285400 0.315918 0.012329
0.300720 0.321350 0.012543
0.316162 0.328674 0.013000
0.331696 0.339172 0.014099
0.347565 0.354248 0.014893
0.364929 0.372375 0.016144
0.384674 0.391205 0.017853
0.406555 0.407898 0.019623
0.430237 0.420502 0.021423
0.455353 0.428772 0.023376
0.481262 0.436218 0.024902
0.507050 0.444855 0.026093
0.532166 0.454315 0.026031
0.556946 0.463745 0.025482
0.581818 0.472076 0.024200
0.606903 0.478729 0.022217
0.632507 0.483856 0.020142
0.658722 0.487579 0.018494
0.685760 0.490265 0.016937
0.713593 0.492218 0.015656
0.742035 0.493683 0.014343
0.771149 0.494690 0.013214
0.800781 0.495575 0.012177
0.830658 0.496399 0.011719
0.860626 0.497223 0.010864
0.890686 0.498047 0.010590
0.920654 0.498962 0.009827
0.950592 0.500061 0.009644
0.979309 0.501526 0.010834
0.261505 0.325745 0.021759
0.272430 0.329407 0.019470
0.284698 0.333221 0.017273
0.297791 0.337646 0.016205
0.312164 0.342468 0.015411
0.326996 0.347992 0.015289
0.341949 0.354919 0.015350
0.356567 0.364807 0.016144
0.371063 0.378601 0.016998
0.386597 0.395599 0.018646
0.403748 0.413788 0.020538
0.422821 0.431274 0.022186
0.443939 0.445923 0.024078
0.466858 0.455902 0.026031
0.490784 0.463013 0.027557
0.515656 0.469849 0.029205
0.540405 0.477753 0.030029
0.564636 0.486877 0.029816
0.588623 0.495972 0.028656
0.612854 0.503998 0.026459
0.637604 0.510651 0.024109
0.662933 0.515747 0.022125
0.689026 0.519623 0.020020
0.716034 0.522461 0.018433
0.743927 0.524750 0.016724
0.772583 0.526367 0.015015
0.801849 0.527649 0.013977
0.831604 0.528564 0.013214
0.861481 0.529419 0.012268
0.891510 0.530212 0.011383
0.921539 0.531097 0.010834
0.951538 0.532013 0.010437
0.980469 0.533142 0.010925
0.289551 0.352814 0.033295
0.300629 0.356476 0.029907
0.312714 0.360474 0.026642
0.325623 0.364685 0.023926
0.339417 0.369385 0.021301
0.353638 0.374634 0.019073
0.367798 0.381226 0.018250
0.381592 0.390503 0.018433
0.395020 0.403015 0.019562
0.408539 0.418427 0.020691
0.423462 0.435791 0.022614
0.440308 0.453430 0.024414
0.459076 0.469391 0.026520
0.479614 0.481750 0.028442
0.501526 0.490143 0.030212
0.524750 0.496368 0.031372
0.548828 0.502350 0.032990
0.572906 0.510010 0.033600
0.596375 0.518860 0.032745
0.619751 0.527649 0.031067
0.643616 0.535583 0.028442
0.668213 0.542267 0.025879
0.693512 0.547638 0.023804
0.719696 0.551727 0.021881
0.746796 0.554810 0.019775
0.774689 0.557190 0.017609
0.803314 0.558929 0.016266
0.832611 0.560333 0.014771
0.862335 0.561310 0.013794
0.892151 0.562164 0.012817
0.922028 0.562866 0.011902
0.952057 0.563629 0.011108
0.981232 0.564545 0.011017
0.317841 0.380188 0.051025
0.328644 0.383667 0.047150
0.340515 0.387604 0.043060
0.353058 0.391693 0.038452
0.366302 0.396240 0.032806
0.379791 0.401276 0.027344
0.393280 0.407654 0.023315
0.406250 0.416138 0.021881
0.418488 0.427338 0.022278
0.430817 0.441437 0.023468
0.443939 0.457489 0.025330
0.458649 0.474640 0.027222
0.475128 0.491241 0.029022
0.493408 0.505493 0.030792
0.513428 0.516235 0.032410
0.534821 0.523651 0.033813
0.557526 0.528900 0.035431
0.581055 0.534210 0.036011
0.604645 0.541718 0.036377
0.627563 0.550293 0.035339
0.650787 0.559021 0.033020
0.674622 0.567108 0.030548
0.699097 0.573975 0.028168
0.724396 0.579468 0.025482
0.750488 0.583679 0.023376
0.777588 0.586945 0.020996
0.805420 0.589355 0.018860
0.834137 0.591217 0.016968
0.863220 0.592499 0.015289
0.892670 0.593536 0.014130
0.922363 0.594269 0.012878
0.952362 0.595001 0.011963
0.981689 0.595734 0.011627
0.345520 0.407104 0.072937
0.356140 0.410553 0.068970
0.367615 0.414307 0.064301
0.379669 0.418274 0.058441
0.392181 0.422485 0.051208
0.404999 0.427246 0.043457
0.417786 0.433136 0.036560
0.430054 0.440979 0.030945
0.441681 0.451172 0.028046
0.453033 0.464050 0.026733
0.464691 0.478973 0.027069
0.477539 0.495300 0.029205
0.491974 0.511810 0.031006
0.508118 0.527069 0.033417
0.526123 0.540039 0.035095
0.545776 0.549500 0.036713
0.566925 0.556030 0.037872
0.589417 0.560547 0.038544
0.612854 0.565948 0.039001
0.636108 0.573364 0.038910
0.658905 0.581787 0.037872
0.681885 0.590485 0.035706
0.705475 0.598572 0.032959
0.729950 0.605530 0.029877
0.755280 0.611145 0.026703
0.781403 0.615509 0.024017
0.808228 0.618683 0.021606
0.835876 0.621033 0.019440
0.864319 0.622894 0.017578
0.893311 0.624359 0.015747
0.922699 0.625427 0.014374
0.952606 0.626221 0.013275
0.982025 0.626923 0.012390
0.371918 0.433380 0.096008
0.382263 0.436676 0.092499
0.393219 0.440186 0.087769
0.404602 0.443909 0.082855
0.416626 0.447906 0.076416
0.429169 0.452332 0.068634
0.441376 0.457825 0.059998
0.453125 0.465027 0.050873
0.464294 0.474426 0.042847
0.474884 0.486267 0.036285
0.485443 0.500122 0.032532
0.496704 0.515625 0.032532
0.509338 0.531769 0.032959
0.523529 0.547455 0.035248
0.539581 0.561768 0.037170
0.557495 0.573608 0.039246
0.577240 0.582092 0.040588
0.598480 0.587677 0.041290
0.621094 0.592041 0.041687
0.644379 0.597595 0.042175
0.667358 0.604858 0.041718
0.690002 0.613220 0.040039
0.712830 0.621887 0.037476
0.736389 0.629974 0.034302
0.760681 0.636810 0.030853
0.785675 0.642365 0.027557
0.811646 0.646698 0.024231
0.838348 0.650024 0.021729
0.865997 0.652588 0.019592
0.894348 0.654480 0.017975
0.923309 0.655945 0.016144
0.952911 0.657074 0.014526
0.982300 0.657928 0.013428
0.397186 0.458893 0.119537
0.407074 0.462097 0.116211
0.417542 0.465485 0.112061
0.428589 0.469025 0.107605
0.440155 0.472870 0.102295
0.452087 0.477112 0.095398
0.463989 0.482239 0.087128
0.475433 0.488861 0.076813
0.486115 0.497498 0.064850
0.496277 0.508392 0.053497
0.506134 0.521301 0.044556
0.516296 0.535797 0.039032
0.527313 0.551270 0.036591
0.539825 0.567017 0.037292
0.554108 0.582184 0.039246
0.570343 0.595795 0.041046
0.588318 0.606659 0.042877
0.608154 0.614136 0.044220
0.629486 0.619080 0.044556
0.652100 0.623383 0.044922
0.675323 0.628784 0.044159
0.698273 0.635986 0.043396
0.720795 0.644440 0.041473
0.743378 0.652954 0.038605
0.766663 0.660828 0.035156
0.790863 0.667725 0.031433
0.815887 0.673401 0.027924
0.841644 0.677948 0.024780
0.868286 0.681366 0.022247
0.895844 0.684021 0.019928
0.924164 0.685944 0.017975
0.953369 0.687439 0.016174
0.982635 0.688538 0.014679
0.420624 0.483826 0.143433
0.430298 0.486847 0.140289
0.440552 0.490143 0.136688
0.451263 0.493622 0.132599
0.462402 0.497284 0.127899
0.473999 0.501373 0.122223
0.485657 0.506104 0.115021
0.496796 0.512207 0.105621
0.507294 0.520142 0.093872
0.517120 0.530090 0.080231
0.526520 0.542053 0.066528
0.535858 0.555634 0.054230
0.545776 0.570496 0.045135
0.556824 0.585999 0.041168
0.569427 0.601471 0.041199
0.583710 0.616119 0.042572
0.599945 0.628845 0.044739
0.618103 0.638733 0.046234
0.638062 0.645508 0.047241
0.659576 0.650208 0.047241
0.682465 0.654205 0.046814
0.705658 0.659332 0.046204
0.728546 0.666565 0.044708
0.751038 0.675049 0.042236
0.773682 0.683594 0.039001
0.796967 0.691559 0.035431
0.821014 0.698639 0.031830
0.845795 0.704468 0.028259
0.871460 0.709137 0.024902
0.897949 0.712708 0.022003
0.925415 0.715332 0.019531
0.954010 0.717316 0.017517
0.982941 0.718781 0.016205
0.442474 0.507965 0.167816
0.452026 0.510925 0.164825
0.462097 0.514160 0.161469
0.472534 0.517517 0.157623
0.483429 0.521118 0.153320
0.494690 0.525024 0.148468
0.506226 0.529480 0.142273
0.517273 0.535095 0.134613
0.527679 0.542267 0.124664
0.537323 0.551392 0.112030
0.546356 0.562286 0.097290
0.555267 0.574951 0.081970
0.564362 0.589111 0.066528
0.574158 0.604248 0.052734
0.585114 0.619659 0.044800
0.597656 0.634705 0.044220
0.611969 0.648682 0.046234
0.628357 0.660797 0.047699
0.646637 0.669891 0.048950
0.666718 0.676117 0.049255
0.688538 0.680420 0.048981
0.711884 0.684296 0.048218
0.735474 0.689667 0.046906
0.758728 0.697021 0.045349
0.781372 0.705597 0.042755
0.803894 0.714264 0.040009
0.826996 0.722412 0.036377
0.850739 0.729645 0.032837
0.875275 0.735687 0.028748
0.900696 0.740479 0.025146
0.927124 0.744049 0.021881
0.954926 0.746796 0.019470
0.983368 0.748718 0.017548
0.462830 0.531464 0.192230
0.472351 0.534424 0.189392
0.482269 0.537567 0.186218
0.492493 0.540894 0.182678
0.503204 0.544403 0.178619
0.514404 0.548218 0.174103
0.525696 0.552460 0.168762
0.536743 0.557556 0.162109
0.547150 0.564148 0.153809
0.556854 0.572510 0.143555
0.565887 0.582428 0.131195
0.574554 0.594147 0.116241
0.583069 0.607422 0.099579
0.591888 0.621918 0.081299
0.601410 0.636993 0.063293
0.612091 0.652283 0.050354
0.624542 0.667084 0.046814
0.638855 0.680389 0.048401
0.655304 0.691589 0.049683
0.673920 0.700043 0.050751
0.694672 0.706085 0.051270
0.717316 0.710236 0.050415
0.741333 0.714264 0.048859
0.765442 0.720093 0.047668
0.788849 0.727692 0.046265
0.811523 0.736389 0.044678
0.833832 0.745209 0.042603
0.856537 0.753601 0.039795
0.879761 0.760925 0.036041
0.903839 0.767029 0.031952
0.929138 0.771881 0.027252
0.956024 0.775543 0.023376
0.983765 0.778198 0.020233
0.481812 0.554260 0.216431
0.491150 0.557190 0.213837
0.500885 0.560333 0.210876
0.511017 0.563690 0.207611
0.521576 0.567261 0.203888
0.532440 0.571075 0.199890
0.543671 0.575165 0.195404
0.554932 0.579926 0.189697
0.565613 0.585999 0.182648
0.575623 0.593536 0.173889
0.584869 0.602631 0.163177
0.593506 0.613342 0.150238
0.601624 0.625641 0.135284
0.609711 0.639313 0.117371
0.618134 0.653992 0.096283
0.627350 0.669189 0.075104
0.637787 0.684143 0.059326
0.650116 0.698456 0.051239
0.664734 0.711334 0.050110
0.681641 0.721985 0.051300
0.701050 0.730042 0.052185
0.722656 0.735718 0.052063
0.746307 0.739807 0.050934
0.771027 0.744354 0.049530
0.795471 0.750763 0.048615
