src/assets/luts/ON1 Nature & Wildlife LUTs/CinematicX LUTs - 30 Free Cinematic LUTs - The Resolve Store 2022/Maltilde - Rec709.cube
# Copyright: (C) Copyright 2022 The Resolve Store 
# Cannot be resold, shared or otherwise redistributed
TITLE "CinematicX (Rec.709)"
LUT_3D_SIZE 9
0.000000 0.000000 0.000000
0.057312 0.009827 0.000793
0.154297 0.023560 0.001678
0.283661 0.029602 0.001526
0.414703 0.025024 0.000000
0.538361 0.024353 0.000610
0.662048 0.031067 0.000885
0.790985 0.036346 0.002167
0.915680 0.041107 0.003052
0.007355 0.054138 0.008331
0.086517 0.066193 0.003906
0.205688 0.089386 0.003967
0.331726 0.097687 0.003510
0.453583 0.098572 0.003143
0.575836 0.093628 0.001831
0.696594 0.096619 0.000946
0.817841 0.106140 0.001068
0.938477 0.118317 0.001068
0.039001 0.120514 0.018127
0.125153 0.133636 0.005554
0.231720 0.173035 0.007050
0.365662 0.209442 0.007355
0.487823 0.217285 0.006470
0.606964 0.221252 0.005920
0.725006 0.226868 0.005829
0.842224 0.234467 0.005402
0.957977 0.247284 0.006256
0.134064 0.202362 0.008942
0.191223 0.216736 0.007172
0.268982 0.262634 0.009064
0.389374 0.314423 0.013855
0.506622 0.350983 0.012878
0.621094 0.359589 0.010101
0.737701 0.363037 0.008484
0.855408 0.366913 0.007751
0.970551 0.374268 0.009583
0.234833 0.299561 0.014771
0.285400 0.315918 0.012329
0.347565 0.354248 0.014893
0.430237 0.420502 0.021423
0.532166 0.454315 0.026031
0.632507 0.483856 0.020142
0.742035 0.493683 0.014343
0.860626 0.497223 0.010864
0.979309 0.501526 0.010834
0.345520 0.407104 0.072937
0.392181 0.422485 0.051208
0.441681 0.451172 0.028046
0.491974 0.511810 0.031006
0.566925 0.556030 0.037872
0.658905 0.581787 0.037872
0.755280 0.611145 0.026703
0.864319 0.622894 0.017578
0.982025 0.626923 0.012390
0.442474 0.507965 0.167816
0.483429 0.521118 0.153320
0.527679 0.542267 0.124664
0.564362 0.589111 0.066528
0.611969 0.648682 0.046234
0.688538 0.680420 0.048981
0.781372 0.705597 0.042755
0.875275 0.735687 0.028748
0.983368 0.748718 0.017548
0.514709 0.598816 0.265747
0.554474 0.612457 0.255646
0.599487 0.629883 0.239288
0.637665 0.662567 0.201904
0.667236 0.716492 0.125153
0.715271 0.773071 0.053375
0.804443 0.800568 0.051788
0.896454 0.831207 0.070404
0.983612 0.863342 0.054565
0.568848 0.686371 0.363708
0.609375 0.701111 0.358154
0.653625 0.719757 0.347565
0.696777 0.745605 0.325043
0.726105 0.791412 0.265961
0.755005 0.851807 0.159149
0.816833 0.902222 0.060089
0.910156 0.929108 0.099518
0.973877 0.961151 0.244507
0.005066 0.005280 0.025879
0.047821 0.015656 0.036407
0.151794 0.016998 0.037964
0.289825 0.003662 0.039307
0.414368 0.005463 0.051514
0.538269 0.008667 0.059052
0.664215 0.015839 0.064728
0.792999 0.027679 0.074585
0.916840 0.035797 0.086884
0.017365 0.061249 0.051849
0.061066 0.075226 0.060974
0.205597 0.084717 0.064056
0.345306 0.067413 0.053619
0.464081 0.056549 0.051941
0.578522 0.066833 0.058868
0.698792 0.081329 0.066986
0.819397 0.095856 0.078583
0.940613 0.109161 0.087677
0.025024 0.125763 0.058197
0.076263 0.142029 0.065582
0.221863 0.177734 0.072021
0.372223 0.209961 0.081573
0.499969 0.206757 0.072632
0.619629 0.198242 0.070709
0.735046 0.198334 0.074982
0.848816 0.212616 0.083801
0.960968 0.237152 0.099426
0.084015 0.200623 0.049744
0.144440 0.217957 0.043396
0.250031 0.255219 0.030060
0.387878 0.319946 0.054993
0.512146 0.353821 0.080109
0.628448 0.357971 0.088440
0.745209 0.359039 0.092285
0.861481 0.362549 0.097748
0.972870 0.371826 0.111206
0.188263 0.290649 0.048035
0.249725 0.310516 0.040039
0.332184 0.343750 0.026947
0.422302 0.422272 0.035950
0.532257 0.459015 0.062469
0.635742 0.486450 0.085938
0.746521 0.493805 0.098938
0.865234 0.496277 0.105286
0.981171 0.501007 0.117157
0.308105 0.397247 0.100342
0.362396 0.416077 0.092316
0.429504 0.443390 0.064972
0.486847 0.505646 0.042725
0.563202 0.560638 0.056274
0.659058 0.585693 0.076233
0.757324 0.613342 0.094543
0.866882 0.623444 0.107605
0.983582 0.626892 0.116821
0.413422 0.502686 0.191223
0.460541 0.517670 0.182434
0.516479 0.538116 0.165009
0.562714 0.581512 0.126526
0.609497 0.646606 0.068115
0.685730 0.685699 0.072632
0.781158 0.709320 0.091003
0.876190 0.737946 0.107849
0.984497 0.749451 0.115906
0.491180 0.597992 0.288208
0.535950 0.611816 0.281281
0.587036 0.630280 0.268921
0.636749 0.657684 0.244995
0.670441 0.711060 0.192627
0.714111 0.774475 0.104675
0.801453 0.807922 0.088287
0.896149 0.836365 0.131683
0.983704 0.865601 0.140472
0.545258 0.688995 0.386292
0.594147 0.703552 0.382721
0.642639 0.722504 0.374084
0.692261 0.747559 0.358490
0.730988 0.789673 0.319336
0.760315 0.852173 0.239655
0.814972 0.910034 0.130432
0.907501 0.939850 0.164001
0.973145 0.965363 0.335815
0.014526 0.015930 0.067993
0.042389 0.028442 0.087280
0.122650 0.037292 0.097443
0.254791 0.026917 0.109436
0.398529 0.005524 0.129700
0.525940 0.008118 0.145691
0.652130 0.010620 0.157990
0.780029 0.014343 0.168274
0.904999 0.017303 0.178192
0.037292 0.066986 0.117249
0.057617 0.079193 0.144379
0.154846 0.097534 0.139709
0.309906 0.079651 0.145325
0.446808 0.043823 0.146301
0.563904 0.053101 0.154480
0.683289 0.063568 0.163940
0.805176 0.073608 0.174500
0.926697 0.084015 0.185303
0.052704 0.146301 0.149780
0.075226 0.162079 0.166351
0.171631 0.186920 0.180939
0.361115 0.210114 0.200500
0.497894 0.204254 0.195435
0.620026 0.188293 0.189331
0.736938 0.174469 0.186340
0.850555 0.179871 0.189636
0.961639 0.202698 0.199249
0.060608 0.220581 0.141235
0.072784 0.239380 0.142212
0.184570 0.258972 0.163910
0.371674 0.328369 0.201111
0.509613 0.360931 0.224487
0.630371 0.360016 0.221100
0.750214 0.356293 0.213593
0.867920 0.355011 0.210144
0.976471 0.365173 0.218292
0.088837 0.300201 0.108856
0.169891 0.314514 0.144226
0.283722 0.348999 0.146698
0.403046 0.413605 0.157104
0.524872 0.468048 0.197784
0.635254 0.492432 0.220764
0.750336 0.494568 0.219513
0.870270 0.494781 0.218262
0.984344 0.499573 0.229218
0.229126 0.384735 0.154724
0.285950 0.408752 0.155945
0.391327 0.442200 0.153046
0.475250 0.488647 0.139191
0.552429 0.564270 0.131042
0.655762 0.592041 0.159760
0.758514 0.617249 0.202179
0.870392 0.623810 0.213379
0.986389 0.626373 0.229370
0.330261 0.488098 0.219330
0.397980 0.508026 0.220551
0.479828 0.533936 0.214233
0.552582 0.567047 0.197388
0.604187 0.635651 0.165436
0.677704 0.691589 0.132507
0.778839 0.714142 0.161041
0.877228 0.740875 0.197418
0.986023 0.749908 0.221313
0.425537 0.589325 0.311310
0.484436 0.605286 0.310730
0.554413 0.626770 0.304840
0.621552 0.652649 0.292206
0.671387 0.698242 0.261169
0.712372 0.768921 0.207184
0.794678 0.814789 0.166870
0.894745 0.841888 0.203003
0.983978 0.868195 0.228760
0.499359 0.687653 0.407532
0.551758 0.702118 0.407288
0.616943 0.721405 0.402954
0.675018 0.748260 0.392487
0.729645 0.784607 0.372406
0.765808 0.845673 0.321136
0.814056 0.912048 0.249573
0.902710 0.948730 0.249359
0.974884 0.973114 0.391449
0.037476 0.029236 0.121216
0.065491 0.040802 0.141266
0.109283 0.057220 0.149292
0.207214 0.071350 0.166687
0.342651 0.063995 0.191681
0.490295 0.017395 0.216522
0.625458 0.010315 0.240997
0.759277 0.013275 0.260162
0.889801 0.017090 0.278748
0.055878 0.076935 0.173645
0.074402 0.084259 0.204773
0.127350 0.106873 0.198486
0.240570 0.119537 0.209839
0.380859 0.102539 0.221069
0.525299 0.055969 0.235779
0.655487 0.051697 0.253174
0.785583 0.065247 0.270935
0.913910 0.078735 0.291504
0.080597 0.156158 0.241913
0.101196 0.168549 0.263885
0.134155 0.190460 0.296082
0.293243 0.225128 0.285095
0.456665 0.211670 0.290100
0.598907 0.182617 0.292725
0.725311 0.150818 0.292053
0.840790 0.154602 0.299438
0.955200 0.186615 0.316528
0.090210 0.260620 0.274414
0.113861 0.278198 0.291077
0.157715 0.310852 0.319550
0.319153 0.340729 0.337463
0.504974 0.364929 0.358612
0.632019 0.358704 0.351044
0.750336 0.352264 0.343506
0.866882 0.348969 0.340363
0.973572 0.360931 0.348206
0.102844 0.344269 0.273132
0.119324 0.361237 0.278900
0.172668 0.385895 0.287109
0.328888 0.403351 0.313965
0.505859 0.472992 0.360992
0.631958 0.498413 0.370331
0.750549 0.496765 0.364197
0.871216 0.494965 0.359589
0.983215 0.498840 0.364044
0.122711 0.422272 0.268005
0.162262 0.435913 0.271759
0.268280 0.460266 0.288605
0.410370 0.486237 0.318207
0.526855 0.544281 0.334961
0.642029 0.597351 0.357086
0.754547 0.622406 0.364716
0.870422 0.625092 0.363068
0.986603 0.626038 0.365692
0.225861 0.506500 0.294464
0.280609 0.522522 0.305756
0.392517 0.544403 0.332886
0.503326 0.571472 0.335693
0.587738 0.609406 0.335571
0.664398 0.683929 0.335541
0.769592 0.718842 0.341156
0.874939 0.744476 0.358490
0.986298 0.750183 0.358612
0.340942 0.599121 0.358276
0.405151 0.611145 0.380859
0.484161 0.633392 0.379578
0.580719 0.657715 0.378418
0.658173 0.686920 0.372345
0.711823 0.750275 0.352844
0.785339 0.816559 0.331085
0.890778 0.847504 0.341187
0.983429 0.870544 0.369141
0.442230 0.691956 0.442719
0.492554 0.708069 0.451599
0.562927 0.726959 0.449554
0.641754 0.751282 0.445526
0.711975 0.786072 0.439484
0.770233 0.834930 0.420227
0.816193 0.906555 0.382446
0.896820 0.953888 0.384125
0.973267 0.974762 0.494324
0.070435 0.044586 0.174225
0.090027 0.058868 0.177582
0.115479 0.073700 0.181152
0.186554 0.089600 0.224396
0.293396 0.105682 0.232452
0.419861 0.103210 0.263611
0.568848 0.072540 0.301086
0.718842 0.021393 0.331177
0.858887 0.016937 0.361908
0.078125 0.085754 0.240509
0.097137 0.094757 0.260254
0.133270 0.111694 0.261017
0.214447 0.142578 0.265289
0.323425 0.141602 0.266449
0.447601 0.136139 0.288605
0.594543 0.111877 0.320831
0.744995 0.064941 0.347412
0.886292 0.070038 0.377411
0.097321 0.166229 0.302521
0.114807 0.177094 0.320984
0.141235 0.195038 0.354004
0.243805 0.234894 0.353607
0.391846 0.247681 0.351807
0.520905 0.228699 0.359222
0.660095 0.198730 0.372681
0.798889 0.147095 0.381927
0.941437 0.179535 0.412811
0.111694 0.273804 0.375671
0.135712 0.287689 0.393951
0.177765 0.319366 0.433441
0.287659 0.356140 0.454285
0.455109 0.399536 0.452545
0.595337 0.380157 0.449280
0.730652 0.355804 0.448059
0.857849 0.341064 0.446808
0.967651 0.356781 0.458405
0.119995 0.389648 0.412872
0.146515 0.407196 0.428436
0.190491 0.442657 0.459137
0.319397 0.474579 0.479065
0.468323 0.493683 0.485657
0.624237 0.507843 0.499512
0.750031 0.499237 0.491577
0.870422 0.492493 0.483887
0.978363 0.497955 0.488220
0.147308 0.494873 0.442047
0.176086 0.509796 0.448853
0.237976 0.529388 0.453217
0.343811 0.538147 0.455048
0.468964 0.541687 0.467041
0.619110 0.596954 0.502838
0.749969 0.626373 0.505920
0.870544 0.625549 0.499054
0.984924 0.626068 0.498535
0.197144 0.565704 0.436340
0.230652 0.576294 0.440826
0.302429 0.589752 0.445862
0.403625 0.597809 0.452789
0.520599 0.610626 0.476135
0.634979 0.659454 0.490356
0.752563 0.716949 0.504486
0.870941 0.746338 0.501831
0.985199 0.750488 0.497009
0.276550 0.635651 0.453583
0.314087 0.648529 0.460999
0.389435 0.662689 0.467407
0.497437 0.675079 0.487122
0.596436 0.695740 0.497711
0.690247 0.732422 0.502258
0.772461 0.805420 0.503082
0.881134 0.848114 0.507050
0.981201 0.871307 0.511536
0.363770 0.716431 0.493591
0.408722 0.735291 0.507355
0.486115 0.751312 0.515717
0.580536 0.768005 0.529968
0.665558 0.796417 0.535156
0.750122 0.835999 0.538055
0.819305 0.895874 0.531586
0.893402 0.953217 0.541870
0.973663 0.980316 0.577423
0.098999 0.067413 0.212250
0.114014 0.077789 0.216827
0.136200 0.092865 0.223999
0.182983 0.108063 0.255188
0.280609 0.124817 0.288696
0.375885 0.137756 0.293213
0.494385 0.139771 0.329987
0.644135 0.128754 0.382080
0.805115 0.104523 0.430115
0.104187 0.103058 0.298676
0.123199 0.113617 0.305664
0.151733 0.129913 0.311951
0.198608 0.160522 0.307495
0.315125 0.180908 0.338684
0.402649 0.169250 0.321747
0.516724 0.170197 0.351807
0.667053 0.166931 0.402100
0.830505 0.160126 0.452362
0.114014 0.180634 0.361755
0.129730 0.190460 0.378815
0.151917 0.207886 0.408630
0.198364 0.233582 0.436340
0.369934 0.293274 0.425140
0.479034 0.274933 0.409637
0.581085 0.247711 0.414032
0.717407 0.231232 0.444244
0.879761 0.253235 0.495972
0.125885 0.284576 0.445343
0.147949 0.296509 0.461792
0.180298 0.321899 0.493835
0.251862 0.363403 0.532104
0.405884 0.412689 0.517548
0.543701 0.426666 0.515869
0.661041 0.403442 0.517578
0.796448 0.379852 0.530365
0.933685 0.380066 0.551514
0.132355 0.406006 0.513367
0.160309 0.419922 0.528900
0.202087 0.448822 0.559631
0.317322 0.490143 0.594910
0.454010 0.517059 0.594971
0.583069 0.548370 0.586121
0.707947 0.529572 0.585052
0.843262 0.505219 0.585602
0.965088 0.502319 0.592010
0.143524 0.528046 0.556610
0.176544 0.543945 0.569427
0.230133 0.564270 0.583832
0.339233 0.595276 0.604553
0.469818 0.611176 0.609100
0.588318 0.619415 0.606506
0.731628 0.634308 0.623596
0.863007 0.628326 0.620422
0.977905 0.626465 0.619476
0.197388 0.624664 0.580078
0.233276 0.637024 0.586761
0.286469 0.654144 0.594543
0.386200 0.669678 0.598358
0.490570 0.669250 0.596466
0.590790 0.667847 0.600922
0.724365 0.712860 0.628510
0.864807 0.747925 0.632812
0.982727 0.751038 0.630127
0.255219 0.696655 0.579193
0.292328 0.709595 0.587158
0.354218 0.722351 0.593719
0.440552 0.728455 0.597748
0.533051 0.731110 0.603394
0.633453 0.740967 0.618378
0.741974 0.785858 0.632782
0.864746 0.844727 0.646057
0.978058 0.871460 0.641632
0.327728 0.764038 0.597046
0.371277 0.783264 0.610321
0.435638 0.798065 0.618500
0.513611 0.809052 0.624176
0.602020 0.824707 0.635162
0.697784 0.848969 0.652435
0.794769 0.889893 0.663757
0.886108 0.948120 0.673859
0.969299 0.979248 0.691040
0.125397 0.090302 0.263336
0.140503 0.100494 0.269684
0.160828 0.115448 0.281006
0.196350 0.138489 0.300903
0.288177 0.160065 0.353088
0.378510 0.164032 0.351166
0.460205 0.175140 0.357635
0.574188 0.184143 0.400482
0.723999 0.182892 0.464233
0.132111 0.127808 0.351807
0.149017 0.138000 0.359131
0.172119 0.153961 0.372711
0.211761 0.182556 0.390869
0.320770 0.228973 0.402771
0.418518 0.220520 0.400513
0.486359 0.207855 0.385284
0.597992 0.217987 0.424164
0.750671 0.230621 0.490967
0.130676 0.199646 0.425049
0.145538 0.209381 0.440491
0.165619 0.226746 0.465332
0.209381 0.254669 0.492554
0.345764 0.321747 0.483185
0.477112 0.340027 0.495667
0.559174 0.310272 0.468506
0.649872 0.286255 0.477051
0.798065 0.307281 0.539337
0.140320 0.301453 0.506500
0.160583 0.312836 0.521515
0.187134 0.333923 0.548676
0.235352 0.371246 0.590698
0.367889 0.417114 0.591217
0.520447 0.464874 0.578461
0.620483 0.455078 0.569977
0.723206 0.436615 0.577728
0.855682 0.432556 0.612579
0.141815 0.419708 0.594025
0.169495 0.432312 0.609467
0.205627 0.455688 0.637512
0.296692 0.492828 0.671509
0.428497 0.526764 0.674194
0.545929 0.561981 0.644806
0.658783 0.574982 0.645020
0.768005 0.554565 0.649689
0.899841 0.539246 0.668060
0.146790 0.542877 0.651825
0.181549 0.557343 0.665222
0.230194 0.575623 0.681854
0.325989 0.606567 0.708466
0.474304 0.634033 0.721741
0.586914 0.648438 0.711151
0.685364 0.667542 0.694794
0.805756 0.655731 0.701233
0.940155 0.641968 0.712189
0.179840 0.652283 0.681488
0.218689 0.664734 0.690308
0.268829 0.682312 0.703369
0.350555 0.706329 0.720764
0.487183 0.727081 0.730713
0.597565 0.732330 0.725830
0.692566 0.733490 0.717316
0.834381 0.752197 0.738586
0.967316 0.753662 0.746460
0.235718 0.744324 0.704071
0.275299 0.759094 0.713562
0.327972 0.775696 0.723450
0.407806 0.791840 0.730530
0.522247 0.800781 0.731232
0.618622 0.799408 0.729584
0.707642 0.799500 0.729919
0.835693 0.841034 0.756866
0.973114 0.872467 0.764740
0.293335 0.818542 0.710327
0.338318 0.839539 0.724670
0.400238 0.857025 0.734894
0.487579 0.868164 0.740570
0.577911 0.876343 0.747803
0.665375 0.885132 0.755920
0.756531 0.901215 0.766907
0.864197 0.940491 0.786102
0.960236 0.975220 0.804718
0.152344 0.117706 0.325043
0.167328 0.127869 0.333313
0.187805 0.143585 0.349609
0.220551 0.169342 0.370483
0.291840 0.206970 0.403503
0.410431 0.222992 0.442169
0.483459 0.219635 0.427826
0.555878 0.229858 0.436432
0.658447 0.243103 0.477600
0.156830 0.156219 0.412476
0.172913 0.166199 0.420013
0.194061 0.182037 0.436340
0.228394 0.209686 0.464050
0.300140 0.261780 0.462280
0.443512 0.297729 0.499268
0.522339 0.278320 0.475403
0.585419 0.270966 0.468384
0.687103 0.289764 0.508698
0.147156 0.223694 0.489777
0.163849 0.236145 0.503693
0.186829 0.251801 0.519836
0.226227 0.279205 0.545776
0.303802 0.326813 0.569366
0.477722 0.394775 0.563690
0.571747 0.388214 0.557587
0.642517 0.370453 0.541168
0.735748 0.373291 0.566925
0.154785 0.323059 0.569763
0.175262 0.335693 0.585907
0.200989 0.356995 0.611206
0.246368 0.384338 0.639343
0.331238 0.424561 0.659973
0.495483 0.484436 0.634674
0.605621 0.501312 0.636414
0.690765 0.492706 0.625275
0.784546 0.489075 0.642517
0.155273 0.436890 0.667389
0.182404 0.450653 0.683777
0.216644 0.472748 0.708344
0.278931 0.497253 0.731598
0.392639 0.531921 0.744293
0.518585 0.567169 0.714111
0.638794 0.602173 0.697235
0.724152 0.600616 0.695496
0.821838 0.588287 0.706238
0.154144 0.558868 0.744537
0.191193 0.569946 0.755463
0.237396 0.585571 0.771210
0.314514 0.611572 0.796753
0.456726 0.639923 0.807434
0.572723 0.660950 0.790527
0.660095 0.682587 0.752167
0.753601 0.693604 0.751007
0.859039 0.681793 0.761719
0.176575 0.665924 0.774048
0.216827 0.678711 0.784607
0.264099 0.695007 0.799408
0.341431 0.718628 0.820892
0.477783 0.743744 0.836365
0.607635 0.758667 0.835449
0.703217 0.764313 0.813721
0.780487 0.776459 0.796753
0.902161 0.774658 0.813049
0.210052 0.765594 0.798920
0.252625 0.781219 0.810303
0.303497 0.799103 0.823822
0.377533 0.819305 0.838623
0.496399 0.839600 0.849304
0.622437 0.851166 0.850494
0.719269 0.855255 0.844543
0.804779 0.856018 0.835388
0.942413 0.875397 0.860443
0.259979 0.853394 0.820618
0.307739 0.876221 0.836914
0.371216 0.899689 0.852020
0.455658 0.916016 0.859558
0.565521 0.928375 0.863586
0.663849 0.936737 0.866394
0.753265 0.940277 0.867462
0.842224 0.947479 0.871063
0.947144 0.973328 0.890747
0.178314 0.148529 0.396301
0.193390 0.158600 0.404846
0.213226 0.173706 0.420685
0.243622 0.198853 0.446014
0.300415 0.247162 0.470551
0.441772 0.299316 0.528564
0.533234 0.303802 0.532837
0.593079 0.299438 0.520264
0.647400 0.300842 0.519318
0.177307 0.186615 0.479584
0.194122 0.196960 0.489075
0.214172 0.212921 0.507080
0.246124 0.237976 0.531067
0.308685 0.288269 0.560608
0.459778 0.361084 0.566956
0.556793 0.371399 0.580872
0.625793 0.363708 0.565643
0.678711 0.353210 0.556824
0.169220 0.254913 0.550354
0.187775 0.263794 0.558655
0.211609 0.280792 0.576294
0.247986 0.308533 0.603210
0.316498 0.354492 0.632355
0.467987 0.429626 0.612396
0.576660 0.451050 0.635681
0.658844 0.450745 0.626251
0.723022 0.448395 0.621033
0.173462 0.353638 0.639130
0.195770 0.365540 0.652222
0.224030 0.380432 0.668152
0.266235 0.404724 0.692596
0.342743 0.443115 0.716858
0.477844 0.495361 0.700378
0.599609 0.537048 0.687805
0.684296 0.542358 0.689087
0.756470 0.541809 0.683990
0.172516 0.464478 0.738831
0.202393 0.474701 0.749481
0.238556 0.488342 0.763458
0.289642 0.509857 0.784210
0.374756 0.540039 0.803253
0.508148 0.578583 0.779663
0.617645 0.616241 0.747528
0.708649 0.632538 0.747314
0.784119 0.632202 0.743469
0.171997 0.572784 0.816528
0.209442 0.583954 0.827789
0.252899 0.598663 0.843384
0.319458 0.620056 0.865021
0.442902 0.646362 0.876282
0.555969 0.669678 0.859436
0.645477 0.691528 0.814087
0.736694 0.715088 0.796082
0.813232 0.719299 0.797821
0.181213 0.676544 0.864258
0.222565 0.689453 0.876038
0.269409 0.704773 0.891510
0.342407 0.726349 0.913055
0.468109 0.750702 0.929657
0.609070 0.765717 0.915649
0.705078 0.778046 0.882751
0.766144 0.792694 0.848663
0.853363 0.802948 0.853546
0.198700 0.775970 0.889557
0.243744 0.792480 0.902679
0.294891 0.810272 0.917389
0.367340 0.830505 0.934082
0.490387 0.852112 0.946442
0.638489 0.865631 0.942566
0.743195 0.875702 0.937134
0.822388 0.879486 0.917328
0.895508 0.887299 0.904541
0.229584 0.869781 0.912994
0.281250 0.895416 0.932129
0.349854 0.920776 0.947998
0.450775 0.936951 0.954987
0.554382 0.951904 0.959869
0.660889 0.962494 0.959930
0.758209 0.969299 0.956604
0.846527 0.972839 0.951447
0.929718 0.973236 0.947266
