src/assets/luts/ON1 Nature & Wildlife LUTs/CinematicX LUTs - 30 Free Cinematic LUTs - The Resolve Store 2022/Maltilde - Rec709.cube
# Copyright: (C) Copyright 2022 The Resolve Store 
# Cannot be resold, shared or otherwise redistributed
TITLE "CinematicX (Rec.709)"
LUT_3D_SIZE 5
0.000000 0.000000 0.000000
0.154297 0.023560 0.001678
0.414703 0.025024 0.000000
0.662048 0.031067 0.000885
0.915680 0.041107 0.003052
0.039001 0.120514 0.018127
0.231720 0.173035 0.007050
0.487823 0.217285 0.006470
0.725006 0.226868 0.005829
0.957977 0.247284 0.006256
0.234833 0.299561 0.014771
0.347565 0.354248 0.014893
0.532166 0.454315 0.026031
0.742035 0.493683 0.014343
0.979309 0.501526 0.010834
0.442474 0.507965 0.167816
0.527679 0.542267 0.124664
0.611969 0.648682 0.046234
0.781372 0.705597 0.042755
0.983368 0.748718 0.017548
0.568848 0.686371 0.363708
0.653625 0.719757 0.347565
0.726105 0.791412 0.265961
0.816833 0.902222 0.060089
0.973877 0.961151 0.244507
0.014526 0.015930 0.067993
0.122650 0.037292 0.097443
0.398529 0.005524 0.129700
0.652130 0.010620 0.157990
0.904999 0.017303 0.178192
0.052704 0.146301 0.149780
0.171631 0.186920 0.180939
0.497894 0.204254 0.195435
0.736938 0.174469 0.186340
0.961639 0.202698 0.199249
0.088837 0.300201 0.108856
0.283722 0.348999 0.146698
0.524872 0.468048 0.197784
0.750336 0.494568 0.219513
0.984344 0.499573 0.229218
0.330261 0.488098 0.219330
0.479828 0.533936 0.214233
0.604187 0.635651 0.165436
0.778839 0.714142 0.161041
0.986023 0.749908 0.221313
0.499359 0.687653 0.407532
0.616943 0.721405 0.402954
0.729645 0.784607 0.372406
0.814056 0.912048 0.249573
0.974884 0.973114 0.391449
0.070435 0.044586 0.174225
0.115479 0.073700 0.181152
0.293396 0.105682 0.232452
0.568848 0.072540 0.301086
0.858887 0.016937 0.361908
0.097321 0.166229 0.302521
0.141235 0.195038 0.354004
0.391846 0.247681 0.351807
0.660095 0.198730 0.372681
0.941437 0.179535 0.412811
0.119995 0.389648 0.412872
0.190491 0.442657 0.459137
0.468323 0.493683 0.485657
0.750031 0.499237 0.491577
0.978363 0.497955 0.488220
0.197144 0.565704 0.436340
0.302429 0.589752 0.445862
0.520599 0.610626 0.476135
0.752563 0.716949 0.504486
0.985199 0.750488 0.497009
0.363770 0.716431 0.493591
0.486115 0.751312 0.515717
0.665558 0.796417 0.535156
0.819305 0.895874 0.531586
0.973663 0.980316 0.577423
0.125397 0.090302 0.263336
0.160828 0.115448 0.281006
0.288177 0.160065 0.353088
0.460205 0.175140 0.357635
0.723999 0.182892 0.464233
0.130676 0.199646 0.425049
0.165619 0.226746 0.465332
0.345764 0.321747 0.483185
0.559174 0.310272 0.468506
0.798065 0.307281 0.539337
0.141815 0.419708 0.594025
0.205627 0.455688 0.637512
0.428497 0.526764 0.674194
0.658783 0.574982 0.645020
0.899841 0.539246 0.668060
0.179840 0.652283 0.681488
0.268829 0.682312 0.703369
0.487183 0.727081 0.730713
0.692566 0.733490 0.717316
0.967316 0.753662 0.746460
0.293335 0.818542 0.710327
0.400238 0.857025 0.734894
0.577911 0.876343 0.747803
0.756531 0.901215 0.766907
0.960236 0.975220 0.804718
0.178314 0.148529 0.396301
0.213226 0.173706 0.420685
0.300415 0.247162 0.470551
0.533234 0.303802 0.532837
0.647400 0.300842 0.519318
0.169220 0.254913 0.550354
0.211609 0.280792 0.576294
0.316498 0.354492 0.632355
0.576660 0.451050 0.635681
0.723022 0.448395 0.621033
0.172516 0.464478 0.738831
0.238556 0.488342 0.763458
0.374756 0.540039 0.803253
0.617645 0.616241 0.747528
0.784119 0.632202 0.743469
0.181213 0.676544 0.864258
0.269409 0.704773 0.891510
0.468109 0.750702 0.929657
0.705078 0.778046 0.882751
0.853363 0.802948 0.853546
0.229584 0.869781 0.912994
0.349854 0.920776 0.947998
0.554382 0.951904 0.959869
0.758209 0.969299 0.956604
0.929718 0.973236 0.947266
