src/assets/luts/ON1 Nature & Wildlife LUTs/CinematicX LUTs - 30 Free Cinematic LUTs - The Resolve Store 2022/Pastillo - Rec709.cube
# Copyright: (C) Copyright 2022 The Resolve Store 
# Cannot be resold, shared or otherwise redistributed
TITLE "CinematicX (Rec.709)"
LUT_3D_SIZE 33
0.000000 0.000000 0.000000
0.011353 0.000885 0.000763
0.023499 0.001740 0.001617
0.037781 0.002838 0.002502
0.053986 0.004303 0.003754
0.071777 0.006195 0.005188
0.090393 0.009155 0.006470
0.112030 0.013000 0.008362
0.135590 0.017761 0.010498
0.160919 0.023132 0.013611
0.187134 0.029846 0.017212
0.213623 0.036072 0.020752
0.239990 0.043304 0.024811
0.266327 0.050079 0.029266
0.292969 0.057068 0.034546
0.319580 0.064453 0.039856
0.346100 0.072113 0.045563
0.372437 0.079681 0.051117
0.398956 0.087952 0.057251
0.425446 0.095978 0.063110
0.451630 0.104645 0.068756
0.477722 0.112823 0.074219
0.503967 0.121429 0.079987
0.530365 0.130066 0.085632
0.556335 0.138672 0.091278
0.582367 0.147247 0.096893
0.608307 0.155975 0.102295
0.634216 0.164764 0.107758
0.659943 0.173309 0.113190
0.685394 0.181702 0.118652
0.710724 0.190247 0.123810
0.735687 0.198578 0.129089
0.760437 0.206421 0.134247
0.004395 0.007050 0.001190
0.018616 0.007843 0.001831
0.036682 0.009796 0.003387
0.055420 0.012421 0.005157
0.071991 0.015228 0.006500
0.088745 0.018127 0.007690
0.107330 0.021179 0.009094
0.128479 0.025269 0.011353
0.151184 0.029846 0.013275
0.174896 0.034973 0.016479
0.199982 0.041168 0.019989
0.225433 0.047028 0.023590
0.251007 0.053314 0.027313
0.276642 0.059418 0.031769
0.301910 0.065399 0.036346
0.328125 0.072723 0.042389
0.354614 0.080872 0.047699
0.380524 0.088470 0.053375
0.406647 0.096283 0.059052
0.432983 0.104950 0.064728
0.459015 0.113403 0.070343
0.484894 0.121674 0.075958
0.510681 0.130127 0.081512
0.536652 0.138824 0.087067
0.562592 0.147705 0.092468
0.588501 0.156433 0.098022
0.614319 0.165253 0.103485
0.640259 0.174164 0.108978
0.665894 0.182922 0.114532
0.691101 0.191467 0.119690
0.716095 0.200043 0.125092
0.740784 0.208191 0.130096
0.765594 0.215698 0.135468
0.016998 0.016205 0.002960
0.034668 0.017700 0.003845
0.048615 0.019897 0.005432
0.066193 0.023132 0.007050
0.084778 0.027771 0.009216
0.103363 0.032043 0.010529
0.123230 0.035767 0.012421
0.144501 0.039978 0.014526
0.166626 0.044159 0.016632
0.189941 0.049103 0.019409
0.213898 0.054352 0.022705
0.238983 0.059937 0.026825
0.264160 0.065826 0.030731
0.289246 0.071716 0.034973
0.314117 0.077606 0.039886
0.339386 0.084015 0.045288
0.365387 0.091980 0.050690
0.391022 0.099640 0.056030
0.416779 0.107452 0.061462
0.442291 0.115295 0.066864
0.467804 0.123718 0.072479
0.493866 0.132599 0.077942
0.519562 0.141174 0.083588
0.544769 0.149536 0.088776
0.570221 0.158051 0.094147
0.596405 0.167389 0.099640
0.622284 0.176422 0.105194
0.647736 0.185272 0.110748
0.672821 0.193542 0.115997
0.697937 0.202026 0.121155
0.722687 0.210541 0.126373
0.746948 0.218719 0.131348
0.771423 0.226868 0.136475
0.036194 0.027679 0.004883
0.052216 0.029541 0.006073
0.065765 0.031982 0.007538
0.078766 0.035156 0.009857
0.096497 0.040314 0.011719
0.117554 0.046631 0.013275
0.139130 0.051971 0.015472
0.161316 0.057220 0.017639
0.184326 0.061462 0.020203
0.207886 0.066101 0.023254
0.231781 0.071259 0.026550
0.256256 0.076630 0.030640
0.280884 0.081848 0.035095
0.305542 0.087860 0.039154
0.330597 0.094055 0.044586
0.355499 0.100189 0.049713
0.380219 0.106934 0.054626
0.405426 0.114563 0.059662
0.430847 0.122467 0.065002
0.456024 0.130249 0.070190
0.480957 0.138367 0.075409
0.506500 0.146698 0.080872
0.531708 0.155304 0.086273
0.556854 0.163757 0.091461
0.582245 0.172333 0.096710
0.607452 0.180847 0.102173
0.632904 0.189911 0.107544
0.657959 0.198761 0.112885
0.682526 0.206909 0.118073
0.706757 0.214752 0.123077
0.730713 0.222809 0.127930
0.754700 0.231110 0.132935
0.778931 0.238922 0.137970
0.057617 0.042633 0.007202
0.070953 0.044464 0.008423
0.082703 0.047028 0.010193
0.096344 0.050232 0.012177
0.111176 0.054993 0.014832
0.130981 0.061554 0.016266
0.153961 0.069489 0.018738
0.178040 0.076263 0.021118
0.202484 0.081604 0.023621
0.226929 0.086670 0.027313
0.251404 0.091370 0.030518
0.276215 0.095947 0.034790
0.300629 0.101501 0.039154
0.325104 0.107422 0.044250
0.349670 0.113373 0.049347
0.374298 0.119720 0.054382
0.398956 0.126587 0.058960
0.423706 0.133911 0.064331
0.448181 0.141205 0.069244
0.472778 0.148743 0.074432
0.497650 0.156647 0.079376
0.522491 0.164398 0.084473
0.547119 0.172577 0.089905
0.571991 0.181061 0.094910
0.596741 0.189301 0.100159
0.621368 0.197784 0.105347
0.646027 0.205994 0.110626
0.670319 0.214020 0.115417
0.694427 0.222534 0.120544
0.718323 0.230591 0.125549
0.741699 0.238403 0.130341
0.765045 0.245361 0.135162
0.788452 0.253235 0.140045
0.076447 0.060913 0.009705
0.088440 0.062775 0.011017
0.100128 0.065521 0.012634
0.114502 0.069275 0.015350
0.131195 0.074188 0.018524
0.148743 0.080261 0.020905
0.169586 0.088348 0.022583
0.194244 0.096893 0.024719
0.219757 0.103973 0.027496
0.245361 0.109863 0.031494
0.270508 0.115204 0.034851
0.295410 0.120087 0.038727
0.320282 0.125031 0.043610
0.345032 0.130219 0.048553
0.369324 0.135895 0.053528
0.393829 0.141754 0.058380
0.418152 0.148193 0.063507
0.442505 0.154968 0.068573
0.466797 0.162231 0.073578
0.491150 0.169891 0.078522
0.515564 0.177734 0.083313
0.540070 0.185394 0.088593
0.564545 0.193176 0.093781
0.588776 0.201385 0.098755
0.612885 0.209137 0.103760
0.636993 0.217133 0.108948
0.661133 0.224915 0.113770
0.684906 0.232971 0.118713
0.708344 0.240387 0.123566
0.731781 0.248169 0.128510
0.755035 0.255768 0.133270
0.778015 0.263275 0.137970
0.800140 0.269775 0.142548
0.096680 0.083923 0.013458
0.108215 0.086121 0.015137
0.119476 0.088562 0.017487
0.134125 0.092285 0.020203
0.152100 0.097351 0.023865
0.171173 0.103638 0.026642
0.190063 0.111511 0.028351
0.212402 0.120087 0.029938
0.237976 0.128479 0.032776
0.263611 0.136078 0.036072
0.289032 0.142487 0.039398
0.314362 0.147552 0.043518
0.339355 0.152496 0.047974
0.364227 0.157196 0.052673
0.388794 0.162262 0.057587
0.412903 0.167511 0.062164
0.437286 0.173096 0.067383
0.461487 0.179474 0.072449
0.485535 0.186188 0.077362
0.509552 0.193085 0.082458
0.533569 0.200439 0.087280
0.557861 0.207855 0.092468
0.582001 0.215485 0.097382
0.605774 0.223206 0.102448
0.629272 0.230591 0.107330
0.652954 0.238586 0.112183
0.676727 0.245972 0.117126
0.700195 0.253540 0.122101
0.723328 0.260712 0.126953
0.746246 0.268097 0.131653
0.769012 0.275208 0.136261
0.791473 0.282166 0.140839
0.813721 0.289154 0.145355
0.119873 0.111877 0.018402
0.130157 0.114166 0.020142
0.140869 0.116699 0.021820
0.155762 0.120453 0.025208
0.174042 0.125092 0.028839
0.194275 0.130615 0.033020
0.214569 0.138550 0.035400
0.235138 0.147583 0.036957
0.257904 0.156555 0.038269
0.282867 0.164825 0.041016
0.307831 0.171936 0.044830
0.332733 0.177612 0.048462
0.357666 0.182739 0.052399
0.382568 0.187531 0.056946
0.407074 0.192078 0.061584
0.431396 0.196686 0.066284
0.455566 0.201782 0.071198
0.479523 0.207214 0.076050
0.503479 0.213074 0.081024
0.527313 0.219208 0.086060
0.550964 0.225677 0.090912
0.574738 0.232544 0.095917
0.598419 0.239441 0.100861
0.621948 0.246429 0.105957
0.645203 0.253479 0.110535
0.668518 0.260925 0.115417
0.691711 0.268158 0.120331
0.714783 0.275299 0.125031
0.737640 0.282227 0.129791
0.760071 0.289215 0.134491
0.782440 0.295929 0.139038
0.804626 0.302399 0.143524
0.826599 0.308929 0.148071
0.144714 0.143005 0.024567
0.154114 0.145477 0.025940
0.164246 0.148285 0.028076
0.178345 0.151947 0.030670
0.196503 0.156433 0.034729
0.218536 0.162231 0.040161
0.240234 0.169434 0.043182
0.260651 0.178589 0.045074
0.281433 0.188293 0.046234
0.304047 0.196960 0.047974
0.328339 0.203918 0.050903
0.352081 0.209991 0.054077
0.375977 0.215332 0.057800
0.400024 0.220123 0.061798
0.424225 0.224609 0.065796
0.448334 0.228943 0.070404
0.472290 0.233276 0.074982
0.496155 0.237915 0.079651
0.520020 0.242859 0.084686
0.543732 0.248108 0.089478
0.567230 0.253723 0.094299
0.590729 0.259491 0.099152
0.614105 0.265503 0.104065
0.637238 0.271881 0.108856
0.660309 0.278290 0.113647
0.683197 0.284851 0.118469
0.706024 0.291443 0.123230
0.728882 0.297791 0.127747
0.751251 0.304504 0.132385
0.773499 0.310944 0.137238
0.795563 0.317200 0.141724
0.817261 0.323730 0.146118
0.838898 0.330109 0.150604
0.169586 0.177185 0.031586
0.178223 0.179718 0.032593
0.188141 0.182526 0.033997
0.201965 0.186707 0.037170
0.220276 0.191650 0.041779
0.242920 0.197235 0.047150
0.266327 0.203857 0.051880
0.287903 0.212067 0.054291
0.307770 0.221985 0.054901
0.328339 0.231750 0.055725
0.350464 0.239380 0.057648
0.372894 0.245331 0.060638
0.395020 0.250122 0.063812
0.417450 0.254639 0.067017
0.440216 0.258972 0.070374
0.463562 0.262878 0.074493
0.487152 0.266876 0.078735
0.510834 0.270935 0.083344
0.534546 0.275085 0.087799
0.558228 0.279419 0.092499
0.581787 0.283875 0.097351
0.605225 0.288666 0.102203
0.628479 0.293884 0.106842
0.651581 0.299072 0.111664
0.674377 0.304840 0.116486
0.697021 0.310516 0.121063
0.719666 0.316223 0.125763
0.741943 0.322113 0.130463
0.764313 0.327972 0.135040
0.786377 0.333618 0.139557
0.808075 0.339569 0.144135
0.829529 0.345581 0.148590
0.850983 0.351196 0.152954
0.197205 0.214661 0.040009
0.204529 0.216949 0.040741
0.214905 0.219940 0.042053
0.228210 0.224121 0.044464
0.245850 0.229156 0.048431
0.268005 0.234863 0.053741
0.292480 0.241272 0.059082
0.315277 0.248810 0.062683
0.335815 0.258118 0.064392
0.354462 0.268188 0.064819
0.374023 0.277069 0.066132
0.394531 0.283478 0.068176
0.415161 0.287750 0.070190
0.435730 0.291260 0.072968
0.456635 0.294617 0.076172
0.478210 0.297852 0.079254
0.500763 0.301239 0.082916
0.523804 0.304657 0.086731
0.547302 0.308228 0.091003
0.570679 0.311951 0.095642
0.594269 0.315613 0.100189
0.617737 0.319580 0.104828
0.640930 0.323883 0.109467
0.664001 0.328369 0.114197
0.686920 0.332886 0.118896
0.709625 0.337616 0.123535
0.732147 0.342590 0.128265
0.754333 0.347626 0.132843
0.776611 0.352753 0.137482
0.798370 0.358063 0.141846
0.819977 0.363159 0.146332
0.841339 0.368439 0.150665
0.862671 0.373596 0.155182
0.226654 0.253784 0.049194
0.234009 0.255981 0.049835
0.243256 0.258728 0.050934
0.255737 0.262787 0.052917
0.273743 0.268036 0.056580
0.294586 0.274109 0.061584
0.318420 0.280579 0.066864
0.342072 0.287872 0.071503
0.362976 0.296234 0.074127
0.381134 0.305481 0.074768
0.398743 0.314240 0.075348
0.416931 0.321350 0.076385
0.435944 0.326569 0.078278
0.454865 0.329437 0.080322
0.473907 0.331451 0.082489
0.493378 0.333618 0.084961
0.514038 0.336029 0.087830
0.535889 0.338837 0.091248
0.558472 0.341797 0.094879
0.581421 0.344910 0.098755
0.604797 0.347992 0.103058
0.628174 0.351257 0.107391
0.651550 0.354767 0.111938
0.674866 0.358337 0.116577
0.697723 0.362244 0.121033
0.720581 0.366058 0.125702
0.743134 0.370117 0.130341
0.765472 0.374390 0.134979
0.787628 0.378784 0.139404
0.809418 0.383301 0.143860
0.830994 0.387848 0.148285
0.852356 0.392517 0.152710
0.873627 0.397278 0.157074
0.257233 0.293457 0.058441
0.264679 0.295807 0.059509
0.272919 0.298523 0.060547
0.286072 0.302490 0.062653
0.302246 0.307678 0.065491
0.322449 0.313782 0.070282
0.345062 0.320282 0.075806
0.368073 0.327301 0.080811
0.388916 0.335083 0.084198
0.407104 0.343109 0.085510
0.423615 0.351166 0.086060
0.439636 0.358154 0.086365
0.456329 0.363770 0.087128
0.474091 0.367676 0.088440
0.491425 0.369232 0.089935
0.509125 0.370087 0.091400
0.527679 0.371429 0.093506
0.547638 0.373230 0.096039
0.568878 0.375427 0.098907
0.590942 0.377777 0.102234
0.613739 0.380310 0.106079
0.636963 0.383148 0.109924
0.660370 0.385864 0.114166
0.683685 0.388947 0.118683
0.706818 0.392059 0.123016
0.729889 0.395233 0.127625
0.752655 0.398560 0.132233
0.775055 0.402252 0.136749
0.797333 0.405884 0.141174
0.819366 0.409637 0.145752
0.841217 0.413544 0.150085
0.862610 0.417572 0.154602
0.883972 0.421753 0.158936
0.289368 0.333557 0.069092
0.295105 0.335663 0.069946
0.304535 0.338379 0.071350
0.316132 0.342255 0.073608
0.331055 0.346985 0.076538
0.350006 0.352814 0.080292
0.371735 0.359222 0.085938
0.393250 0.365875 0.091095
0.413300 0.373016 0.094757
0.431244 0.380157 0.096924
0.447266 0.387238 0.097534
0.462158 0.393768 0.097565
0.476868 0.399109 0.097534
0.492462 0.403229 0.097748
0.508698 0.406006 0.098785
0.524872 0.406769 0.099304
0.541901 0.406891 0.100159
0.559967 0.407623 0.101654
0.579346 0.408813 0.103577
0.600128 0.410431 0.106232
0.621948 0.412445 0.109375
0.644592 0.414551 0.112823
0.667542 0.416870 0.116699
0.690948 0.419373 0.120789
0.714264 0.422028 0.124969
0.737549 0.424713 0.129333
0.760468 0.427582 0.133789
0.783234 0.430511 0.138306
0.805756 0.433563 0.142700
0.828033 0.436798 0.147217
0.850067 0.440094 0.151672
0.871735 0.443512 0.156219
0.893402 0.447052 0.160522
0.321991 0.372467 0.080627
0.327820 0.374573 0.081848
0.337036 0.377350 0.083618
0.347229 0.380676 0.085693
0.361572 0.385132 0.088745
0.377655 0.390259 0.092346
0.397675 0.396240 0.097015
0.417297 0.402557 0.102142
0.436432 0.409088 0.106293
0.453949 0.415741 0.108917
0.469360 0.422089 0.109833
0.483734 0.427979 0.110321
0.497314 0.432983 0.109680
0.510986 0.436798 0.109009
0.525269 0.439575 0.108643
0.540405 0.441498 0.108673
0.555939 0.441895 0.108612
0.572632 0.441620 0.108795
0.590302 0.441833 0.109589
0.609436 0.442657 0.111115
0.629913 0.443939 0.113342
0.651611 0.445557 0.116028
0.674103 0.447418 0.119324
0.697113 0.449463 0.123169
0.720245 0.451691 0.127045
0.743713 0.454010 0.131134
0.766907 0.456451 0.135284
0.789978 0.458954 0.139801
0.812805 0.461639 0.144165
0.835388 0.464355 0.148590
0.857697 0.467224 0.153046
0.879639 0.470245 0.157562
0.901733 0.473389 0.161957
0.354584 0.409729 0.094116
0.359589 0.411377 0.095032
0.368103 0.413940 0.097046
0.377350 0.416931 0.099091
0.390167 0.420807 0.102203
0.405548 0.425385 0.106018
0.422455 0.430817 0.109955
0.440308 0.436707 0.114349
0.458221 0.442993 0.118347
0.474762 0.449066 0.121155
0.489929 0.454773 0.123016
0.503754 0.460052 0.123444
0.516663 0.464661 0.122528
0.529266 0.468353 0.121368
0.541962 0.471161 0.119934
0.555328 0.473175 0.118774
0.569916 0.474609 0.118225
0.585022 0.474762 0.117462
0.601471 0.474335 0.117096
0.619110 0.474304 0.117249
0.638214 0.475006 0.118408
0.658691 0.476135 0.120331
0.680206 0.477600 0.122711
0.702637 0.479218 0.125854
0.725525 0.481110 0.129242
0.748871 0.483154 0.133026
0.772186 0.485382 0.137024
0.795532 0.487579 0.141174
0.818695 0.489899 0.145386
0.841522 0.492310 0.149811
0.864075 0.494873 0.154358
0.886627 0.497375 0.158661
0.909271 0.500092 0.163177
0.387421 0.444763 0.108978
0.391418 0.446167 0.110077
0.397888 0.448059 0.111603
0.406708 0.450806 0.113953
0.418732 0.454315 0.117126
0.432159 0.458466 0.120544
0.447388 0.463348 0.124237
0.463104 0.468658 0.127869
0.479156 0.474243 0.131256
0.494690 0.479950 0.134277
0.508942 0.485352 0.136047
0.522339 0.490356 0.136719
0.534790 0.494659 0.136261
0.546692 0.498260 0.134888
0.558319 0.501007 0.132751
0.570343 0.503052 0.130524
0.583282 0.504608 0.128693
0.597534 0.505768 0.127106
0.612549 0.505920 0.125885
0.628998 0.505493 0.124756
0.647003 0.505463 0.124481
0.666077 0.506134 0.125305
0.686523 0.507202 0.126892
0.708069 0.508606 0.129059
0.730499 0.510254 0.131897
0.753479 0.511993 0.135162
0.776672 0.513916 0.138855
0.800079 0.515961 0.142670
0.823364 0.518158 0.146851
0.846466 0.520386 0.151184
0.869629 0.522522 0.155457
0.892609 0.524811 0.159912
0.916016 0.526978 0.164520
0.418152 0.477020 0.124878
0.421997 0.478363 0.125946
0.427704 0.480103 0.127533
0.435852 0.482483 0.129791
0.444946 0.485321 0.132385
0.457092 0.489105 0.135620
0.471222 0.493591 0.139191
0.485413 0.498413 0.142517
0.499268 0.503540 0.145325
0.513336 0.508789 0.147797
0.527100 0.513885 0.149628
0.539856 0.518646 0.150360
0.551605 0.522858 0.150146
0.563080 0.526459 0.148743
0.574219 0.529266 0.146484
0.585236 0.531433 0.143463
0.596893 0.533020 0.140472
0.609650 0.534363 0.137543
0.623779 0.535370 0.135773
0.638855 0.535583 0.133636
0.655579 0.535400 0.132111
0.673859 0.535492 0.131409
0.693176 0.536255 0.131805
0.713745 0.537476 0.133209
0.735382 0.538910 0.135162
0.757904 0.540497 0.137939
0.780792 0.542297 0.140961
0.803955 0.544189 0.144470
0.827393 0.546234 0.148285
0.850861 0.548218 0.152405
0.874390 0.550201 0.156616
0.897949 0.552094 0.160980
0.921783 0.554230 0.165619
0.447723 0.507080 0.141693
0.451111 0.508118 0.142670
0.455658 0.509583 0.144073
0.462952 0.511719 0.146118
0.471252 0.514343 0.148529
0.481415 0.517700 0.151459
0.493591 0.521790 0.154633
0.505554 0.526093 0.157440
0.518585 0.530823 0.160126
0.531494 0.535675 0.162079
0.543793 0.540558 0.163605
0.556061 0.545074 0.164185
0.567474 0.549225 0.163940
0.578461 0.552826 0.162567
0.589081 0.555817 0.160309
0.599640 0.558228 0.157196
0.610474 0.560120 0.153412
0.622040 0.561462 0.149628
0.634796 0.562744 0.146179
0.648956 0.563721 0.143341
0.664368 0.564240 0.140991
0.681366 0.564423 0.139008
0.700073 0.564697 0.137878
0.719727 0.565582 0.138062
0.740509 0.566986 0.139160
0.762268 0.568542 0.141022
0.784668 0.570312 0.143555
0.807770 0.572083 0.146515
0.831085 0.573975 0.149994
0.854797 0.575897 0.153748
0.878632 0.577728 0.157776
0.902588 0.579559 0.162109
0.926849 0.581482 0.166565
0.474945 0.534729 0.159363
0.477814 0.535645 0.160187
0.481689 0.536957 0.161438
0.487854 0.538879 0.163177
0.495514 0.541260 0.165405
0.504150 0.544281 0.167786
0.513611 0.547668 0.170288
0.525238 0.551788 0.172913
0.536163 0.556000 0.175354
0.547607 0.560669 0.177094
0.559906 0.565216 0.178040
0.571106 0.569580 0.178284
0.582001 0.573730 0.178040
0.592590 0.577362 0.176941
0.602905 0.580536 0.174591
0.613159 0.583221 0.171295
0.623505 0.585449 0.167450
0.634308 0.587250 0.162689
0.646057 0.588684 0.158112
0.658997 0.589966 0.153900
0.673492 0.591125 0.150665
0.689178 0.591949 0.147797
0.706543 0.592560 0.145294
0.725861 0.593109 0.143982
0.745972 0.594391 0.143677
0.766998 0.596008 0.144592
0.789001 0.597748 0.146545
0.811707 0.599579 0.148804
0.834961 0.601501 0.151703
0.858734 0.603363 0.155273
0.882507 0.605255 0.158997
0.906616 0.607147 0.163177
0.931274 0.608978 0.167694
0.499542 0.560303 0.176971
0.502075 0.561188 0.177795
0.504395 0.562134 0.178558
0.511017 0.564148 0.180389
0.516815 0.566132 0.182129
0.524231 0.568878 0.184174
0.533295 0.572205 0.186432
0.542603 0.575806 0.188599
0.553253 0.579834 0.190582
0.563446 0.584015 0.192017
0.574188 0.588318 0.192963
0.585083 0.592590 0.192993
0.595581 0.596649 0.192352
0.605865 0.600342 0.191101
0.615753 0.603729 0.188904
0.625641 0.606750 0.185699
0.635803 0.609222 0.181488
0.646118 0.611450 0.176819
0.657074 0.613251 0.171234
0.669189 0.614838 0.165741
0.682495 0.616333 0.161011
0.697266 0.617798 0.157379
0.713470 0.619080 0.153870
0.731354 0.620056 0.151276
0.751343 0.621185 0.149475
0.772186 0.622772 0.148956
0.793762 0.624695 0.149872
0.815979 0.626709 0.151611
0.838989 0.628723 0.153870
0.862427 0.630829 0.156921
0.886292 0.632751 0.160492
0.910461 0.634674 0.164337
0.935364 0.636627 0.168793
0.521851 0.584320 0.194672
0.524109 0.585144 0.195465
0.526154 0.585968 0.196198
0.531006 0.587616 0.197479
0.536133 0.589508 0.198914
0.543274 0.592072 0.200714
0.551117 0.595062 0.202423
0.559570 0.598389 0.204193
0.568146 0.601959 0.205780
0.578278 0.605957 0.207062
0.588379 0.610077 0.207703
0.598389 0.614166 0.207733
0.608276 0.618164 0.207092
0.618073 0.621979 0.205719
0.627930 0.625488 0.203033
0.637451 0.628693 0.199799
0.647156 0.631622 0.195740
0.657318 0.634125 0.190796
0.667847 0.636383 0.185089
0.679108 0.638428 0.178864
0.691559 0.640442 0.172729
0.705414 0.642242 0.167236
0.720703 0.644104 0.163086
0.737549 0.645721 0.159363
0.756317 0.647522 0.156189
0.776947 0.649200 0.154297
0.798553 0.651215 0.153656
0.820557 0.653412 0.154663
0.843170 0.655670 0.156342
0.866425 0.658051 0.158936
0.890137 0.660217 0.161987
0.914307 0.662354 0.165649
0.939240 0.664337 0.169861
0.541748 0.606720 0.212097
0.543732 0.607513 0.212738
0.545898 0.608368 0.213440
0.549957 0.609772 0.214417
0.554474 0.611511 0.215637
0.560699 0.613831 0.217072
0.567108 0.616394 0.218445
0.575134 0.619507 0.220001
0.583466 0.622986 0.221161
0.592102 0.626617 0.222229
0.601257 0.630493 0.222656
0.610809 0.634430 0.222565
0.620300 0.638397 0.221741
0.629669 0.642242 0.220184
0.638885 0.645844 0.217743
0.648285 0.649292 0.214142
0.657806 0.652466 0.210052
0.667450 0.655457 0.204834
0.677673 0.658173 0.198914
0.688477 0.660645 0.192413
0.700287 0.663208 0.185425
0.713379 0.665588 0.178558
0.727966 0.667969 0.172485
0.744110 0.670288 0.167725
0.761902 0.672607 0.163727
0.781433 0.674957 0.160614
0.802765 0.677338 0.158630
0.825073 0.679688 0.158112
0.847504 0.682281 0.159119
0.870544 0.684937 0.161041
0.894104 0.687439 0.163696
0.918182 0.689850 0.167023
0.943268 0.692108 0.170929
0.560486 0.627960 0.229370
0.561523 0.628479 0.229706
0.563354 0.629242 0.230316
0.566498 0.630402 0.231079
0.571014 0.632080 0.232056
0.576782 0.634216 0.233185
0.582153 0.636444 0.234375
0.589203 0.639374 0.235504
0.596985 0.642609 0.236420
0.605072 0.646027 0.237030
0.613678 0.649689 0.237274
0.622070 0.653503 0.237244
0.630920 0.657349 0.236389
0.639771 0.661194 0.234589
0.648651 0.664886 0.232086
0.657776 0.668518 0.228333
0.666901 0.672028 0.223877
0.676422 0.675293 0.218628
0.686310 0.678528 0.212433
0.696991 0.681641 0.205505
0.708496 0.684723 0.198395
0.721039 0.687805 0.190704
0.735016 0.690765 0.183319
0.750580 0.693848 0.176758
0.767822 0.696808 0.171631
0.786469 0.699799 0.167511
0.806732 0.702820 0.164551
0.828735 0.705750 0.162659
0.851807 0.708588 0.162170
0.874939 0.711639 0.163361
0.898315 0.714539 0.165588
0.922302 0.717346 0.168365
0.947876 0.719849 0.172089
0.575958 0.647369 0.245605
0.577393 0.647980 0.246033
0.578979 0.648651 0.246368
0.581543 0.649658 0.246979
0.585907 0.651276 0.247772
0.589508 0.652924 0.248535
0.595856 0.655426 0.249329
0.601837 0.658020 0.250153
0.608307 0.660950 0.250732
0.615448 0.664124 0.251160
0.623199 0.667603 0.251007
0.631592 0.671356 0.250488
0.639526 0.675110 0.249481
0.648193 0.678986 0.247742
0.656952 0.682831 0.245087
0.665741 0.686646 0.241852
0.674835 0.690399 0.237457
0.684204 0.694153 0.232208
0.694122 0.697815 0.225891
0.704651 0.701508 0.218445
0.715942 0.705109 0.211060
0.728149 0.708710 0.203094
0.741638 0.712524 0.194946
0.756714 0.716309 0.187073
0.773499 0.720154 0.180176
0.791565 0.723785 0.174988
0.811127 0.727417 0.170990
0.832214 0.731110 0.167847
0.854919 0.734802 0.166016
0.878876 0.738190 0.166046
0.902618 0.741577 0.167511
0.926544 0.744751 0.170013
0.952576 0.747772 0.173401
0.586823 0.665649 0.260498
0.588318 0.666229 0.260773
0.589813 0.666870 0.261047
0.592041 0.667816 0.261444
0.596619 0.669495 0.261993
0.599976 0.671021 0.262634
0.605530 0.673248 0.263153
0.611145 0.675720 0.263611
0.617401 0.678467 0.264038
0.624237 0.681549 0.264191
0.630951 0.684692 0.264130
0.639008 0.688354 0.263336
0.647156 0.692139 0.262146
0.655243 0.696014 0.260437
0.663910 0.699951 0.257965
0.672882 0.704041 0.254547
0.681854 0.708008 0.250519
0.691254 0.712128 0.245270
0.701111 0.716278 0.239136
0.711487 0.720398 0.231964
0.722656 0.724609 0.223755
0.734711 0.728821 0.215729
0.747925 0.733185 0.206879
0.762543 0.737823 0.198120
0.778839 0.742493 0.189911
0.796600 0.747070 0.182831
0.815704 0.751465 0.177582
0.836029 0.755707 0.173492
0.858215 0.760223 0.170685
0.881775 0.764557 0.169312
0.906403 0.768463 0.169769
0.931030 0.772064 0.171814
0.957184 0.775543 0.174927
0.594818 0.683228 0.274933
0.596405 0.683746 0.275146
0.598206 0.684387 0.275391
0.600342 0.685242 0.275665
0.604919 0.686890 0.276123
0.608246 0.688293 0.276520
0.613342 0.690399 0.276825
0.618530 0.692657 0.277191
0.624481 0.695221 0.277283
0.631104 0.698212 0.277100
0.638245 0.701447 0.276672
0.645569 0.704987 0.275818
0.653625 0.708771 0.274445
0.661530 0.712646 0.272644
0.670105 0.716644 0.270142
0.678925 0.720886 0.266937
0.688049 0.725220 0.262756
0.697601 0.729675 0.257660
0.707306 0.734100 0.251801
0.717621 0.738678 0.245026
0.728790 0.743439 0.237061
0.740784 0.748291 0.228210
0.753723 0.753204 0.219177
0.768097 0.758484 0.209625
0.783936 0.763947 0.200439
