src/assets/luts/ON1 Nature & Wildlife LUTs/CinematicX LUTs - 30 Free Cinematic LUTs - The Resolve Store 2022/Pastillo - Rec709.cube
# Copyright: (C) Copyright 2022 The Resolve Store 
# Cannot be resold, shared or otherwise redistributed
TITLE "CinematicX (Rec.709)"
LUT_3D_SIZE 5
0.000000 0.000000 0.000000
0.135590 0.017761 0.010498
0.346100 0.072113 0.045563
0.556335 0.138672 0.091278
0.760437 0.206421 0.134247
0.144714 0.143005 0.024567
0.281433 0.188293 0.046234
0.472290 0.233276 0.074982
0.660309 0.278290 0.113647
0.838898 0.330109 0.150604
0.387421 0.444763 0.108978
0.479156 0.474243 0.131256
0.583282 0.504608 0.128693
0.730499 0.510254 0.131897
0.916016 0.526978 0.164520
0.575958 0.647369 0.245605
0.608307 0.660950 0.250732
0.674835 0.690399 0.237457
0.773499 0.720154 0.180176
0.952576 0.747772 0.173401
0.606079 0.778320 0.345459
0.646240 0.792175 0.341248
0.710144 0.825562 0.322906
0.807678 0.883362 0.268188
0.935059 0.921753 0.387695
0.003479 0.029572 0.050323
0.106812 0.025116 0.097870
0.304077 0.040253 0.093689
0.508301 0.079865 0.134521
0.716248 0.125793 0.161713
0.017609 0.178223 0.155487
0.229675 0.215729 0.206909
0.486389 0.199890 0.178497
0.647827 0.214050 0.178375
0.813141 0.253784 0.191101
0.219635 0.454681 0.155579
0.404449 0.482422 0.162445
0.581696 0.513306 0.206116
0.746429 0.503082 0.198120
0.929199 0.515045 0.224823
0.481995 0.629700 0.233459
0.551697 0.647919 0.248749
0.657043 0.689606 0.256378
0.769470 0.723236 0.192535
0.958771 0.745270 0.214203
0.577179 0.769714 0.382233
0.624451 0.784271 0.382721
0.694824 0.818848 0.373535
0.797089 0.879059 0.325775
0.933380 0.920197 0.536072
0.011719 0.091858 0.151764
0.030365 0.121429 0.218689
0.274200 0.072754 0.238312
0.436737 0.085754 0.194733
0.605225 0.110626 0.253723
0.025146 0.210602 0.270935
0.038879 0.243958 0.320709
0.434052 0.171082 0.380402
0.538635 0.130707 0.258118
0.745239 0.220795 0.348297
0.078613 0.451660 0.421631
0.113281 0.478546 0.448303
0.622406 0.567505 0.574249
0.744537 0.498596 0.476074
0.899841 0.500946 0.461853
0.374664 0.650177 0.530273
0.519653 0.675049 0.534637
0.666351 0.690247 0.533875
0.764954 0.712830 0.485138
0.954529 0.740631 0.458893
0.542297 0.770355 0.558777
0.611298 0.780701 0.546112
0.694092 0.806366 0.546844
0.788788 0.863739 0.520538
0.947723 0.944580 0.549103
0.024841 0.166443 0.257690
0.037323 0.206818 0.318207
0.199677 0.257751 0.431366
0.437500 0.128357 0.363983
0.581665 0.159149 0.367554
0.042877 0.275909 0.359467
0.052979 0.307037 0.402588
0.241058 0.413025 0.544769
0.531860 0.188690 0.450012
0.703766 0.301270 0.500061
0.087494 0.471161 0.517517
0.102325 0.487152 0.550812
0.409485 0.576447 0.651154
0.726410 0.572327 0.683746
0.808838 0.551117 0.643188
0.221558 0.651794 0.617249
0.229584 0.658386 0.624054
0.544830 0.711761 0.690460
0.784821 0.749695 0.747528
0.902771 0.734100 0.717041
0.447540 0.776031 0.689636
0.589935 0.799866 0.722229
0.727997 0.831390 0.761505
0.822113 0.854462 0.761017
0.931427 0.916473 0.741425
0.049988 0.278992 0.387054
0.061584 0.315796 0.433319
0.111816 0.387543 0.530670
0.575592 0.372314 0.639008
0.637848 0.277710 0.548767
0.068146 0.361389 0.463776
0.077240 0.387299 0.497162
0.126953 0.447845 0.577942
0.619781 0.497559 0.692017
0.717072 0.438141 0.646149
0.114532 0.515320 0.598175
0.121735 0.527100 0.614899
0.260925 0.580750 0.688629
0.636169 0.657562 0.736481
0.786713 0.625885 0.744171
0.206909 0.674408 0.711243
0.212799 0.680267 0.726654
0.461700 0.720886 0.785950
0.718109 0.765900 0.808807
0.850494 0.773865 0.824005
0.299866 0.832855 0.798523
0.396088 0.844025 0.811096
0.613312 0.863678 0.839233
0.796417 0.887939 0.875122
0.912689 0.906799 0.899811
