src/assets/luts/ON1 Nature & Wildlife LUTs/CinematicX LUTs - 30 Free Cinematic LUTs - The Resolve Store 2022/Pastillo - Rec709.cube
# Copyright: (C) Copyright 2022 The Resolve Store 
# Cannot be resold, shared or otherwise redistributed
TITLE "CinematicX (Rec.709)"
LUT_3D_SIZE 9
0.000000 0.000000 0.000000
0.053986 0.004303 0.003754
0.135590 0.017761 0.010498
0.239990 0.043304 0.024811
0.346100 0.072113 0.045563
0.451630 0.104645 0.068756
0.556335 0.138672 0.091278
0.659943 0.173309 0.113190
0.760437 0.206421 0.134247
0.057617 0.042633 0.007202
0.111176 0.054993 0.014832
0.202484 0.081604 0.023621
0.300629 0.101501 0.039154
0.398956 0.126587 0.058960
0.497650 0.156647 0.079376
0.596741 0.189301 0.100159
0.694427 0.222534 0.120544
0.788452 0.253235 0.140045
0.144714 0.143005 0.024567
0.196503 0.156433 0.034729
0.281433 0.188293 0.046234
0.375977 0.215332 0.057800
0.472290 0.233276 0.074982
0.567230 0.253723 0.094299
0.660309 0.278290 0.113647
0.751251 0.304504 0.132385
0.838898 0.330109 0.150604
0.257233 0.293457 0.058441
0.302246 0.307678 0.065491
0.388916 0.335083 0.084198
0.456329 0.363770 0.087128
0.527679 0.371429 0.093506
0.613739 0.380310 0.106079
0.706818 0.392059 0.123016
0.797333 0.405884 0.141174
0.883972 0.421753 0.158936
0.387421 0.444763 0.108978
0.418732 0.454315 0.117126
0.479156 0.474243 0.131256
0.534790 0.494659 0.136261
0.583282 0.504608 0.128693
0.647003 0.505463 0.124481
0.730499 0.510254 0.131897
0.823364 0.518158 0.146851
0.916016 0.526978 0.164520
0.499542 0.560303 0.176971
0.516815 0.566132 0.182129
0.553253 0.579834 0.190582
0.595581 0.596649 0.192352
0.635803 0.609222 0.181488
0.682495 0.616333 0.161011
0.751343 0.621185 0.149475
0.838989 0.628723 0.153870
0.935364 0.636627 0.168793
0.575958 0.647369 0.245605
0.585907 0.651276 0.247772
0.608307 0.660950 0.250732
0.639526 0.675110 0.249481
0.674835 0.690399 0.237457
0.715942 0.705109 0.211060
0.773499 0.720154 0.180176
0.854919 0.734802 0.166016
0.952576 0.747772 0.173401
0.604492 0.716217 0.301331
0.615265 0.719482 0.301514
0.636292 0.728058 0.300964
0.663940 0.741180 0.296906
0.698059 0.758636 0.285309
0.739319 0.779663 0.261230
0.793274 0.804840 0.223389
0.868835 0.833435 0.187714
0.963165 0.857910 0.179352
0.606079 0.778320 0.345459
0.623077 0.783051 0.343994
0.646240 0.792175 0.341248
0.674774 0.805969 0.335541
0.710144 0.825562 0.322906
0.753326 0.851257 0.300964
0.807678 0.883362 0.268188
0.879272 0.921600 0.226562
0.935059 0.921753 0.387695
0.000549 0.006195 0.010101
0.040314 0.008423 0.036774
0.119171 0.010712 0.031311
0.229095 0.023102 0.047241
0.331757 0.041840 0.061523
0.434204 0.068176 0.077972
0.540405 0.100616 0.098633
0.657227 0.147339 0.125305
0.760498 0.186157 0.148315
0.006378 0.066315 0.054382
0.078522 0.074280 0.065002
0.204071 0.079437 0.067291
0.298981 0.076508 0.064575
0.385254 0.088318 0.072571
0.479095 0.111908 0.087677
0.583038 0.151337 0.110321
0.686371 0.192352 0.133301
0.785675 0.232422 0.155060
0.077759 0.160553 0.052185
0.154419 0.168823 0.049286
0.279877 0.197205 0.072510
0.386749 0.213165 0.086853
0.481659 0.220276 0.097626
0.572754 0.238129 0.115784
0.663208 0.262085 0.133789
0.752747 0.288513 0.152008
0.839844 0.315186 0.169922
0.182526 0.292694 0.059509
0.239075 0.302277 0.060181
0.366119 0.336365 0.083282
0.455597 0.367554 0.090851
0.533539 0.369415 0.105072
0.621552 0.375763 0.127533
0.713531 0.386169 0.147675
0.802063 0.399872 0.165497
0.887115 0.416016 0.182404
0.320892 0.435608 0.101837
0.366577 0.446503 0.107574
0.451935 0.471344 0.127930
0.528564 0.497314 0.139465
0.582428 0.507172 0.130005
0.650116 0.504669 0.132660
0.735535 0.507935 0.150757
0.828156 0.515167 0.170380
0.919678 0.523773 0.189087
0.460602 0.553955 0.168304
0.486328 0.560791 0.175629
0.534119 0.576263 0.189301
0.587006 0.596588 0.195892
0.632568 0.611328 0.185669
0.681427 0.617981 0.162415
0.753510 0.621063 0.155823
0.842377 0.627411 0.170624
0.938965 0.634888 0.190796
0.554413 0.642517 0.243286
0.567047 0.646851 0.246429
0.595093 0.657715 0.251984
0.631073 0.673523 0.253845
0.669952 0.690521 0.244263
0.713013 0.705994 0.218018
0.772125 0.721130 0.185455
0.856232 0.734894 0.175354
0.955078 0.747070 0.189758
0.591675 0.713257 0.307434
0.605042 0.717163 0.308197
0.626282 0.725311 0.309265
0.656342 0.739105 0.307465
0.692871 0.757477 0.297882
0.735535 0.779175 0.275879
0.790375 0.804871 0.238403
0.867371 0.833801 0.200409
0.962921 0.857727 0.192596
0.596558 0.775299 0.362183
0.615479 0.780731 0.361145
0.639374 0.789886 0.359650
0.669037 0.803802 0.356110
0.705200 0.823547 0.345856
0.749207 0.849579 0.325836
0.804199 0.882111 0.294342
0.876495 0.920746 0.251862
0.932434 0.919250 0.493439
0.003479 0.029572 0.050323
0.012543 0.047485 0.093781
0.106812 0.025116 0.097870
0.203735 0.025665 0.069824
0.304077 0.040253 0.093689
0.405670 0.059418 0.115234
0.508301 0.079865 0.134521
0.616119 0.103149 0.150665
0.716248 0.125793 0.161713
0.006714 0.080719 0.102173
0.012573 0.092377 0.123932
0.162140 0.068390 0.148682
0.268158 0.049866 0.095093
0.349854 0.059784 0.106476
0.438721 0.076660 0.121521
0.532806 0.095062 0.136475
0.635284 0.117371 0.150391
0.747559 0.158661 0.171936
0.017609 0.178223 0.155487
0.035522 0.195648 0.172882
0.229675 0.215729 0.206909
0.394287 0.202850 0.187408
0.486389 0.199890 0.178497
0.567810 0.205536 0.177887
0.647827 0.214050 0.178375
0.729492 0.227112 0.180939
0.813141 0.253784 0.191101
0.127808 0.333557 0.178864
0.171753 0.350250 0.171814
0.333466 0.364319 0.170715
0.456696 0.378540 0.208221
0.539703 0.372406 0.211975
0.631958 0.371246 0.207214
0.724152 0.373566 0.202271
0.810852 0.380310 0.205658
0.892181 0.392700 0.211914
0.219635 0.454681 0.155579
0.268860 0.463470 0.151581
0.404449 0.482422 0.162445
0.515442 0.505066 0.203064
0.581696 0.513306 0.206116
0.655670 0.504517 0.206024
0.746429 0.503082 0.198120
0.839325 0.507385 0.204895
0.929199 0.515045 0.224823
0.346680 0.547089 0.176453
0.385406 0.550568 0.173676
0.482788 0.571442 0.193207
0.563507 0.595825 0.219238
0.624268 0.615173 0.214844
0.679352 0.621338 0.190247
0.758514 0.620300 0.189545
0.851257 0.624176 0.194458
0.947784 0.630554 0.224915
0.481995 0.629700 0.233459
0.504791 0.635254 0.237579
0.551697 0.647919 0.248749
0.606537 0.667877 0.259583
0.657043 0.689606 0.256378
0.706268 0.707886 0.230804
0.769470 0.723236 0.192535
0.860168 0.735229 0.186859
0.958771 0.745270 0.214203
0.554596 0.704773 0.311279
0.572235 0.709381 0.313599
0.599701 0.718384 0.318420
0.637177 0.733307 0.322784
0.679688 0.753815 0.315918
0.726746 0.777496 0.296478
0.784058 0.804504 0.258942
0.864502 0.834686 0.215576
0.962860 0.857849 0.209991
0.577179 0.769714 0.382233
0.597931 0.774811 0.382538
0.624451 0.784271 0.382721
0.655548 0.798157 0.381592
0.694824 0.818848 0.373535
0.740326 0.845520 0.355865
0.797089 0.879059 0.325775
0.871094 0.919037 0.282562
0.933380 0.920197 0.536072
0.007050 0.061462 0.100525
0.012878 0.078705 0.142670
0.038269 0.090881 0.180939
0.189514 0.048645 0.172272
0.292267 0.054169 0.124329
0.367249 0.059143 0.138855
0.455444 0.074310 0.167572
0.559906 0.094849 0.196686
0.667938 0.117249 0.221802
0.009033 0.099884 0.137268
0.011688 0.111420 0.164581
0.039856 0.129852 0.213562
0.234955 0.067383 0.215698
0.319763 0.059570 0.135529
0.390015 0.065521 0.147797
0.477203 0.082733 0.174225
0.582062 0.105042 0.201752
0.701874 0.143219 0.237885
0.017487 0.189362 0.217010
0.022888 0.199402 0.241730
0.058075 0.224396 0.279846
0.359558 0.175568 0.325775
0.464447 0.149292 0.228210
0.524139 0.148254 0.224792
0.602966 0.167664 0.238159
0.681213 0.182648 0.247803
0.784912 0.233917 0.279816
0.042145 0.321381 0.293457
0.043396 0.327728 0.300140
0.121582 0.374847 0.349731
0.456970 0.412476 0.414825
0.560272 0.367188 0.355652
0.638672 0.357208 0.332458
0.718536 0.357880 0.323975
0.799561 0.362091 0.319550
0.875702 0.376251 0.324066
0.129578 0.458435 0.357941
0.158142 0.473267 0.361908
0.350006 0.523224 0.379944
0.521912 0.524078 0.379608
0.590302 0.516998 0.377930
0.656647 0.505005 0.351746
0.746918 0.503296 0.338745
0.840027 0.504883 0.332092
0.927338 0.506134 0.328430
0.278198 0.574646 0.381287
0.328888 0.585602 0.372223
0.461456 0.599854 0.351013
0.557861 0.607788 0.368439
0.625061 0.615814 0.377441
0.680115 0.620605 0.355682
0.758331 0.619690 0.340912
0.854980 0.622253 0.325836
0.951172 0.625427 0.322784
0.421722 0.648865 0.377655
0.428467 0.649353 0.367523
0.525787 0.657166 0.361023
0.590271 0.670044 0.376343
0.648438 0.686096 0.386536
0.701202 0.704681 0.367859
0.766083 0.722015 0.327026
0.860657 0.733368 0.325378
0.959717 0.742401 0.305054
0.500031 0.703461 0.380127
0.509308 0.703217 0.368164
0.564697 0.712463 0.376556
0.615356 0.727356 0.391785
0.665710 0.747040 0.401031
0.716522 0.772186 0.386963
0.775665 0.802155 0.343475
0.860077 0.834595 0.282349
0.961304 0.856842 0.295380
0.539948 0.762360 0.416443
0.566071 0.766113 0.413483
0.600525 0.774841 0.417358
0.638733 0.789490 0.419067
0.681366 0.810455 0.417175
0.729370 0.838501 0.399109
0.786835 0.873566 0.363495
0.862915 0.915527 0.321747
0.936920 0.926086 0.558167
0.011719 0.091858 0.151764
0.015564 0.103973 0.177917
0.030365 0.121429 0.218689
0.122650 0.126404 0.258484
0.274200 0.072754 0.238312
0.367676 0.083282 0.192841
0.436737 0.085754 0.194733
0.517944 0.097229 0.222351
0.605225 0.110626 0.253723
0.013702 0.125244 0.183441
0.016388 0.135651 0.204193
0.031311 0.156342 0.247894
0.145782 0.177368 0.311554
0.295044 0.079620 0.259430
0.386414 0.087708 0.202576
0.453308 0.089752 0.202728
0.534973 0.103027 0.230438
0.647034 0.136963 0.279938
0.025146 0.210602 0.270935
0.027435 0.220123 0.283966
0.038879 0.243958 0.320709
0.161713 0.294434 0.395966
0.434052 0.171082 0.380402
0.493774 0.144836 0.282623
0.538635 0.130707 0.258118
0.596680 0.130737 0.264465
0.745239 0.220795 0.348297
0.040833 0.328033 0.347229
0.043976 0.334045 0.360046
0.080597 0.363159 0.406738
0.277557 0.429230 0.486145
0.568268 0.388153 0.520294
0.646118 0.345551 0.439819
0.698669 0.322021 0.413574
0.764740 0.328827 0.408844
0.838776 0.367798 0.428986
0.078613 0.451660 0.421631
0.080170 0.455841 0.425903
0.113281 0.478546 0.448303
0.378021 0.542633 0.525330
0.622406 0.567505 0.574249
0.673889 0.517548 0.509705
0.744537 0.498596 0.476074
0.824310 0.493591 0.461365
0.899841 0.500946 0.461853
0.174988 0.554749 0.478668
0.181885 0.557831 0.478882
0.373657 0.608154 0.529724
0.552856 0.634644 0.556030
0.650055 0.631836 0.550446
0.689850 0.622955 0.522583
0.754822 0.617737 0.479095
0.848816 0.620483 0.462616
0.944977 0.622742 0.454285
0.374664 0.650177 0.530273
0.381805 0.652100 0.527618
0.519653 0.675049 0.534637
0.608002 0.682922 0.528046
0.666351 0.690247 0.533875
0.711609 0.698975 0.521088
0.764954 0.712830 0.485138
0.855377 0.729065 0.466064
0.954529 0.740631 0.458893
0.498688 0.714844 0.545959
0.513458 0.716675 0.540405
0.576477 0.725037 0.529083
0.630676 0.732178 0.525238
0.679535 0.746094 0.532501
0.725586 0.764435 0.526642
0.777557 0.790802 0.497803
0.855682 0.825073 0.458862
0.953094 0.851410 0.481415
0.542297 0.770355 0.558777
0.578827 0.775787 0.555634
0.611298 0.780701 0.546112
0.651947 0.789581 0.543243
0.694092 0.806366 0.546844
0.736816 0.830566 0.541412
0.788788 0.863739 0.520538
0.859528 0.906708 0.491577
0.947723 0.944580 0.549103
0.017426 0.124695 0.201691
0.020721 0.136475 0.223267
0.030670 0.161346 0.269196
0.067780 0.180084 0.316437
0.259521 0.113281 0.333832
0.352264 0.096832 0.297974
0.438110 0.112854 0.270325
0.509705 0.117950 0.269958
0.588745 0.130371 0.296844
0.020172 0.157867 0.233246
0.022980 0.168396 0.250610
0.031769 0.196716 0.297913
0.071991 0.228088 0.357452
0.311859 0.159943 0.399689
0.370087 0.103027 0.314819
0.454010 0.117859 0.282532
0.523163 0.121826 0.278778
0.623138 0.154541 0.327820
0.032410 0.240082 0.311920
0.035095 0.248932 0.324921
0.043060 0.272919 0.360931
0.080170 0.312195 0.420380
0.399017 0.325714 0.517456
0.488159 0.178162 0.418030
0.528778 0.158447 0.347717
0.564148 0.138367 0.308838
0.712280 0.239807 0.411346
0.055878 0.348877 0.410248
0.058563 0.355072 0.421326
0.064850 0.370636 0.440826
0.140533 0.414764 0.499451
0.418427 0.484497 0.572205
0.628174 0.394714 0.570190
0.683319 0.360504 0.509705
0.727478 0.324097 0.477600
0.797028 0.382690 0.508820
0.074921 0.456116 0.464142
0.076630 0.459656 0.471039
0.097778 0.477325 0.498901
0.324738 0.536621 0.575531
0.509399 0.576904 0.617767
0.689178 0.567963 0.643005
0.741302 0.529114 0.591003
0.794098 0.492004 0.567169
0.852325 0.507843 0.568634
0.144470 0.560852 0.528442
0.146454 0.563385 0.531067
0.151062 0.569427 0.537323
0.336792 0.615326 0.586060
0.584961 0.654877 0.645081
0.717651 0.671692 0.673523
0.757080 0.638489 0.630249
0.827362 0.619720 0.599670
0.907837 0.618774 0.591064
0.278351 0.644409 0.578339
0.287964 0.646820 0.579498
0.414734 0.671631 0.607330
0.564667 0.699463 0.648895
0.678314 0.717957 0.669464
0.734711 0.716370 0.663544
0.768646 0.713898 0.636383
0.845551 0.724579 0.597717
0.944519 0.736389 0.588623
0.442352 0.713013 0.622559
0.464050 0.716705 0.625275
0.545105 0.733002 0.642700
0.635468 0.751038 0.658447
0.706757 0.761108 0.660645
0.748657 0.768524 0.657227
0.787659 0.781982 0.639404
0.848480 0.809753 0.606567
0.944489 0.843018 0.601868
0.524933 0.773132 0.650085
0.565613 0.781403 0.656342
0.623383 0.794128 0.665741
0.680664 0.805969 0.670929
0.724976 0.814819 0.666992
0.762573 0.829407 0.664429
0.803925 0.853607 0.654938
0.860870 0.891785 0.633728
0.941589 0.933960 0.633911
0.024841 0.166443 0.257690
0.028381 0.178497 0.276184
0.037323 0.206818 0.318207
0.061432 0.237030 0.367004
0.199677 0.257751 0.431366
0.369934 0.120941 0.402344
0.437500 0.128357 0.363983
0.513519 0.147095 0.357941
0.581665 0.159149 0.367554
0.029022 0.199646 0.287781
0.031708 0.210358 0.303253
0.040710 0.238373 0.343384
0.063965 0.274200 0.396362
0.219788 0.325775 0.484375
0.401489 0.144897 0.438538
0.453888 0.135620 0.379059
0.526581 0.152954 0.369507
0.603363 0.177765 0.392548
0.042877 0.275909 0.359467
0.045685 0.285034 0.372040
0.052979 0.307037 0.402588
0.071136 0.341614 0.450562
0.241058 0.413025 0.544769
0.535980 0.327789 0.583496
0.531860 0.188690 0.450012
0.556061 0.168060 0.397125
0.703766 0.301270 0.500061
0.064606 0.373199 0.445557
0.066467 0.378784 0.452637
0.071777 0.393372 0.473785
0.089417 0.422089 0.518188
0.289124 0.495148 0.601044
0.594604 0.493683 0.652740
0.673645 0.417236 0.609772
0.712585 0.386047 0.566803
0.766602 0.436249 0.582336
0.087494 0.471161 0.517517
0.089783 0.475342 0.525635
0.102325 0.487152 0.550812
0.227142 0.530273 0.605957
0.409485 0.576447 0.651154
0.603058 0.613068 0.675720
0.726410 0.572327 0.683746
0.768585 0.544220 0.642731
0.808838 0.551117 0.643188
0.140015 0.570465 0.570343
0.141449 0.572754 0.574615
0.144775 0.578339 0.585815
0.301300 0.615326 0.634979
0.530884 0.650208 0.679596
0.658783 0.680817 0.706238
0.761261 0.680237 0.722198
0.803040 0.655548 0.695190
0.851746 0.646759 0.692383
0.221558 0.651794 0.617249
0.224304 0.653748 0.619232
0.229584 0.658386 0.624054
0.284607 0.674561 0.640930
0.544830 0.711761 0.690460
0.704041 0.738281 0.729248
0.784821 0.749695 0.747528
0.830475 0.738678 0.729980
0.902771 0.734100 0.717041
0.329285 0.720551 0.658569
0.353210 0.723907 0.661591
0.400452 0.730835 0.667847
0.566162 0.756195 0.703461
0.680328 0.777954 0.737427
0.757935 0.791656 0.753815
0.801880 0.793671 0.750854
0.843170 0.804382 0.735992
0.932465 0.834900 0.719238
0.447540 0.776031 0.689636
0.512268 0.785767 0.702728
0.589935 0.799866 0.722229
0.660767 0.814545 0.743225
0.727997 0.831390 0.761505
0.784363 0.843903 0.766998
0.822113 0.854462 0.761017
0.865479 0.878540 0.750092
0.931427 0.916473 0.741425
0.035461 0.218475 0.319336
0.038605 0.229309 0.333801
0.047546 0.258911 0.372894
0.063599 0.306549 0.436584
0.110046 0.344086 0.498383
0.409058 0.295654 0.553589
0.490997 0.181519 0.489624
0.533722 0.177155 0.444366
0.588593 0.194580 0.447510
0.040833 0.250824 0.348755
0.043915 0.260101 0.360840
0.051636 0.285187 0.393982
0.068359 0.333740 0.458954
0.113434 0.373505 0.520233
0.446869 0.386383 0.601410
0.525146 0.216827 0.527527
0.547211 0.186371 0.458008
0.611023 0.218323 0.472626
0.055054 0.317688 0.411438
0.057343 0.324860 0.420746
0.064178 0.345001 0.447510
0.078918 0.385406 0.502319
0.122864 0.422150 0.555817
0.461975 0.480408 0.638062
0.618500 0.369324 0.631500
0.587646 0.222351 0.499756
0.703033 0.366028 0.577332
0.074097 0.401276 0.482941
0.076385 0.407318 0.491669
0.082031 0.421509 0.512634
0.095306 0.450409 0.557159
0.143646 0.481018 0.599335
0.471680 0.557373 0.671722
0.676239 0.505463 0.696564
0.710449 0.447754 0.645905
0.752686 0.491577 0.644196
0.103149 0.494232 0.570831
0.104858 0.497650 0.575226
0.109772 0.506531 0.586792
0.118469 0.521698 0.607941
0.299561 0.575562 0.673828
0.509003 0.619751 0.705566
0.707855 0.623505 0.732117
0.756317 0.584442 0.712921
0.790955 0.596832 0.695557
0.141968 0.577972 0.617523
0.143890 0.580322 0.622681
0.147858 0.585693 0.635345
0.261810 0.616272 0.680756
0.468628 0.652435 0.719635
0.586395 0.679138 0.736572
0.718994 0.704437 0.751678
0.791748 0.685028 0.756439
0.825989 0.684052 0.739929
0.213745 0.665497 0.661072
0.216461 0.667572 0.664520
0.220490 0.672302 0.673187
0.259003 0.685486 0.694794
0.498749 0.714874 0.734222
0.667175 0.739868 0.762787
0.755066 0.761627 0.780273
0.820312 0.760284 0.788239
0.858429 0.757538 0.781982
0.275085 0.737976 0.702759
0.285522 0.740295 0.705170
0.297668 0.744934 0.709961
0.313019 0.751892 0.717316
0.508789 0.776215 0.747650
0.680115 0.797577 0.780884
0.786652 0.814819 0.805847
0.844147 0.821198 0.816620
0.902954 0.835236 0.825653
0.333893 0.804871 0.741241
0.362213 0.807159 0.743378
0.464355 0.817902 0.756134
0.582306 0.831055 0.774750
0.683655 0.844971 0.797546
0.765778 0.859955 0.821564
0.826691 0.872070 0.836365
0.870911 0.880524 0.838531
0.921936 0.905029 0.840546
0.049988 0.278992 0.387054
0.053314 0.289703 0.400604
0.061584 0.315796 0.433319
0.073059 0.349518 0.477356
0.111816 0.387543 0.530670
0.375702 0.452972 0.615845
0.575592 0.372314 0.639008
0.623779 0.313843 0.596313
0.637848 0.277710 0.548767
0.055450 0.305725 0.411163
0.058533 0.315155 0.423157
0.065765 0.338043 0.452148
0.077850 0.371796 0.496674
0.115570 0.407135 0.545593
0.379395 0.476105 0.629333
0.593689 0.415680 0.659943
0.642426 0.345184 0.614777
0.675934 0.344635 0.593231
0.068146 0.361389 0.463776
0.070251 0.367828 0.472015
0.077240 0.387299 0.497162
0.090088 0.419525 0.540070
0.126953 0.447845 0.577942
0.390015 0.521179 0.656464
0.619781 0.497559 0.692017
0.686005 0.443970 0.669739
0.717072 0.438141 0.646149
0.086365 0.434448 0.527313
0.088409 0.439514 0.534393
0.095276 0.454651 0.556549
0.108154 0.479279 0.593384
0.146698 0.500854 0.621979
0.412354 0.572815 0.689941
0.633392 0.586975 0.717133
0.723816 0.543610 0.718933
0.753143 0.536530 0.697479
0.114532 0.515320 0.598175
0.116669 0.519012 0.603333
0.121735 0.527100 0.614899
0.132782 0.542267 0.640076
0.260925 0.580750 0.688629
0.460236 0.626801 0.725769
0.636169 0.657562 0.736481
0.757812 0.635315 0.758698
0.786713 0.625885 0.744171
0.155334 0.592285 0.667938
0.157532 0.594666 0.673584
0.160706 0.599121 0.684235
0.210388 0.615021 0.704620
0.359955 0.651245 0.739502
0.541382 0.683319 0.761780
0.667267 0.712250 0.769135
0.785065 0.713531 0.790985
0.819244 0.704559 0.785767
0.206909 0.674408 0.711243
0.209595 0.676239 0.715729
0.212799 0.680267 0.726654
0.232819 0.688934 0.747864
0.461700 0.720886 0.785950
0.640015 0.745178 0.799927
0.718109 0.765900 0.808807
0.803833 0.779816 0.819214
0.850494 0.773865 0.824005
0.255493 0.756409 0.755371
0.265900 0.758911 0.759094
0.277008 0.763763 0.766907
0.290070 0.771790 0.780579
0.461060 0.791260 0.809235
0.641235 0.807495 0.830688
0.763580 0.824951 0.847473
0.832794 0.839691 0.855499
0.881348 0.839233 0.861084
0.299866 0.832855 0.798523
0.348358 0.838135 0.804169
0.396088 0.844025 0.811096
0.494049 0.853607 0.823639
0.613312 0.863678 0.839233
0.710815 0.875366 0.857025
0.796417 0.887939 0.875122
0.864075 0.900024 0.890930
0.912689 0.906799 0.899811
