src/assets/luts/ON1 Nature & Wildlife LUTs/CinematicX LUTs - 30 Free Cinematic LUTs - The Resolve Store 2022/Plata - Rec709.cube
# Copyright: (C) Copyright 2022 The Resolve Store 
# Cannot be resold, shared or otherwise redistributed
TITLE "CinematicX (Rec.709)"
LUT_3D_SIZE 33
0.001801 0.001038 0.003479
0.023376 0.003265 0.004089
0.046967 0.005463 0.003082
0.072418 0.007538 0.002808
0.100098 0.010223 0.002472
0.129181 0.012695 0.001221
0.159210 0.014130 0.001404
0.189789 0.015167 0.002869
0.220032 0.015289 0.004852
0.249573 0.015289 0.006012
0.278595 0.014618 0.006989
0.307190 0.013947 0.008545
0.335815 0.012695 0.009247
0.364716 0.010895 0.009796
0.394043 0.008636 0.010712
0.424011 0.005920 0.011444
0.454498 0.003265 0.011932
0.485291 0.001221 0.012268
0.516266 0.000000 0.012848
0.547363 0.000000 0.013184
0.578339 0.000000 0.013336
0.609283 0.000000 0.013641
0.640137 0.000000 0.013977
0.670868 0.000000 0.014069
0.701569 0.000000 0.013733
0.732269 0.000000 0.013184
0.763000 0.000000 0.012726
0.793915 0.000000 0.011871
0.825104 0.000000 0.011078
0.856537 0.000000 0.009979
0.888397 0.000000 0.008881
0.920593 0.000000 0.007629
0.953186 0.000000 0.006256
0.001801 0.017181 0.006683
0.020966 0.019409 0.006348
0.045258 0.020630 0.007965
0.069489 0.022583 0.006866
0.096283 0.024445 0.006439
0.124939 0.027344 0.005127
0.155243 0.028717 0.005188
0.186279 0.030457 0.005798
0.217285 0.030914 0.006348
0.247650 0.031769 0.007477
0.277466 0.032501 0.008453
0.306885 0.032227 0.009888
0.336243 0.032349 0.010529
0.365753 0.031525 0.010956
0.395630 0.030762 0.011780
0.426147 0.029938 0.012421
0.457092 0.028778 0.012848
0.488342 0.027618 0.013123
0.519745 0.026886 0.013580
0.551147 0.026855 0.013885
0.582336 0.026764 0.014282
0.613403 0.027191 0.014740
0.644257 0.027496 0.014984
0.674957 0.027985 0.015015
0.705597 0.028534 0.014557
0.736206 0.028900 0.014160
0.766876 0.029297 0.013397
0.797699 0.029694 0.012695
0.828735 0.029877 0.011780
0.860077 0.030151 0.010742
0.891815 0.030334 0.009552
0.923828 0.030243 0.008392
0.956268 0.030182 0.006989
0.001007 0.034821 0.009918
0.019470 0.036682 0.009094
0.040588 0.039124 0.008301
0.067535 0.039185 0.009125
0.092865 0.041382 0.010864
0.121338 0.043396 0.009491
0.152039 0.044800 0.008728
0.183533 0.046600 0.009308
0.215057 0.047791 0.009094
0.246185 0.049286 0.010162
0.276764 0.050262 0.010376
0.306976 0.051086 0.011078
0.337067 0.051880 0.011627
0.367126 0.052551 0.012543
0.397552 0.052826 0.012787
0.428467 0.053040 0.013306
0.459869 0.053192 0.013702
0.491486 0.053314 0.014252
0.523254 0.053375 0.014618
0.554871 0.053925 0.015137
0.586273 0.054626 0.015442
0.617462 0.055664 0.015778
0.648376 0.056519 0.015900
0.679077 0.057404 0.015839
0.709595 0.058136 0.015533
0.740143 0.058777 0.015045
0.770721 0.059448 0.014404
0.801453 0.059875 0.013397
0.832397 0.060364 0.012604
0.863647 0.060760 0.011475
0.895203 0.061005 0.010315
0.927063 0.061127 0.009033
0.959320 0.061127 0.007690
0.001007 0.052979 0.012329
0.017853 0.054993 0.011536
0.037384 0.057007 0.011536
0.059937 0.059509 0.009277
0.090118 0.060425 0.008911
0.118805 0.061920 0.014526
0.149719 0.063324 0.013763
0.181549 0.064667 0.012939
0.213745 0.065979 0.012665
0.245605 0.067566 0.012299
0.276855 0.069397 0.012482
0.307770 0.070770 0.013062
0.338440 0.072388 0.013458
0.369019 0.073853 0.013794
0.399933 0.075195 0.013947
0.431305 0.076172 0.014374
0.463013 0.077271 0.014648
0.494904 0.078064 0.015167
0.526917 0.079224 0.015442
0.558807 0.080444 0.016174
0.590363 0.081726 0.016663
0.621613 0.083038 0.016876
0.652527 0.084320 0.017120
0.683136 0.085571 0.016907
0.713654 0.086761 0.016510
0.744080 0.087555 0.015900
0.774597 0.088470 0.015167
0.805267 0.089264 0.014252
0.836121 0.089813 0.013184
0.867249 0.090332 0.012115
0.898651 0.090912 0.010986
0.930359 0.091217 0.009735
0.962402 0.091370 0.008423
0.001007 0.072083 0.014740
0.017059 0.073792 0.014740
0.034790 0.075867 0.013947
0.055725 0.077911 0.013123
0.080933 0.081055 0.009277
0.113251 0.084259 0.009521
0.148895 0.083588 0.015411
0.180298 0.084930 0.017426
0.213196 0.086273 0.015991
0.245667 0.087921 0.015076
0.277802 0.089722 0.015137
0.309265 0.091736 0.014587
0.340424 0.093933 0.014954
0.371582 0.095978 0.015137
0.402863 0.097870 0.015228
0.434509 0.099670 0.015167
0.466461 0.101288 0.015717
0.498627 0.102966 0.016113
0.530853 0.104706 0.016632
0.562805 0.106476 0.017212
0.594421 0.108215 0.017853
0.625732 0.110077 0.017944
0.656616 0.111725 0.018066
0.687286 0.113281 0.017731
0.717712 0.114594 0.017212
0.748108 0.115845 0.016541
0.778534 0.116852 0.015839
0.809113 0.117828 0.014832
0.839905 0.118774 0.013855
0.870880 0.119598 0.012817
0.902100 0.120331 0.011597
0.933655 0.120972 0.010437
0.965485 0.121338 0.009094
0.001007 0.091614 0.017975
0.016266 0.093750 0.017975
0.032776 0.095886 0.017181
0.052551 0.097595 0.016388
0.075348 0.099640 0.014740
0.106567 0.103943 0.010742
0.141663 0.108032 0.010193
0.181244 0.107452 0.015778
0.213501 0.108765 0.018555
0.246460 0.110321 0.018127
0.279205 0.112122 0.017120
0.311371 0.114105 0.016571
0.343140 0.116425 0.016388
0.374695 0.118866 0.016083
0.406372 0.121185 0.016083
0.438202 0.123535 0.016327
0.470428 0.125916 0.016479
0.502777 0.128113 0.017059
0.534973 0.130310 0.017792
0.567047 0.132477 0.018494
0.598755 0.134552 0.018677
0.630035 0.136749 0.018921
0.660889 0.138702 0.018890
0.691467 0.140503 0.018433
0.721832 0.142090 0.018036
0.752167 0.143585 0.017212
0.782562 0.144928 0.016449
0.813019 0.146210 0.015350
0.843658 0.147430 0.014374
0.874512 0.148529 0.013245
0.905548 0.149536 0.012146
0.936890 0.150391 0.010956
0.968475 0.151001 0.009583
0.001801 0.111877 0.021057
0.015472 0.114044 0.021057
0.031433 0.116425 0.020294
0.049835 0.118500 0.019531
0.072327 0.120544 0.018738
0.098083 0.122559 0.017181
0.135559 0.127563 0.012878
0.172516 0.133209 0.011383
0.215454 0.132996 0.015778
0.248474 0.134521 0.018188
0.281067 0.136444 0.019440
0.313934 0.138123 0.018433
0.346222 0.140533 0.017761
0.378235 0.143066 0.017395
0.410278 0.145630 0.017334
0.442413 0.148376 0.017487
0.474762 0.150970 0.017853
0.507172 0.153534 0.018280
0.539490 0.156097 0.019073
0.571564 0.158569 0.019379
0.603210 0.161072 0.019653
0.634430 0.163391 0.019714
0.665253 0.165558 0.019592
0.695740 0.167633 0.019226
0.726074 0.169556 0.018494
0.756287 0.171265 0.017792
0.786560 0.172913 0.016754
0.816925 0.174438 0.015839
0.847382 0.175934 0.014771
0.878082 0.177277 0.013763
0.908905 0.178589 0.012543
0.940002 0.179657 0.011322
0.971375 0.180542 0.009979
0.001801 0.132751 0.024719
0.015472 0.134888 0.024719
0.030029 0.137512 0.023987
0.048157 0.139771 0.023285
0.069214 0.142303 0.022522
0.094543 0.144562 0.021057
0.123962 0.146515 0.018585
0.167816 0.152313 0.014771
0.206696 0.159241 0.012970
0.250977 0.160400 0.015869
0.284393 0.161835 0.017944
0.316833 0.163818 0.019684
0.349518 0.166077 0.019379
0.382050 0.168427 0.018982
0.414459 0.171173 0.018463
0.446869 0.173920 0.018799
0.479340 0.176758 0.019043
0.511841 0.179474 0.019592
0.544159 0.182281 0.020203
0.576233 0.185089 0.020569
0.607819 0.187714 0.020691
0.638977 0.190216 0.020599
0.669678 0.192688 0.020294
0.700104 0.194977 0.019623
0.730316 0.196991 0.018982
0.760468 0.198975 0.018127
0.790588 0.200867 0.017151
0.820770 0.202698 0.016113
0.851074 0.204376 0.015076
0.881500 0.205994 0.013916
0.912140 0.207520 0.012787
0.942993 0.208893 0.011536
0.974121 0.209930 0.010132
0.002625 0.153931 0.028259
0.014648 0.156250 0.028259
0.029327 0.158752 0.027557
0.046448 0.161682 0.027557
0.066956 0.164337 0.026154
0.091614 0.166962 0.024750
0.120544 0.168915 0.022552
0.154663 0.171478 0.019531
0.202545 0.177979 0.016510
0.247406 0.183960 0.015808
0.287292 0.188965 0.015747
0.320923 0.190613 0.018005
0.353485 0.192871 0.019745
0.385986 0.195343 0.020569
0.418762 0.197876 0.020294
0.451416 0.200562 0.020477
0.484070 0.203491 0.020508
0.516632 0.206268 0.020905
0.548981 0.209229 0.021271
0.580933 0.212097 0.021484
0.612457 0.214874 0.021454
0.643524 0.217529 0.021179
0.674103 0.220062 0.020599
0.704437 0.222504 0.019958
0.734497 0.224792 0.019226
0.764496 0.226959 0.018280
0.794495 0.229034 0.017303
0.824493 0.231049 0.016174
0.854614 0.233002 0.015106
0.884827 0.234863 0.013947
0.915253 0.236603 0.012756
0.945831 0.238068 0.011536
0.976807 0.239319 0.010071
0.002625 0.175415 0.031586
0.014648 0.177887 0.031586
0.028595 0.180511 0.031586
0.044739 0.183502 0.031586
0.064606 0.186615 0.030243
0.088989 0.189545 0.028900
0.117554 0.192200 0.026886
0.150421 0.194244 0.024750
0.191895 0.196686 0.022461
0.239227 0.204803 0.018585
0.286224 0.210938 0.018677
0.324249 0.217896 0.017212
0.357910 0.220978 0.018158
0.390594 0.223236 0.020386
0.422882 0.225922 0.022491
0.455841 0.228394 0.022247
0.488678 0.231232 0.022125
0.521332 0.233948 0.022064
0.553650 0.236877 0.022247
0.585541 0.239746 0.022064
0.616974 0.242554 0.021881
0.647919 0.245300 0.021484
0.678375 0.247955 0.020935
0.708588 0.250549 0.020233
0.738525 0.253021 0.019318
0.768372 0.255310 0.018250
0.798157 0.257568 0.017181
0.828003 0.259766 0.016052
0.857910 0.261902 0.014984
0.887939 0.263916 0.013794
0.918152 0.265717 0.012634
0.948578 0.267303 0.011230
0.979370 0.268646 0.009705
0.003418 0.197052 0.035431
0.015472 0.199432 0.035431
0.028595 0.202148 0.035431
0.044128 0.205353 0.035431
0.063171 0.208832 0.034180
0.086670 0.212311 0.032898
0.115112 0.215546 0.030945
0.147980 0.218231 0.028931
0.183990 0.220184 0.026154
0.232147 0.222809 0.025116
0.276703 0.232819 0.021545
0.325287 0.239197 0.022278
0.361633 0.247681 0.019562
0.395172 0.252502 0.019318
0.427856 0.254700 0.021240
0.460266 0.257385 0.023254
0.493011 0.259979 0.023407
0.525696 0.262695 0.023193
0.557983 0.265442 0.023010
0.589844 0.268219 0.022644
0.621155 0.271057 0.022308
0.651978 0.273865 0.021790
0.682343 0.276581 0.020935
0.712402 0.279175 0.020081
0.742218 0.281677 0.019104
0.771912 0.284149 0.018066
0.801544 0.286530 0.016998
0.831207 0.288818 0.015839
0.860931 0.291046 0.014618
0.890778 0.293121 0.013367
0.920807 0.295044 0.012054
0.951141 0.296722 0.010651
0.981781 0.298157 0.009003
0.004211 0.218719 0.039734
0.015472 0.221039 0.039734
0.027893 0.223785 0.039734
0.043549 0.227325 0.039124
0.061737 0.231140 0.038544
0.084747 0.235168 0.037323
0.112946 0.238983 0.035461
0.145721 0.242126 0.032898
0.182587 0.244934 0.030273
0.223785 0.246277 0.028900
0.274658 0.249878 0.029327
0.313446 0.262787 0.025085
0.364990 0.268311 0.026367
0.399719 0.278107 0.022491
0.432404 0.284912 0.019958
0.465027 0.287170 0.021973
0.497284 0.289734 0.023590
0.529633 0.292389 0.024139
0.561890 0.294952 0.023621
0.593628 0.297577 0.023102
0.624847 0.300415 0.022461
0.655579 0.303101 0.021820
0.685822 0.305847 0.020844
0.715759 0.308502 0.019897
0.745453 0.311035 0.018768
0.775024 0.313568 0.017639
0.804535 0.316040 0.016541
0.834045 0.318329 0.015289
0.863647 0.320618 0.014008
0.893372 0.322723 0.012665
0.923309 0.324646 0.011261
0.953491 0.326355 0.009674
0.984100 0.327820 0.007965
0.005005 0.240356 0.043793
0.016266 0.242706 0.043793
0.028595 0.245544 0.043793
0.042969 0.249176 0.043213
0.061218 0.253326 0.042664
0.083588 0.257874 0.040894
0.111359 0.262268 0.039124
0.144226 0.266388 0.037323
0.181549 0.269714 0.034821
0.221161 0.272491 0.032898
0.269714 0.272247 0.034180
0.318390 0.278137 0.033630
0.354828 0.292206 0.029510
0.405212 0.298279 0.030670
0.437988 0.309174 0.025269
0.469238 0.318176 0.020264
0.501556 0.320312 0.022003
0.533508 0.322815 0.023224
0.565155 0.325439 0.024078
0.596802 0.327972 0.023193
0.627960 0.330566 0.022400
0.658569 0.333221 0.021515
0.688751 0.335876 0.020447
0.718597 0.338531 0.019379
0.748230 0.341095 0.018250
0.777710 0.343597 0.016998
0.807068 0.346069 0.015778
0.836487 0.348419 0.014435
0.865997 0.350647 0.013092
0.895660 0.352692 0.011719
0.925537 0.354584 0.010162
0.955719 0.356293 0.008453
0.986267 0.357727 0.006592
0.005829 0.261871 0.048737
0.017059 0.264343 0.048218
0.029327 0.267303 0.048218
0.043549 0.271027 0.047699
0.060760 0.275635 0.046600
0.082764 0.280670 0.045502
0.110443 0.285828 0.043213
0.143494 0.290527 0.041504
0.181152 0.294556 0.039734
0.221832 0.298035 0.037323
0.264954 0.300415 0.036072
0.318024 0.299011 0.040314
0.362122 0.307739 0.039429
0.406921 0.318237 0.037231
0.445557 0.329010 0.034760
0.476166 0.340759 0.028046
0.505463 0.351349 0.020813
0.537048 0.354156 0.021149
0.568512 0.356537 0.022034
0.599518 0.359131 0.022583
0.630371 0.361664 0.022064
0.660919 0.364166 0.021027
0.691071 0.366730 0.019867
0.720856 0.369293 0.018677
0.750458 0.371857 0.017334
0.779877 0.374268 0.016052
0.809235 0.376678 0.014771
0.838623 0.378967 0.013336
0.868103 0.381134 0.011902
0.897705 0.383118 0.010345
0.927582 0.384979 0.008667
0.957733 0.386597 0.006836
0.988312 0.388000 0.004822
0.006622 0.283325 0.053467
0.017059 0.285980 0.053467
0.030029 0.289062 0.052979
0.044128 0.293213 0.051941
0.061218 0.298157 0.050903
0.082764 0.303589 0.049316
0.110077 0.309265 0.047699
0.143219 0.314728 0.046021
0.181366 0.319641 0.043823
0.222809 0.323669 0.042053
0.265778 0.327240 0.040314
0.316772 0.327789 0.042633
0.367126 0.326813 0.047699
0.404022 0.339142 0.044952
0.453278 0.347168 0.044952
0.485413 0.360321 0.038849
0.513672 0.372833 0.030457
0.541168 0.384094 0.021820
0.571259 0.388702 0.019531
0.602112 0.390930 0.020050
0.632599 0.393372 0.020233
0.662720 0.395935 0.020081
0.692780 0.398346 0.018951
0.722565 0.400757 0.017639
0.752136 0.403198 0.016266
0.781586 0.405548 0.014893
0.810944 0.407867 0.013428
0.840332 0.410065 0.011932
0.869812 0.412140 0.010345
0.899475 0.414032 0.008667
0.929352 0.415741 0.006836
0.959564 0.417297 0.004852
0.990204 0.418701 0.002686
0.007446 0.304749 0.058929
0.018677 0.307648 0.058472
0.030731 0.311096 0.058014
0.044739 0.315491 0.057007
0.062225 0.320801 0.055542
0.083588 0.326813 0.053986
0.110748 0.333099 0.051941
0.143738 0.339020 0.050385
0.182190 0.344574 0.048767
0.224457 0.349396 0.047150
0.268616 0.353455 0.046021
0.314392 0.356720 0.044922
0.369202 0.355927 0.050354
0.415741 0.355804 0.055511
0.444916 0.371887 0.050568
0.496155 0.378082 0.051056
0.524353 0.392303 0.042633
0.550262 0.405487 0.032471
0.575928 0.417267 0.022278
0.604065 0.423737 0.017181
0.634430 0.425873 0.017212
0.664490 0.428162 0.016998
0.694275 0.430542 0.016541
0.723816 0.432922 0.015930
0.753357 0.435242 0.014771
0.782837 0.437469 0.013275
0.812256 0.439636 0.011749
0.841705 0.441681 0.010162
0.871246 0.443634 0.008423
0.900940 0.445404 0.006561
0.930908 0.447052 0.004639
0.961212 0.448517 0.002472
0.991943 0.449829 0.000153
0.008240 0.326294 0.064606
0.019470 0.329498 0.064148
0.032135 0.333313 0.063232
0.046448 0.338135 0.061798
0.063660 0.343872 0.060394
0.085144 0.350311 0.058472
0.112335 0.357086 0.056488
0.145233 0.363556 0.054993
0.183777 0.369598 0.053497
0.226715 0.375000 0.052460
0.271820 0.379852 0.051453
0.316986 0.384155 0.049835
0.369781 0.385406 0.052979
0.420776 0.385254 0.057983
0.462128 0.387665 0.062500
0.488953 0.403870 0.056946
0.537109 0.410278 0.056183
0.562103 0.425049 0.045532
0.585724 0.438660 0.033936
0.609558 0.450806 0.022308
0.635590 0.459290 0.013977
0.665619 0.461243 0.013702
0.695404 0.463318 0.013214
0.724976 0.465485 0.012604
0.754425 0.467651 0.011749
0.783813 0.469818 0.010773
0.813141 0.471893 0.009583
0.842651 0.473846 0.007904
0.872314 0.475616 0.006104
0.902130 0.477295 0.004089
0.932251 0.478821 0.001984
0.962708 0.480225 0.000000
0.993561 0.481537 0.000000
0.009827 0.347809 0.070801
0.021118 0.351501 0.069946
0.033447 0.355713 0.068634
0.048157 0.361053 0.067322
0.066010 0.367249 0.065063
0.087463 0.374146 0.063232
0.114807 0.381287 0.061340
0.147736 0.388153 0.059937
0.186554 0.394562 0.058960
0.229767 0.400421 0.058014
0.275513 0.405945 0.057007
0.321655 0.410950 0.055542
0.369476 0.414825 0.055511
0.423737 0.415283 0.060883
0.470398 0.415863 0.065948
0.505737 0.421051 0.069000
0.531891 0.436432 0.062134
0.576019 0.443268 0.060028
0.598297 0.458374 0.047668
0.619934 0.472229 0.034790
0.642242 0.484619 0.021851
0.666077 0.495087 0.010132
0.695862 0.496857 0.009613
0.725494 0.498749 0.008972
0.755035 0.500671 0.008087
0.784485 0.502594 0.007080
0.813965 0.504486 0.005951
0.843506 0.506348 0.004517
0.873169 0.508057 0.002960
0.903076 0.509674 0.001160
0.933350 0.511139 0.000000
0.964020 0.512512 0.000000
0.995087 0.513794 0.000000
0.010651 0.369354 0.077087
0.022675 0.373596 0.075867
0.036102 0.378571 0.074219
0.050934 0.384247 0.072540
0.069214 0.390900 0.070374
0.091217 0.398102 0.068176
0.118469 0.405487 0.066406
0.151398 0.412750 0.065063
0.190277 0.419434 0.064148
0.233551 0.425781 0.063232
0.279694 0.431702 0.062286
0.326569 0.437408 0.061340
0.372101 0.442841 0.059448
0.425354 0.445129 0.063232
0.475037 0.446320 0.068176
0.517151 0.447815 0.073364
0.546722 0.455414 0.073944
0.571381 0.470215 0.066284
0.612640 0.477051 0.062622
0.632843 0.492035 0.049194
0.652832 0.505951 0.035126
0.673950 0.518463 0.021179
0.696625 0.529694 0.007629
0.725433 0.532593 0.005096
0.755066 0.534241 0.004242
0.784668 0.535950 0.003204
0.814270 0.537659 0.002014
0.843994 0.539307 0.000549
0.873840 0.540894 0.000000
0.903961 0.542450 0.000000
0.934387 0.543884 0.000000
0.965210 0.545258 0.000000
0.996490 0.546570 0.000000
0.012268 0.390900 0.083801
0.024963 0.395874 0.081909
0.038666 0.401337 0.080322
0.054657 0.407684 0.077911
0.073212 0.414642 0.075470
0.095581 0.422089 0.072968
0.123169 0.429626 0.071259
0.156128 0.437103 0.069946
0.194855 0.444122 0.069519
0.238037 0.450714 0.068634
0.284424 0.457123 0.068176
0.331512 0.463440 0.066864
0.377777 0.469635 0.065491
0.425781 0.474457 0.065491
0.477600 0.476562 0.069946
0.522614 0.478424 0.074615
0.560699 0.480499 0.079529
0.585510 0.490021 0.077972
0.606537 0.504974 0.068726
0.646729 0.511078 0.064148
0.665649 0.525787 0.050171
0.684479 0.539642 0.035248
0.704803 0.552216 0.020355
0.726990 0.563629 0.005768
0.754547 0.568298 0.000122
0.784302 0.569794 0.000000
0.814117 0.571289 0.000000
0.844055 0.572815 0.000000
0.874176 0.574280 0.000000
0.904541 0.575745 0.000000
0.935272 0.577148 0.000000
0.966309 0.578522 0.000000
0.997894 0.579865 0.000000
0.013885 0.412445 0.090179
0.027161 0.418152 0.087982
0.041748 0.424255 0.086121
0.058258 0.430969 0.083435
0.077484 0.438263 0.080719
0.100494 0.445953 0.078308
0.128571 0.453583 0.076294
0.161652 0.461182 0.075073
0.200256 0.468384 0.074615
0.243378 0.475311 0.074219
0.289429 0.482086 0.073792
0.336670 0.488983 0.072540
0.383118 0.495789 0.070801
0.427185 0.502594 0.068634
0.478638 0.506165 0.071686
0.525391 0.508881 0.075867
0.566132 0.511200 0.080322
0.600922 0.513458 0.084961
0.622223 0.524078 0.080872
0.638641 0.539673 0.070587
0.678162 0.545197 0.065002
0.696747 0.559296 0.050995
0.714996 0.572968 0.035278
0.734863 0.585693 0.019531
0.756897 0.597412 0.003876
0.783417 0.604095 0.000000
0.813507 0.605438 0.000000
0.843719 0.606812 0.000000
0.874146 0.608215 0.000000
0.904816 0.609619 0.000000
0.935822 0.611023 0.000000
0.967255 0.612427 0.000000
0.999084 0.613800 0.000000
0.016266 0.434021 0.096558
0.030029 0.440338 0.094482
0.045288 0.446991 0.092010
0.062683 0.454132 0.089081
0.082397 0.461639 0.086487
0.106232 0.469330 0.083801
0.134338 0.477142 0.081512
0.167664 0.484741 0.080322
0.206207 0.492188 0.079895
0.248962 0.499420 0.079529
0.294830 0.506500 0.079132
0.341888 0.513794 0.077911
0.388214 0.521210 0.075867
0.432556 0.528748 0.073364
0.478149 0.534851 0.072968
0.526337 0.538422 0.077087
0.568573 0.541382 0.080719
0.605652 0.543823 0.084961
0.637756 0.545868 0.089813
0.656433 0.557220 0.084076
0.668945 0.573151 0.072693
0.706207 0.579193 0.065063
0.726227 0.592194 0.051910
0.744354 0.605865 0.035553
0.764282 0.618835 0.018707
0.786560 0.630981 0.001892
0.812469 0.640076 0.000000
0.843018 0.641327 0.000000
0.873749 0.642700 0.000000
0.904785 0.644104 0.000000
0.936157 0.645508 0.000000
0.967926 0.646942 0.000000
1.000000 0.648010 0.000000
0.018707 0.455597 0.102661
0.033447 0.462433 0.100647
0.049286 0.469513 0.097931
0.066956 0.476837 0.095184
0.087830 0.484467 0.092010
0.112000 0.492310 0.089081
0.140411 0.500122 0.086884
0.173889 0.507782 0.085327
0.212189 0.515320 0.084595
0.254608 0.522766 0.084595
0.300232 0.530212 0.084229
0.346893 0.537903 0.083069
0.393066 0.545868 0.081085
0.437195 0.553833 0.078308
0.478302 0.561798 0.075073
0.525513 0.566620 0.077515
0.568848 0.570374 0.081085
0.607208 0.573425 0.085327
0.641357 0.575562 0.090179
0.671356 0.576965 0.095184
0.687897 0.589020 0.088135
0.697968 0.605072 0.075928
0.723846 0.615784 0.063721
0.754181 0.624390 0.053101
0.772858 0.638184 0.035980
0.793213 0.651642 0.017944
0.816132 0.664429 0.000000
0.841980 0.676331 0.000000
0.873077 0.677734 0.000000
0.904480 0.679138 0.000000
0.936249 0.679993 0.000000
0.968140 0.679993 0.000000
1.000000 0.679993 0.000000
0.020294 0.477356 0.109100
0.036774 0.484344 0.106567
0.053070 0.491730 0.103973
0.071899 0.499176 0.101013
0.092682 0.506805 0.097626
0.117554 0.514618 0.094482
0.146240 0.522400 0.092010
0.179932 0.530151 0.090576
0.217957 0.537781 0.089478
0.260284 0.545410 0.089081
0.305298 0.553192 0.088715
0.351593 0.561188 0.087585
0.397400 0.569489 0.085724
0.441254 0.577911 0.083069
0.482178 0.586365 0.079529
0.523163 0.593536 0.078308
0.567261 0.598022 0.081512
0.606476 0.601624 0.085724
0.641693 0.604218 0.090576
0.673401 0.605713 0.096222
0.701752 0.606323 0.102325
0.716553 0.619171 0.093353
0.725891 0.635162 0.080566
0.746857 0.647949 0.066254
0.780853 0.655762 0.054657
0.800690 0.669983 0.036469
0.821930 0.684204 0.016937
0.845856 0.697968 0.000000
0.873077 0.709839 0.000000
0.904388 0.711975 0.000000
0.936249 0.711975 0.000000
0.968140 0.711975 0.000000
1.000000 0.711975 0.000000
0.022705 0.498932 0.115265
0.039276 0.506104 0.112823
0.056732 0.513397 0.110016
0.076202 0.520905 0.106873
0.097748 0.528564 0.103302
0.122894 0.536224 0.100006
0.151855 0.544067 0.097290
0.185394 0.551758 0.095184
0.223480 0.559479 0.094116
0.265381 0.567261 0.093445
0.309937 0.575226 0.093048
0.355652 0.583496 0.092010
0.401031 0.592102 0.090179
0.444519 0.600891 0.087250
0.485138 0.609589 0.083801
0.522675 0.618073 0.080719
0.563995 0.623901 0.082275
0.603851 0.628174 0.086487
0.639740 0.631409 0.091614
0.672394 0.633270 0.097626
0.702209 0.633881 0.104279
0.728638 0.634216 0.110901
0.742798 0.647583 0.100494
0.752808 0.663422 0.086517
0.771118 0.678040 0.070007
0.806854 0.686066 0.056763
0.828918 0.699921 0.038910
0.851746 0.713806 0.019775
0.877075 0.726990 0.001007
0.905151 0.739319 0.000000
0.936249 0.743958 0.000000
0.968140 0.743958 0.000000
1.000000 0.743958 0.000000
0.025696 0.520477 0.121124
0.042328 0.527588 0.118805
0.060760 0.534790 0.115845
0.080353 0.542084 0.112823
0.102570 0.549591 0.109406
0.128021 0.557220 0.105591
0.157074 0.564941 0.102661
0.190643 0.572662 0.100311
0.228333 0.580444 0.098633
0.269714 0.588318 0.097626
0.313843 0.596344 0.096893
0.359070 0.604767 0.095886
0.403900 0.613586 0.093781
0.446930 0.622620 0.091278
0.487274 0.631592 0.087982
0.524475 0.640350 0.084595
0.559235 0.648285 0.082672
0.599548 0.653076 0.086884
0.635925 0.656891 0.092346
0.669189 0.659271 0.098969
0.699860 0.660217 0.106567
0.728180 0.659790 0.114655
0.752502 0.660828 0.119995
0.767334 0.673981 0.108795
0.779480 0.689392 0.094177
0.796204 0.705170 0.076538
0.832520 0.714081 0.061157
0.857513 0.727631 0.043671
0.881561 0.742004 0.024139
0.907867 0.755676 0.004913
0.936768 0.768555 0.000000
0.968140 0.775970 0.000000
1.000000 0.775970 0.000000
0.027924 0.541962 0.127075
0.045868 0.548889 0.124573
0.064606 0.555786 0.122009
0.084747 0.562927 0.118805
0.107544 0.570221 0.115265
0.132721 0.577759 0.111603
0.161896 0.585327 0.108154
0.195221 0.593048 0.105286
0.232452 0.600769 0.102997
0.273438 0.608704 0.101654
0.316895 0.616821 0.100647
0.361481 0.625305 0.099304
0.405853 0.634155 0.097290
0.448303 0.643280 0.094482
0.488312 0.652496 0.091614
0.525146 0.661377 0.088715
0.558990 0.669708 0.086121
0.593414 0.676483 0.087250
0.630219 0.680664 0.093445
0.663971 0.683594 0.100647
0.695251 0.685059 0.108795
0.724457 0.684967 0.117615
0.751831 0.683563 0.126495
0.774780 0.685669 0.129913
0.790833 0.698883 0.117798
