src/assets/luts/ON1 Nature & Wildlife LUTs/CinematicX LUTs - 30 Free Cinematic LUTs - The Resolve Store 2022/Plata - Rec709.cube
# Copyright: (C) Copyright 2022 The Resolve Store 
# Cannot be resold, shared or otherwise redistributed
TITLE "CinematicX (Rec.709)"
LUT_3D_SIZE 9
0.001801 0.001038 0.003479
0.100098 0.010223 0.002472
0.220032 0.015289 0.004852
0.335815 0.012695 0.009247
0.454498 0.003265 0.011932
0.578339 0.000000 0.013336
0.701569 0.000000 0.013733
0.825104 0.000000 0.011078
0.953186 0.000000 0.006256
0.001007 0.072083 0.014740
0.080933 0.081055 0.009277
0.213196 0.086273 0.015991
0.340424 0.093933 0.014954
0.466461 0.101288 0.015717
0.594421 0.108215 0.017853
0.717712 0.114594 0.017212
0.839905 0.118774 0.013855
0.965485 0.121338 0.009094
0.002625 0.153931 0.028259
0.066956 0.164337 0.026154
0.202545 0.177979 0.016510
0.353485 0.192871 0.019745
0.484070 0.203491 0.020508
0.612457 0.214874 0.021454
0.734497 0.224792 0.019226
0.854614 0.233002 0.015106
0.976807 0.239319 0.010071
0.005005 0.240356 0.043793
0.061218 0.253326 0.042664
0.181549 0.269714 0.034821
0.354828 0.292206 0.029510
0.501556 0.320312 0.022003
0.627960 0.330566 0.022400
0.748230 0.341095 0.018250
0.865997 0.350647 0.013092
0.986267 0.357727 0.006592
0.008240 0.326294 0.064606
0.063660 0.343872 0.060394
0.183777 0.369598 0.053497
0.369781 0.385406 0.052979
0.537109 0.410278 0.056183
0.635590 0.459290 0.013977
0.754425 0.467651 0.011749
0.872314 0.475616 0.006104
0.993561 0.481537 0.000000
0.013885 0.412445 0.090179
0.077484 0.438263 0.080719
0.200256 0.468384 0.074615
0.383118 0.495789 0.070801
0.566132 0.511200 0.080322
0.678162 0.545197 0.065002
0.756897 0.597412 0.003876
0.874146 0.608215 0.000000
0.999084 0.613800 0.000000
0.022705 0.498932 0.115265
0.097748 0.528564 0.103302
0.223480 0.559479 0.094116
0.401031 0.592102 0.090179
0.563995 0.623901 0.082275
0.702209 0.633881 0.104279
0.771118 0.678040 0.070007
0.877075 0.726990 0.001007
1.000000 0.743958 0.000000
0.034149 0.585724 0.139038
0.116669 0.611969 0.127899
0.239410 0.641815 0.112823
0.406860 0.674194 0.102661
0.555969 0.709198 0.093781
0.679810 0.730682 0.112488
0.794495 0.727325 0.150421
0.871460 0.783264 0.092163
0.997253 0.840332 0.015533
0.051483 0.689697 0.167633
0.138855 0.713348 0.159210
0.256042 0.740417 0.138794
0.406097 0.762421 0.110962
0.536621 0.784546 0.104279
0.643188 0.809143 0.125122
0.753082 0.820953 0.157654
0.872406 0.817596 0.182953
0.974091 0.882599 0.103729
0.001801 0.005890 0.057983
0.105560 0.013947 0.056000
0.227753 0.020691 0.057312
0.343842 0.017120 0.066864
0.460693 0.010803 0.077789
0.580688 0.006134 0.089081
0.700867 0.003571 0.096802
0.822937 0.002106 0.101807
0.950745 0.001221 0.105194
0.000000 0.089050 0.071655
0.079559 0.087982 0.076691
0.212952 0.093536 0.074219
0.343628 0.098511 0.076172
0.468536 0.104156 0.084229
0.593811 0.109985 0.094025
0.715332 0.115295 0.100800
0.836731 0.119080 0.105164
0.962341 0.121552 0.108643
0.010651 0.174194 0.103302
0.064117 0.176453 0.100311
0.194153 0.186554 0.085510
0.353119 0.198456 0.094269
0.484406 0.206757 0.096130
0.611481 0.216949 0.101929
0.732880 0.225891 0.106384
0.852478 0.233429 0.109619
0.974335 0.238800 0.112640
0.006592 0.264465 0.128967
0.057251 0.265961 0.119965
0.168335 0.278107 0.104279
0.349792 0.298492 0.095978
0.500458 0.322968 0.108856
0.627197 0.331665 0.110687
0.747772 0.341553 0.112122
0.865356 0.350891 0.114014
0.984741 0.357208 0.114807
0.012238 0.349701 0.149445
0.060272 0.353546 0.139526
0.162354 0.374817 0.127350
0.344025 0.395538 0.110352
0.533020 0.414581 0.119263
0.634949 0.459778 0.114471
0.754150 0.467651 0.116333
0.872223 0.475555 0.115875
0.993042 0.481201 0.113403
0.017853 0.431702 0.172272
0.070129 0.442566 0.162811
0.171783 0.470764 0.150879
0.353668 0.502930 0.137207
0.552155 0.519226 0.128448
0.677216 0.546997 0.132629
0.755798 0.599030 0.114746
0.874023 0.608368 0.110901
0.999054 0.613922 0.106293
0.024200 0.508698 0.194244
0.084747 0.527466 0.185669
0.191040 0.560303 0.172729
0.365234 0.598633 0.159668
0.542267 0.632965 0.144562
0.697327 0.639282 0.154144
0.772491 0.678711 0.148407
0.876801 0.728668 0.117065
1.000000 0.743958 0.104004
0.032135 0.583984 0.213654
0.099823 0.607697 0.206207
0.207642 0.641663 0.192566
0.371552 0.680603 0.176025
0.538971 0.716980 0.169128
0.668243 0.737396 0.178101
0.792328 0.731262 0.201599
0.872437 0.785461 0.171021
0.997345 0.842346 0.127533
0.048187 0.681732 0.237457
0.119354 0.706970 0.230042
0.221344 0.737335 0.220032
0.369293 0.766663 0.197418
0.520569 0.792511 0.184875
0.635925 0.813019 0.203949
0.740814 0.825195 0.221832
0.866699 0.821991 0.233795
0.973999 0.885315 0.183289
0.001801 0.017181 0.120850
0.107208 0.020294 0.117035
0.238678 0.030945 0.108795
0.355377 0.030640 0.120972
0.471069 0.023560 0.151215
0.586884 0.018646 0.169067
0.703033 0.013977 0.183258
0.823090 0.009796 0.195648
0.949921 0.006470 0.206909
0.004211 0.105591 0.127075
0.076630 0.097260 0.143066
0.204071 0.101654 0.126495
0.343658 0.105988 0.137756
0.473114 0.108246 0.160889
0.595337 0.112854 0.175079
0.713806 0.116821 0.188049
0.833832 0.119934 0.199646
0.959442 0.122314 0.210846
0.000000 0.196136 0.165222
0.032776 0.193298 0.165863
0.172211 0.193512 0.159210
0.344208 0.201019 0.166168
0.482361 0.209351 0.174103
0.609100 0.219208 0.186462
0.729858 0.227325 0.197418
0.849121 0.234161 0.207306
0.971710 0.239288 0.217651
0.038666 0.284058 0.199982
0.068756 0.283203 0.196320
0.146484 0.290771 0.190094
0.334290 0.303802 0.173218
0.497864 0.324188 0.199371
0.625214 0.334900 0.203461
0.745392 0.344604 0.210114
0.863098 0.352570 0.217621
0.982941 0.357880 0.225037
0.034119 0.374451 0.232391
0.064606 0.373779 0.227325
0.136475 0.384064 0.216522
0.310059 0.405579 0.190674
0.520203 0.424744 0.191772
0.634674 0.461334 0.218353
0.752838 0.469849 0.223389
0.871094 0.476685 0.227661
0.992218 0.481567 0.230774
0.023438 0.460114 0.262146
0.069214 0.460785 0.253326
0.143738 0.475311 0.241516
0.306946 0.508148 0.222168
0.518066 0.534576 0.197418
0.670105 0.555145 0.210907
0.752411 0.604034 0.230469
0.873535 0.608978 0.232574
0.999023 0.614197 0.232422
0.029327 0.536713 0.280518
0.079559 0.540497 0.273041
0.159607 0.560852 0.263123
0.316559 0.599701 0.248474
0.514191 0.639191 0.232849
0.683044 0.648712 0.230042
0.769440 0.681976 0.234558
0.875427 0.732666 0.234833
1.000000 0.743958 0.231995
0.036774 0.608063 0.295044
0.091980 0.615448 0.288300
0.176849 0.639771 0.279633
0.327209 0.681122 0.265564
0.511475 0.721741 0.259796
0.654266 0.744415 0.265167
0.785980 0.738739 0.268372
0.872070 0.788666 0.254852
0.997101 0.846283 0.241577
0.057770 0.701721 0.313812
0.112335 0.709778 0.304993
0.190277 0.733185 0.297302
0.321564 0.766144 0.287811
0.488922 0.796387 0.276703
0.624969 0.817017 0.289948
0.733429 0.831329 0.301392
0.860046 0.828949 0.300659
0.972961 0.888794 0.273163
0.001801 0.036072 0.189331
0.103546 0.030945 0.182495
0.243652 0.040894 0.172089
0.370697 0.046600 0.163696
0.482971 0.052094 0.180725
0.591125 0.043396 0.232300
0.707825 0.026733 0.273682
0.825653 0.020142 0.292603
0.951233 0.014008 0.311249
0.009827 0.122559 0.215881
0.070557 0.109100 0.208679
0.198944 0.110352 0.194244
0.348297 0.114319 0.176025
0.477234 0.121399 0.194031
0.597595 0.124634 0.246979
0.716187 0.123413 0.281158
0.833954 0.124176 0.298553
0.958099 0.124451 0.316467
0.000000 0.214539 0.199768
0.020294 0.209045 0.203552
0.152588 0.206421 0.217865
0.322083 0.206940 0.209900
0.479401 0.214050 0.234436
0.608765 0.224426 0.279877
0.728424 0.230438 0.295624
0.846802 0.235870 0.310822
0.969177 0.240295 0.327332
0.000000 0.299713 0.257324
0.000000 0.303802 0.260773
0.117249 0.305817 0.267181
0.292511 0.313019 0.253510
0.489960 0.325867 0.275879
0.622803 0.336884 0.288635
0.741302 0.347015 0.304779
0.858246 0.355072 0.323334
0.980896 0.359650 0.339905
0.073212 0.389648 0.296509
0.098419 0.395966 0.299225
0.140167 0.401978 0.298035
0.266174 0.418793 0.290527
0.489441 0.438080 0.277100
0.637238 0.458771 0.316467
0.752441 0.468781 0.327820
0.868256 0.477386 0.340424
0.991302 0.482910 0.350708
0.074921 0.488220 0.333008
0.102905 0.492096 0.333496
0.143219 0.496216 0.331268
0.254333 0.516235 0.323792
0.467621 0.546478 0.296967
0.647461 0.567566 0.305573
0.756165 0.596680 0.345551
0.872894 0.606201 0.353577
0.999146 0.614655 0.359161
0.068329 0.573547 0.362030
0.101196 0.573151 0.359344
0.147461 0.577820 0.357513
0.262878 0.600708 0.348999
0.464691 0.638763 0.337067
0.654327 0.660309 0.327667
0.765442 0.684601 0.334259
0.874573 0.734497 0.357635
1.000000 0.743896 0.359955
0.052002 0.644348 0.381897
0.098755 0.643158 0.375519
0.160767 0.650909 0.368561
0.277740 0.679016 0.361542
0.466766 0.719635 0.357605
0.639160 0.750031 0.359222
0.775848 0.752106 0.351501
0.871490 0.791992 0.349274
0.997223 0.853302 0.360687
0.071472 0.730072 0.396027
0.119965 0.729370 0.386688
0.177246 0.738312 0.377502
0.276459 0.764618 0.371582
0.441956 0.796814 0.367523
0.606323 0.821686 0.373169
0.729828 0.839783 0.382812
0.854279 0.840149 0.379028
0.972412 0.894226 0.371704
0.001801 0.055542 0.255768
0.097748 0.043213 0.247589
0.242004 0.052429 0.238831
0.380676 0.058472 0.225098
0.497375 0.069489 0.221375
0.593048 0.087555 0.231445
0.696136 0.068604 0.308441
0.817749 0.045441 0.371643
0.953613 0.022369 0.420624
0.003418 0.142059 0.286713
0.064606 0.123138 0.272614
0.186951 0.120850 0.261597
0.348694 0.124817 0.243042
0.487549 0.133575 0.233307
0.595795 0.152496 0.247437
0.704010 0.151184 0.324310
0.827728 0.139557 0.386780
0.958801 0.130035 0.427917
0.017883 0.226990 0.268402
0.064117 0.217712 0.273682
0.141968 0.212311 0.299469
0.308807 0.215881 0.283569
0.476044 0.221191 0.263672
0.599457 0.234894 0.283783
0.717957 0.241089 0.361115
0.843994 0.241180 0.418823
0.967377 0.242310 0.441437
0.000000 0.312134 0.283936
0.000000 0.317841 0.289948
0.052551 0.322235 0.297211
0.248962 0.326813 0.317841
0.462189 0.330963 0.318512
0.613220 0.343262 0.351624
0.734253 0.354187 0.412079
0.853668 0.358917 0.437714
0.978790 0.361237 0.458618
0.000000 0.401886 0.348022
0.000000 0.416016 0.359894
0.036102 0.425049 0.368835
0.246490 0.430664 0.373444
0.438660 0.448792 0.366974
0.627869 0.462006 0.402985
0.746063 0.470428 0.421783
0.859497 0.477386 0.441895
0.980591 0.481476 0.459442
0.109772 0.501373 0.392853
0.138336 0.515198 0.402069
0.173279 0.523346 0.407379
0.239258 0.534454 0.410736
0.413788 0.556122 0.409943
0.631073 0.573547 0.407379
0.757355 0.590424 0.450043
0.869720 0.599457 0.463440
0.991608 0.606842 0.474304
0.118469 0.600952 0.430908
0.147980 0.607056 0.435272
0.183350 0.610199 0.436981
0.243958 0.618347 0.439514
0.404083 0.642883 0.441559
0.616730 0.671295 0.426910
0.761627 0.690063 0.436066
0.876007 0.724121 0.474182
0.994873 0.731262 0.479492
0.117554 0.679626 0.458649
0.147217 0.679260 0.456329
0.183777 0.679688 0.453674
0.247955 0.690918 0.455597
0.409210 0.720886 0.453156
0.610718 0.755890 0.449615
0.759796 0.769928 0.441101
0.872559 0.795044 0.451141
0.995758 0.848938 0.481873
0.110748 0.760101 0.482788
0.141693 0.757324 0.474915
0.179932 0.757782 0.467865
0.250153 0.770905 0.459473
0.390076 0.799194 0.455536
0.575470 0.828003 0.455597
0.721710 0.849487 0.463989
0.847076 0.854401 0.462952
0.971130 0.894104 0.471954
0.001007 0.072083 0.318420
0.094543 0.056488 0.310516
0.235443 0.064606 0.306519
0.384552 0.072083 0.289429
0.507324 0.080322 0.280518
0.600677 0.102325 0.283478
0.681152 0.125702 0.289551
0.789154 0.100128 0.383972
0.921814 0.067413 0.472931
0.003418 0.161255 0.352295
0.061218 0.137512 0.334900
0.173065 0.130615 0.326599
0.339081 0.135651 0.310516
0.490448 0.143311 0.297089
0.601074 0.165649 0.299805
0.688080 0.191254 0.308044
0.798004 0.180115 0.404541
0.929047 0.160553 0.487732
0.048706 0.238983 0.350800
0.065552 0.227966 0.360504
0.128021 0.220856 0.363190
0.288330 0.222656 0.351196
0.470673 0.228119 0.332336
0.601379 0.243774 0.327454
0.696259 0.265015 0.335266
0.810425 0.264648 0.437958
0.942780 0.256592 0.515320
0.000000 0.325195 0.337006
0.019470 0.328308 0.343964
0.098419 0.326599 0.351990
0.239716 0.326813 0.384338
0.438812 0.335938 0.392456
0.600281 0.348724 0.377472
0.709045 0.360931 0.395782
0.829132 0.365234 0.488770
0.968658 0.363525 0.561676
0.000000 0.412689 0.374481
0.000000 0.427673 0.386139
0.000000 0.438721 0.394226
0.147736 0.448334 0.409851
0.392456 0.458221 0.445251
0.604340 0.466339 0.442627
0.732849 0.474396 0.478668
0.852264 0.481750 0.546509
0.978638 0.484100 0.577972
0.000000 0.512970 0.446625
0.000000 0.531555 0.462280
0.007416 0.545654 0.474762
0.160309 0.555511 0.487579
0.382019 0.566406 0.496094
0.596375 0.582245 0.491913
0.750092 0.591431 0.532196
0.861206 0.597778 0.554047
0.978180 0.601959 0.573547
0.150665 0.609436 0.490967
0.181549 0.622803 0.502594
0.217316 0.633118 0.512238
0.262482 0.641663 0.519409
0.369965 0.657806 0.528809
0.576202 0.682220 0.528046
0.755707 0.697968 0.528778
0.874664 0.715515 0.574646
0.985687 0.721710 0.586548
0.164795 0.699554 0.528046
0.194275 0.706726 0.533691
0.227692 0.711548 0.536835
0.269958 0.716949 0.538208
0.366852 0.733765 0.544891
0.563324 0.763580 0.543762
0.737946 0.786896 0.532776
0.871490 0.801636 0.549133
0.992310 0.840851 0.595581
0.173096 0.787231 0.564941
0.198944 0.787506 0.560547
0.228333 0.786255 0.553986
0.266602 0.789154 0.548645
0.349304 0.806183 0.551575
0.528015 0.833649 0.544739
0.703644 0.858276 0.546661
0.834778 0.870544 0.546875
0.969025 0.894928 0.567383
0.001007 0.086884 0.379303
0.095947 0.069519 0.371704
0.231506 0.075439 0.372864
0.383118 0.088348 0.355560
0.513458 0.094849 0.342651
0.607605 0.114349 0.344086
0.685791 0.136963 0.352417
0.761566 0.158997 0.365204
0.873352 0.139374 0.461548
0.004211 0.179321 0.417175
0.061218 0.150635 0.395081
0.165680 0.139771 0.388824
0.326691 0.146027 0.377045
0.487213 0.154419 0.360779
0.603363 0.174377 0.361572
0.691254 0.201599 0.373901
0.770599 0.225555 0.386841
0.882111 0.214203 0.480225
0.008240 0.253906 0.440948
0.050934 0.240631 0.430756
0.121735 0.228577 0.421722
0.269287 0.227966 0.414062
0.458130 0.234070 0.396149
0.599976 0.249023 0.389771
0.698425 0.274231 0.399506
0.779938 0.295990 0.409271
0.893951 0.290283 0.508392
0.054688 0.335632 0.413422
0.085144 0.336029 0.416534
0.129425 0.329681 0.422852
0.218994 0.326477 0.464294
0.416382 0.335419 0.454926
0.593262 0.348602 0.440033
0.706177 0.363373 0.437500
0.790344 0.377106 0.438721
0.913177 0.376678 0.554016
0.000000 0.426514 0.420410
0.000000 0.438568 0.429962
0.032776 0.444031 0.435730
0.161194 0.447815 0.448669
0.373322 0.453003 0.499115
0.582123 0.466553 0.507782
0.715668 0.474854 0.493195
0.810211 0.480164 0.506592
0.937622 0.483429 0.609436
0.000000 0.522766 0.476990
0.000000 0.539062 0.490631
0.000000 0.552917 0.501953
0.101532 0.563293 0.511566
0.291382 0.579926 0.534912
0.566315 0.587372 0.574066
0.732971 0.593536 0.560913
0.843079 0.598785 0.600586
0.968842 0.605103 0.673981
0.000000 0.620148 0.543274
0.000000 0.636017 0.557190
0.000000 0.651581 0.570892
0.108154 0.663208 0.584564
0.287170 0.677521 0.605103
0.542786 0.692902 0.616333
0.733978 0.707062 0.605377
0.863953 0.714996 0.651031
0.970581 0.718231 0.672699
0.182983 0.704285 0.596466
0.217957 0.716400 0.605072
0.256042 0.727661 0.613586
0.297485 0.737518 0.620300
0.366180 0.751221 0.625824
0.516876 0.776031 0.636841
0.710602 0.800446 0.628998
0.862152 0.811401 0.637238
0.983429 0.831085 0.690582
0.213043 0.797821 0.629974
0.242462 0.805206 0.634735
0.274902 0.810028 0.636688
0.309631 0.813599 0.636047
0.360443 0.821045 0.635040
0.476990 0.841400 0.640778
0.666046 0.867188 0.636658
0.825043 0.884125 0.631927
0.965393 0.898193 0.654114
0.002625 0.112823 0.450073
0.100159 0.084229 0.432556
0.233551 0.086121 0.437042
0.383026 0.104614 0.420593
0.516144 0.111267 0.405853
0.614471 0.128723 0.406097
0.691895 0.149445 0.415070
0.766174 0.170837 0.428925
0.842804 0.197449 0.447968
0.005829 0.199249 0.483307
0.064117 0.165009 0.455750
0.168121 0.149689 0.449615
0.323517 0.157623 0.441711
0.484833 0.168701 0.424591
0.606506 0.186066 0.422668
0.695374 0.211975 0.435181
0.774902 0.236694 0.450287
0.851074 0.261047 0.466492
0.010651 0.272491 0.506500
0.053070 0.254181 0.491730
0.123169 0.237000 0.479340
0.262360 0.233643 0.474854
0.448090 0.241974 0.458893
0.597961 0.256470 0.449371
0.700409 0.281677 0.459961
0.783844 0.306274 0.474457
0.858704 0.327026 0.486938
0.080780 0.350922 0.497101
0.102905 0.346008 0.499420
0.126068 0.333832 0.509308
0.211151 0.328217 0.519287
0.399048 0.334778 0.513031
0.584351 0.348602 0.497803
0.704803 0.365295 0.497681
0.792603 0.383270 0.505005
0.867523 0.399597 0.512238
0.030762 0.440704 0.497345
0.074951 0.444977 0.501740
0.123474 0.443085 0.503387
0.197266 0.440704 0.510651
0.351807 0.442596 0.574005
0.564331 0.458130 0.563690
0.709076 0.469055 0.551849
0.803650 0.477417 0.547882
0.880188 0.487396 0.548950
0.000000 0.535217 0.523499
0.000000 0.545868 0.532776
0.016266 0.553467 0.538879
0.116333 0.558899 0.542267
0.280609 0.570282 0.560638
0.539673 0.576538 0.628998
0.713226 0.590454 0.618073
0.818481 0.595947 0.606812
0.904236 0.598663 0.620148
0.000000 0.627258 0.580505
0.000000 0.639465 0.591339
0.027161 0.650940 0.602020
0.126892 0.661133 0.611633
0.240936 0.678009 0.624390
0.469116 0.700104 0.657806
0.706512 0.710388 0.682770
0.840942 0.713989 0.675995
0.943451 0.718201 0.715881
0.000000 0.715637 0.635193
0.000000 0.728912 0.646271
0.017853 0.741943 0.657990
0.135162 0.753876 0.669922
0.233398 0.768707 0.685333
0.447144 0.786896 0.714630
0.673767 0.808044 0.722168
0.838318 0.819214 0.708466
0.966919 0.828064 0.760468
0.000000 0.805176 0.699097
0.105225 0.813934 0.707214
0.200623 0.821350 0.714386
0.285309 0.827393 0.719971
0.378052 0.832642 0.717896
0.460327 0.848938 0.721527
0.610901 0.876099 0.732635
0.796387 0.897949 0.724854
0.958862 0.907471 0.732513
0.003418 0.138519 0.520172
0.098755 0.098267 0.492035
0.229309 0.093445 0.499847
0.378662 0.116760 0.485718
0.513885 0.126495 0.469269
0.618744 0.142578 0.468231
0.699890 0.164581 0.478302
0.774933 0.186066 0.493256
0.850739 0.211639 0.514496
0.008209 0.219696 0.550171
0.064606 0.183105 0.519714
0.166138 0.161682 0.511200
0.320343 0.167633 0.506256
0.482910 0.182922 0.488464
0.610107 0.199249 0.484161
0.702759 0.225403 0.497223
0.781830 0.249908 0.514099
0.857391 0.274719 0.533813
0.014648 0.293335 0.573944
0.055725 0.272614 0.556885
0.122894 0.248901 0.539581
0.257751 0.239868 0.535309
0.441589 0.249786 0.521027
0.597595 0.265564 0.509827
0.704437 0.291016 0.521667
0.787903 0.317841 0.540253
0.864105 0.342926 0.559357
0.062225 0.372040 0.590210
0.065552 0.362213 0.593811
0.112000 0.343964 0.579681
0.206055 0.330444 0.573334
0.385895 0.332550 0.568085
0.576202 0.347412 0.553772
0.703918 0.367615 0.557190
0.794159 0.391876 0.572052
0.872467 0.417236 0.589691
0.089783 0.459320 0.578918
0.120239 0.455811 0.579132
0.155182 0.445892 0.576874
0.207825 0.433197 0.582245
0.329071 0.430603 0.619446
0.543976 0.444000 0.611664
0.702271 0.461060 0.604919
0.802124 0.478729 0.610596
0.883545 0.500854 0.624481
0.008240 0.548279 0.597198
0.073212 0.549225 0.599365
0.126892 0.547516 0.599884
0.181763 0.543091 0.599548
0.288177 0.544220 0.608704
0.500397 0.552368 0.674683
0.696533 0.572632 0.665314
0.811340 0.586151 0.661682
0.897095 0.600006 0.669617
0.000000 0.635101 0.631714
0.000000 0.641113 0.636902
0.068756 0.645508 0.639984
0.139099 0.649475 0.641815
0.226562 0.657410 0.644684
0.427673 0.675507 0.670319
0.681641 0.690918 0.735291
0.818726 0.705933 0.726074
0.913055 0.715302 0.726044
0.000000 0.719910 0.679260
0.000000 0.728790 0.686432
0.084351 0.736816 0.693146
0.160980 0.745331 0.700104
0.237122 0.756165 0.708313
0.362366 0.778534 0.723663
0.587006 0.806091 0.764130
0.804901 0.819061 0.786743
0.939270 0.824432 0.784271
0.000000 0.804871 0.724487
0.000000 0.815186 0.731964
0.087097 0.823242 0.739105
0.171570 0.831879 0.747009
0.242004 0.842041 0.756775
0.330048 0.859009 0.774475
0.474701 0.887024 0.808838
0.737976 0.906891 0.823029
0.940216 0.923004 0.801025
