src/assets/luts/ON1 Nature & Wildlife LUTs/CinematicX LUTs - 30 Free Cinematic LUTs - The Resolve Store 2022/Plata - Rec709.cube
# Copyright: (C) Copyright 2022 The Resolve Store 
# Cannot be resold, shared or otherwise redistributed
TITLE "CinematicX (Rec.709)"
LUT_3D_SIZE 5
0.001801 0.001038 0.003479
0.220032 0.015289 0.004852
0.454498 0.003265 0.011932
0.701569 0.000000 0.013733
0.953186 0.000000 0.006256
0.002625 0.153931 0.028259
0.202545 0.177979 0.016510
0.484070 0.203491 0.020508
0.734497 0.224792 0.019226
0.976807 0.239319 0.010071
0.008240 0.326294 0.064606
0.183777 0.369598 0.053497
0.537109 0.410278 0.056183
0.754425 0.467651 0.011749
0.993561 0.481537 0.000000
0.022705 0.498932 0.115265
0.223480 0.559479 0.094116
0.563995 0.623901 0.082275
0.771118 0.678040 0.070007
1.000000 0.743958 0.000000
0.051483 0.689697 0.167633
0.256042 0.740417 0.138794
0.536621 0.784546 0.104279
0.753082 0.820953 0.157654
0.974091 0.882599 0.103729
0.001801 0.017181 0.120850
0.238678 0.030945 0.108795
0.471069 0.023560 0.151215
0.703033 0.013977 0.183258
0.949921 0.006470 0.206909
0.000000 0.196136 0.165222
0.172211 0.193512 0.159210
0.482361 0.209351 0.174103
0.729858 0.227325 0.197418
0.971710 0.239288 0.217651
0.034119 0.374451 0.232391
0.136475 0.384064 0.216522
0.520203 0.424744 0.191772
0.752838 0.469849 0.223389
0.992218 0.481567 0.230774
0.029327 0.536713 0.280518
0.159607 0.560852 0.263123
0.514191 0.639191 0.232849
0.769440 0.681976 0.234558
1.000000 0.743958 0.231995
0.057770 0.701721 0.313812
0.190277 0.733185 0.297302
0.488922 0.796387 0.276703
0.733429 0.831329 0.301392
0.972961 0.888794 0.273163
0.001801 0.055542 0.255768
0.242004 0.052429 0.238831
0.497375 0.069489 0.221375
0.696136 0.068604 0.308441
0.953613 0.022369 0.420624
0.017883 0.226990 0.268402
0.141968 0.212311 0.299469
0.476044 0.221191 0.263672
0.717957 0.241089 0.361115
0.967377 0.242310 0.441437
0.000000 0.401886 0.348022
0.036102 0.425049 0.368835
0.438660 0.448792 0.366974
0.746063 0.470428 0.421783
0.980591 0.481476 0.459442
0.118469 0.600952 0.430908
0.183350 0.610199 0.436981
0.404083 0.642883 0.441559
0.761627 0.690063 0.436066
0.994873 0.731262 0.479492
0.110748 0.760101 0.482788
0.179932 0.757782 0.467865
0.390076 0.799194 0.455536
0.721710 0.849487 0.463989
0.971130 0.894104 0.471954
0.001007 0.086884 0.379303
0.231506 0.075439 0.372864
0.513458 0.094849 0.342651
0.685791 0.136963 0.352417
0.873352 0.139374 0.461548
0.008240 0.253906 0.440948
0.121735 0.228577 0.421722
0.458130 0.234070 0.396149
0.698425 0.274231 0.399506
0.893951 0.290283 0.508392
0.000000 0.426514 0.420410
0.032776 0.444031 0.435730
0.373322 0.453003 0.499115
0.715668 0.474854 0.493195
0.937622 0.483429 0.609436
0.000000 0.620148 0.543274
0.000000 0.651581 0.570892
0.287170 0.677521 0.605103
0.733978 0.707062 0.605377
0.970581 0.718231 0.672699
0.213043 0.797821 0.629974
0.274902 0.810028 0.636688
0.360443 0.821045 0.635040
0.666046 0.867188 0.636658
0.965393 0.898193 0.654114
0.003418 0.138519 0.520172
0.229309 0.093445 0.499847
0.513885 0.126495 0.469269
0.699890 0.164581 0.478302
0.850739 0.211639 0.514496
0.014648 0.293335 0.573944
0.122894 0.248901 0.539581
0.441589 0.249786 0.521027
0.704437 0.291016 0.521667
0.864105 0.342926 0.559357
0.089783 0.459320 0.578918
0.155182 0.445892 0.576874
0.329071 0.430603 0.619446
0.702271 0.461060 0.604919
0.883545 0.500854 0.624481
0.000000 0.635101 0.631714
0.068756 0.645508 0.639984
0.226562 0.657410 0.644684
0.681641 0.690918 0.735291
0.913055 0.715302 0.726044
0.000000 0.804871 0.724487
0.087097 0.823242 0.739105
0.242004 0.842041 0.756775
0.474701 0.887024 0.808838
0.940216 0.923004 0.801025
