src/assets/luts/ON1 Nature & Wildlife LUTs/CinematicX LUTs - 30 Free Cinematic LUTs - The Resolve Store 2022/Sabana  - Rec709.cube
# Copyright: (C) Copyright 2022 The Resolve Store 
# Cannot be resold, shared or otherwise redistributed
TITLE "CinematicX (Rec.709)"
#LUT size
LUT_3D_SIZE 32
#LUT data points
0.020813 0.024353 0.032562
0.028015 0.026184 0.034393
0.035767 0.028168 0.036560
0.044830 0.030518 0.039185
0.053009 0.032471 0.040131
0.063995 0.036072 0.043030
0.076904 0.041870 0.047089
0.091949 0.048065 0.051819
0.108521 0.054932 0.057343
0.131531 0.064941 0.065186
0.161285 0.077087 0.074219
0.190704 0.086700 0.081879
0.219971 0.094452 0.087036
0.250793 0.101746 0.092255
0.283936 0.112030 0.100952
0.315857 0.123871 0.111053
0.349243 0.136414 0.122467
0.381042 0.148102 0.134064
0.410614 0.159607 0.144562
0.437134 0.169739 0.154236
0.463074 0.180145 0.163818
0.484436 0.188507 0.171600
0.506287 0.196960 0.179779
0.525238 0.204742 0.186615
0.544159 0.212006 0.193756
0.561096 0.218262 0.200012
0.578705 0.224640 0.206512
0.596161 0.231293 0.212860
0.614655 0.238342 0.219482
0.631836 0.244354 0.225281
0.649872 0.251099 0.231628
0.668793 0.258545 0.238739
0.023560 0.035583 0.037720
0.030853 0.037445 0.039673
0.038330 0.039001 0.041199
0.047180 0.041412 0.043762
0.055695 0.042725 0.044525
0.066559 0.046387 0.047150
0.080353 0.052429 0.051453
0.097290 0.059235 0.056488
0.116089 0.067749 0.062561
0.141937 0.079193 0.071320
0.169159 0.088684 0.078857
0.200104 0.098633 0.085907
0.228210 0.105347 0.090332
0.260803 0.113953 0.096558
0.293213 0.124603 0.105957
0.325500 0.136169 0.116150
0.357605 0.148102 0.127197
0.388580 0.159729 0.138153
0.416870 0.170502 0.147858
0.443665 0.180908 0.157471
0.468292 0.190674 0.166595
0.490417 0.199066 0.174744
0.511719 0.207336 0.182617
0.530396 0.214661 0.189575
0.549225 0.221710 0.196686
0.566467 0.228058 0.203339
0.584290 0.234711 0.210144
0.602173 0.241302 0.216461
0.620392 0.248291 0.222992
0.638153 0.254608 0.229095
0.656891 0.261597 0.235931
0.674896 0.268280 0.242493
0.026794 0.047363 0.043091
0.034180 0.049225 0.044891
0.042297 0.051453 0.047058
0.049866 0.052551 0.048096
0.058289 0.055084 0.050110
0.068634 0.057953 0.051910
0.080811 0.062134 0.054504
0.098297 0.070343 0.060608
0.118103 0.078949 0.066650
0.147247 0.091278 0.076202
0.176453 0.100494 0.082947
0.207977 0.109863 0.089691
0.238007 0.117645 0.094177
0.269012 0.125854 0.100464
0.301727 0.136688 0.110474
0.333527 0.147888 0.120728
0.366058 0.160370 0.131866
0.396545 0.171875 0.142670
0.424469 0.182373 0.151825
0.451874 0.192169 0.161438
0.475403 0.201447 0.170319
0.496368 0.209412 0.177948
0.517365 0.217621 0.186279
0.536377 0.224915 0.193329
0.555206 0.231781 0.200562
0.573334 0.238739 0.207306
0.590515 0.245026 0.213684
0.608704 0.251831 0.220093
0.627441 0.258942 0.226685
0.645569 0.265472 0.232941
0.663788 0.272034 0.239441
0.680969 0.277832 0.245331
0.033020 0.063171 0.050171
0.040283 0.064331 0.051544
0.047760 0.066315 0.053497
0.055023 0.067993 0.055481
0.063293 0.069733 0.056427
0.070984 0.070190 0.057404
0.079987 0.071655 0.058258
0.094879 0.079773 0.063660
0.112518 0.087219 0.068268
0.143646 0.099884 0.077789
0.177612 0.111267 0.086090
0.213898 0.121399 0.093201
0.245941 0.129333 0.097839
0.278198 0.138641 0.105103
0.312500 0.150574 0.115997
0.345642 0.162445 0.126984
0.378937 0.175476 0.138550
0.408936 0.186798 0.148560
0.435516 0.195892 0.157257
0.459930 0.204773 0.165466
0.482758 0.213135 0.174164
0.504150 0.220856 0.182312
0.524475 0.228851 0.190247
0.543182 0.235565 0.197266
0.562012 0.242462 0.204285
0.581329 0.250488 0.211517
0.598419 0.256500 0.217407
0.615997 0.262604 0.223572
0.634705 0.269562 0.230042
0.652344 0.275635 0.236115
0.670013 0.282166 0.242249
0.688263 0.289276 0.248871
0.042542 0.082611 0.059814
0.049225 0.083557 0.061066
0.056274 0.085724 0.062958
0.063934 0.088470 0.065521
0.071045 0.090088 0.067108
0.075317 0.085541 0.064972
0.081573 0.084534 0.064941
0.093445 0.090912 0.067749
0.107971 0.096313 0.070312
0.138824 0.108978 0.079529
0.173553 0.121368 0.088776
0.215942 0.133789 0.097168
0.253052 0.142914 0.102631
0.289307 0.154144 0.111420
0.326233 0.167389 0.123077
0.360382 0.180176 0.134674
0.393036 0.192596 0.146118
0.420532 0.202423 0.154785
0.446960 0.211426 0.163239
0.470001 0.218475 0.171082
0.490845 0.225037 0.178558
0.512695 0.233032 0.186951
0.531555 0.239838 0.193848
0.551575 0.247833 0.201416
0.569977 0.254852 0.208252
0.588074 0.261169 0.214600
0.606689 0.268402 0.221252
0.624512 0.274750 0.227325
0.643005 0.281281 0.233765
0.660980 0.287964 0.239990
0.678009 0.294128 0.245758
0.693878 0.299622 0.251160
0.052979 0.102814 0.070282
0.059753 0.105011 0.072174
0.067627 0.108673 0.075226
0.074554 0.110535 0.076324
0.081299 0.111542 0.077362
0.087677 0.112030 0.078186
0.092072 0.107819 0.076141
0.098083 0.105957 0.075623
0.108429 0.108582 0.076538
0.127930 0.116150 0.079498
0.169159 0.132904 0.091766
0.216217 0.147278 0.101440
0.259186 0.159271 0.108002
0.302185 0.173065 0.118500
0.340302 0.186615 0.130859
0.375092 0.198944 0.142181
0.405731 0.209869 0.152557
0.433594 0.219666 0.161621
0.458252 0.227295 0.169281
0.479736 0.233246 0.176300
0.501312 0.240082 0.184021
0.521057 0.246735 0.191254
0.541931 0.254364 0.199036
0.560730 0.261475 0.205994
0.579224 0.268005 0.212494
0.597412 0.274689 0.218903
0.615021 0.280579 0.224945
0.633331 0.287354 0.231293
0.650360 0.293335 0.237030
0.667694 0.299530 0.242767
0.684448 0.305695 0.248566
0.700653 0.311615 0.254425
0.063965 0.125580 0.082275
0.071747 0.129364 0.085052
0.078613 0.132477 0.087158
0.085388 0.133972 0.087891
0.091827 0.134552 0.088501
0.097961 0.134949 0.088989
0.104919 0.135529 0.090057
0.107819 0.128784 0.086060
0.114410 0.126068 0.084351
0.128479 0.129791 0.085968
0.162628 0.140717 0.093048
0.209045 0.157043 0.102905
0.256958 0.170044 0.109589
0.302948 0.183228 0.120209
0.342041 0.196228 0.131989
0.379547 0.209412 0.144135
0.410309 0.220062 0.154541
0.439178 0.230225 0.164093
0.464813 0.238617 0.172424
0.488892 0.247314 0.181030
0.511353 0.254883 0.189117
0.531952 0.262756 0.196869
0.551605 0.269409 0.203949
0.570984 0.276489 0.210999
0.590179 0.283691 0.217926
0.607056 0.288940 0.223755
0.625519 0.296143 0.230255
0.643738 0.302521 0.236542
0.660828 0.308685 0.242279
0.676666 0.313934 0.247345
0.693024 0.319611 0.253143
0.707367 0.324799 0.257904
0.075104 0.150513 0.095398
0.082123 0.153442 0.097260
0.089447 0.157257 0.099762
0.096558 0.159790 0.101349
0.103333 0.161377 0.102051
0.109802 0.160797 0.101959
0.116974 0.161774 0.102570
0.122894 0.160583 0.101593
0.125854 0.151855 0.097046
0.133698 0.146667 0.094818
0.162811 0.153198 0.097595
0.209137 0.169922 0.107513
0.261566 0.184967 0.114594
0.310669 0.200531 0.126312
0.355743 0.214783 0.139618
0.392822 0.227386 0.151459
0.425049 0.238647 0.162170
0.452820 0.247925 0.171417
0.477509 0.256714 0.179688
0.500519 0.264130 0.187653
0.520844 0.270966 0.194427
0.542175 0.278748 0.202271
0.561432 0.285339 0.209198
0.580688 0.292450 0.216125
0.598907 0.298340 0.222595
0.617676 0.305603 0.229462
0.635162 0.311584 0.235443
0.652435 0.317780 0.241272
0.669067 0.323822 0.246948
0.684631 0.329224 0.252228
0.700043 0.334778 0.257355
0.714264 0.340271 0.262207
0.086029 0.176483 0.108398
0.092957 0.179535 0.110474
0.100464 0.183990 0.112885
0.107849 0.187744 0.115448
0.115112 0.189819 0.116913
0.121979 0.190491 0.117218
0.129486 0.190765 0.117310
0.135071 0.187378 0.114838
0.139099 0.186188 0.113831
0.144531 0.176147 0.108215
0.166321 0.170288 0.105316
0.210663 0.183350 0.112915
0.265564 0.202545 0.121582
0.320740 0.218445 0.133301
0.366852 0.231354 0.145844
0.406250 0.244812 0.158691
0.440399 0.257446 0.170258
0.467377 0.266602 0.179321
0.491608 0.274323 0.187622
0.513702 0.282013 0.195251
0.533417 0.288422 0.201782
0.552246 0.294769 0.207947
0.571747 0.301453 0.214722
0.589874 0.307678 0.221222
0.608948 0.314270 0.228088
0.626862 0.320801 0.234467
0.643768 0.326843 0.240326
0.661194 0.332886 0.246216
0.677582 0.338989 0.251953
0.692963 0.344666 0.257141
0.707489 0.350281 0.261963
0.719360 0.354553 0.265869
0.097260 0.204956 0.122620
0.103943 0.207916 0.124329
0.111389 0.212158 0.126648
0.118134 0.215149 0.128693
0.126678 0.219391 0.131470
0.134216 0.220886 0.132538
0.141296 0.220306 0.132874
0.148560 0.219666 0.132568
0.154297 0.218414 0.132324
0.162537 0.213745 0.126953
0.179199 0.200287 0.119171
0.213074 0.199554 0.120789
0.270294 0.219208 0.129211
0.333069 0.238831 0.142181
0.381897 0.252441 0.155029
0.421600 0.264496 0.167175
0.453705 0.274506 0.177399
0.481079 0.283997 0.186951
0.505737 0.292969 0.195709
0.526733 0.300507 0.202881
0.546265 0.306946 0.209290
0.564362 0.312439 0.214996
0.582733 0.318085 0.221100
0.600616 0.324127 0.227081
0.618164 0.330078 0.233337
0.635376 0.335449 0.239258
0.652466 0.341949 0.245148
0.669037 0.347870 0.250824
0.684540 0.353577 0.256104
0.699341 0.359436 0.261139
0.711884 0.363983 0.265137
0.725342 0.370361 0.269806
0.107941 0.233704 0.136810
0.115051 0.237488 0.139099
0.122284 0.241547 0.141449
0.130432 0.246826 0.144562
0.138458 0.251312 0.147278
0.145416 0.251923 0.147919
0.153839 0.253540 0.149750
0.161255 0.251465 0.149506
0.167938 0.250366 0.149475
0.172882 0.250092 0.148102
0.191010 0.239136 0.138184
0.219482 0.222778 0.130920
0.273956 0.236359 0.137787
0.342743 0.258972 0.151062
0.397644 0.275909 0.165131
0.437469 0.286926 0.177002
0.469818 0.296295 0.186920
0.495270 0.304230 0.195343
0.519257 0.312683 0.203796
0.538849 0.318939 0.210205
0.557739 0.324860 0.216400
0.575745 0.329803 0.221893
0.592285 0.334564 0.227020
0.610504 0.340668 0.233246
0.626801 0.345642 0.238586
0.643585 0.351715 0.244324
0.660492 0.357513 0.249908
0.676331 0.363464 0.255463
0.691528 0.368652 0.260468
0.705170 0.374176 0.264923
0.718658 0.380096 0.269562
0.731018 0.385864 0.273834
0.119659 0.264587 0.152191
0.127014 0.268616 0.154816
0.133881 0.271637 0.156830
0.142853 0.278320 0.160858
0.151337 0.282990 0.163696
0.160187 0.286957 0.166473
0.168549 0.288361 0.168091
0.175781 0.286713 0.168243
0.183441 0.285217 0.168427
0.185364 0.285126 0.167572
0.208466 0.283569 0.163086
0.236847 0.263489 0.150085
0.279083 0.256561 0.147644
0.349518 0.279419 0.160706
0.408783 0.299683 0.174622
0.450287 0.309784 0.185425
0.482452 0.318298 0.195251
0.507996 0.324921 0.203491
0.530518 0.332336 0.210999
0.549683 0.337036 0.216797
0.568268 0.342041 0.222717
0.586121 0.347504 0.228516
0.602875 0.352325 0.233826
0.619781 0.357574 0.239288
0.636719 0.362579 0.244843
0.652588 0.368073 0.250061
0.667725 0.373016 0.254913
0.682861 0.378632 0.259888
0.697235 0.384155 0.264709
0.710205 0.389496 0.269012
0.723785 0.395477 0.273651
0.734924 0.400635 0.277313
0.133575 0.295898 0.168976
0.140594 0.299408 0.171387
0.148102 0.303833 0.174255
0.156128 0.308990 0.177246
0.165100 0.314240 0.180573
0.174103 0.318604 0.183594
0.183350 0.322113 0.186371
0.191467 0.321747 0.187378
0.199188 0.320007 0.187775
0.202881 0.321106 0.187927
0.215637 0.320343 0.184662
0.268982 0.319427 0.171539
0.289093 0.288086 0.161987
0.352661 0.299377 0.170227
0.414856 0.321533 0.183472
0.458130 0.334137 0.193848
0.491852 0.341156 0.202881
0.517517 0.346802 0.210754
0.540131 0.351685 0.217590
0.560638 0.356750 0.223907
0.578430 0.361084 0.229401
0.595825 0.365906 0.234955
0.612885 0.370331 0.240265
0.628143 0.374817 0.244965
0.644470 0.380280 0.250488
0.660034 0.385040 0.255463
0.675568 0.390259 0.260498
0.689819 0.395630 0.265137
0.702972 0.400421 0.269379
0.715881 0.405762 0.273621
0.727875 0.411072 0.277588
0.738922 0.416595 0.281372
0.148285 0.328094 0.186523
0.155029 0.331055 0.188629
0.162567 0.335724 0.191803
0.170471 0.340668 0.194672
0.178711 0.344818 0.197601
0.187622 0.349152 0.200562
0.197662 0.353851 0.204041
0.206940 0.355255 0.206055
0.215302 0.354614 0.207336
0.219849 0.355347 0.207855
0.222198 0.355927 0.205170
0.284515 0.359741 0.197754
0.325287 0.347229 0.189789
0.360291 0.325745 0.182892
0.422028 0.345154 0.195099
0.469666 0.361176 0.205353
0.501801 0.368103 0.212555
0.529175 0.373444 0.220001
0.551575 0.377136 0.226501
0.571350 0.380524 0.232208
0.589203 0.383423 0.237335
0.607635 0.388519 0.243286
0.622314 0.390778 0.247162
0.638489 0.395630 0.252411
0.654144 0.400513 0.257446
0.668304 0.403595 0.261536
0.682648 0.409210 0.266266
0.696289 0.414154 0.270691
0.709259 0.418274 0.274719
0.721741 0.423737 0.278992
0.733215 0.428741 0.282715
0.744324 0.433014 0.286224
0.162384 0.358978 0.203674
0.169647 0.363312 0.206726
0.176086 0.365509 0.208221
0.183746 0.369781 0.211029
0.191833 0.373962 0.213959
0.201019 0.378174 0.217010
0.212158 0.383789 0.221252
0.222229 0.386627 0.224121
0.230957 0.386292 0.225586
0.236755 0.386200 0.226562
0.240173 0.387817 0.224854
0.290680 0.394012 0.218414
0.357361 0.396942 0.211334
0.374542 0.368500 0.201752
0.425934 0.366791 0.205658
0.477539 0.384644 0.216644
0.512360 0.396210 0.224579
0.538177 0.400909 0.230072
0.561096 0.404022 0.235565
0.580414 0.406616 0.240601
0.598907 0.408325 0.245483
0.616394 0.411743 0.250702
0.632874 0.415039 0.255463
0.647186 0.416840 0.259186
0.662506 0.421082 0.264069
0.675720 0.424316 0.267944
0.689362 0.428284 0.272125
0.703522 0.433777 0.276855
0.715576 0.437317 0.280518
0.726776 0.441772 0.284210
0.737732 0.446136 0.287750
0.748871 0.451202 0.291626
0.175873 0.388153 0.220215
0.181885 0.390228 0.221893
0.188446 0.392944 0.223816
0.196747 0.397888 0.226837
0.205139 0.401642 0.229553
0.214569 0.405945 0.233093
0.224548 0.410187 0.236664
0.236053 0.414581 0.240723
0.245850 0.415283 0.242981
0.252258 0.415955 0.244354
0.247345 0.418457 0.243134
0.297089 0.420624 0.238434
0.375183 0.428955 0.227570
0.409027 0.419250 0.226898
0.429871 0.398743 0.219940
0.480652 0.405548 0.226410
0.519196 0.418304 0.235382
0.546844 0.426453 0.241089
0.569489 0.430389 0.245728
0.588989 0.432343 0.249817
0.607697 0.434937 0.254486
0.624481 0.435852 0.258392
0.640320 0.438049 0.262665
0.655273 0.439911 0.266663
0.669678 0.442749 0.270905
0.683350 0.446075 0.274994
0.696716 0.449219 0.278900
0.708374 0.452759 0.282471
0.720154 0.456573 0.286133
0.732025 0.460754 0.290039
0.742676 0.465179 0.293610
0.752747 0.468567 0.296875
0.187744 0.414032 0.235352
0.194031 0.416321 0.237061
0.201080 0.419708 0.239288
0.210266 0.426056 0.243530
0.218597 0.429199 0.245667
0.227325 0.432251 0.248535
0.237213 0.436493 0.251892
0.248718 0.439789 0.255493
0.258789 0.441620 0.258575
0.264648 0.442047 0.259705
0.261108 0.443817 0.258514
0.302582 0.447021 0.255646
0.387268 0.457520 0.241852
0.433655 0.459259 0.247223
0.452576 0.442322 0.240509
0.478394 0.430389 0.237549
0.520996 0.438324 0.245361
0.553223 0.448242 0.252014
0.576996 0.454681 0.256653
0.597015 0.458221 0.260590
0.615570 0.460449 0.264221
0.632233 0.461090 0.267395
0.646942 0.461578 0.270477
0.661438 0.462433 0.273926
0.675537 0.464233 0.277588
0.689819 0.467712 0.281952
0.701172 0.468933 0.284790
0.713257 0.471771 0.288361
0.725677 0.475800 0.292358
0.736755 0.479797 0.296021
0.746674 0.482697 0.299042
0.756592 0.484894 0.301910
0.198883 0.438232 0.248901
0.205780 0.441864 0.251251
0.213867 0.446472 0.254547
0.222229 0.450806 0.257812
0.229797 0.452942 0.259460
0.239349 0.457123 0.262970
0.249603 0.460754 0.266510
0.260590 0.463593 0.270081
0.271149 0.466156 0.273773
0.277649 0.467682 0.275391
0.273102 0.468567 0.273987
0.308685 0.470490 0.272125
0.397583 0.482849 0.255646
0.450989 0.489594 0.261505
0.473511 0.480316 0.259247
0.491302 0.466919 0.254883
0.518616 0.460083 0.255035
0.553162 0.466522 0.261017
0.580811 0.473877 0.266418
0.603149 0.480042 0.271210
0.621674 0.483215 0.274445
0.638214 0.484619 0.276947
0.653931 0.485626 0.279816
0.667206 0.485321 0.282043
0.680634 0.486389 0.285095
0.694366 0.487671 0.288361
0.705750 0.488434 0.291077
0.717834 0.490875 0.294403
0.729156 0.493622 0.297791
0.740509 0.496460 0.301331
0.749756 0.498596 0.303802
0.759979 0.500549 0.306671
0.210846 0.463623 0.263306
0.218628 0.468231 0.266632
0.226166 0.471466 0.269226
0.233521 0.473389 0.270966
0.242706 0.477814 0.274658
0.251526 0.481079 0.277588
0.261139 0.483826 0.280609
0.272705 0.486359 0.284058
0.282410 0.488312 0.287018
0.288269 0.489197 0.288391
0.279388 0.491913 0.287994
0.313721 0.494446 0.287323
0.404510 0.505493 0.270477
0.461365 0.513885 0.273499
0.490570 0.513885 0.277374
0.508667 0.504120 0.273499
0.524139 0.490662 0.268799
0.551941 0.487457 0.271027
0.580841 0.492279 0.275818
0.605408 0.497803 0.280182
0.626770 0.502930 0.284058
0.644043 0.505920 0.287109
0.659149 0.507507 0.289368
0.672394 0.507050 0.290833
0.686279 0.507782 0.293274
0.698792 0.507690 0.295563
0.710541 0.508270 0.297974
0.721313 0.508820 0.300262
0.732361 0.510406 0.303070
0.743591 0.513672 0.306580
0.753082 0.514832 0.308868
0.762787 0.514618 0.310883
0.222473 0.487640 0.277283
0.229279 0.490326 0.279388
0.236603 0.493011 0.281769
0.244751 0.496521 0.284729
0.252991 0.499359 0.287323
0.262268 0.502869 0.290558
0.272247 0.505157 0.293793
0.282623 0.506683 0.296570
0.292999 0.508820 0.299469
0.298706 0.511444 0.301910
0.292755 0.513031 0.300842
0.320831 0.514496 0.299133
0.407410 0.526855 0.284698
0.467896 0.533325 0.279175
0.501160 0.538239 0.289551
0.520630 0.533173 0.288116
0.539642 0.526306 0.287048
0.555206 0.514893 0.283264
0.579773 0.512146 0.285156
0.604309 0.515137 0.288849
0.627716 0.519073 0.292328
0.646545 0.523193 0.295807
0.662628 0.525696 0.298157
0.677490 0.527557 0.300446
0.690552 0.527557 0.301910
0.703125 0.527161 0.303406
0.713715 0.526581 0.304718
0.725281 0.526886 0.306824
0.735657 0.527710 0.309021
0.746094 0.529419 0.311646
0.756866 0.530518 0.314270
0.766510 0.530701 0.316406
0.232941 0.509827 0.290192
0.239899 0.512817 0.292511
0.247498 0.515808 0.295227
0.255707 0.518829 0.298096
0.263000 0.520111 0.299438
0.272034 0.522491 0.302368
0.282440 0.525085 0.306244
0.292389 0.526093 0.308441
0.302002 0.528503 0.311249
0.307770 0.531677 0.314026
0.300690 0.533661 0.312927
0.327515 0.534698 0.310944
0.414856 0.546082 0.296143
0.473663 0.553162 0.289825
0.511017 0.561584 0.301178
0.531097 0.559082 0.302155
0.548767 0.552673 0.299957
0.565491 0.546021 0.298767
0.581665 0.537659 0.296570
0.603149 0.534180 0.297638
0.626587 0.535980 0.300842
0.646271 0.538391 0.303436
0.664520 0.541260 0.306213
0.678925 0.543152 0.308197
0.692688 0.544678 0.309814
0.705902 0.545105 0.311340
0.717133 0.544922 0.312592
0.728333 0.544250 0.313812
0.738678 0.543610 0.315155
0.748657 0.544830 0.317261
0.759857 0.546417 0.320129
0.769226 0.545776 0.321564
0.242340 0.529694 0.301849
0.248993 0.532196 0.303955
0.256073 0.534576 0.306274
0.263947 0.537445 0.309021
0.272522 0.540283 0.312073
0.280914 0.541321 0.313995
0.291962 0.543945 0.317780
0.302002 0.545319 0.320251
0.311249 0.547729 0.323029
0.315155 0.551056 0.325134
0.303497 0.552429 0.322693
0.336761 0.553802 0.322266
0.415314 0.564728 0.310150
0.474121 0.569733 0.296295
0.514191 0.580078 0.308105
0.540527 0.582458 0.313995
0.556946 0.577545 0.312103
0.573944 0.572418 0.311188
0.589783 0.566406 0.310333
0.603821 0.558624 0.308350
0.624268 0.555206 0.309326
0.645752 0.555511 0.311890
0.664185 0.556305 0.313995
0.679932 0.558594 0.316040
0.694122 0.559631 0.317627
0.707336 0.560883 0.319031
0.718903 0.561157 0.320068
0.730499 0.560974 0.320923
0.740997 0.560150 0.321869
0.751343 0.560364 0.323517
0.760864 0.560547 0.325012
0.771515 0.559662 0.326630
0.250275 0.547913 0.312561
0.257263 0.550537 0.314911
0.264252 0.552429 0.316803
0.272217 0.555328 0.319611
0.280365 0.557312 0.321899
0.289520 0.558838 0.324493
0.300140 0.561615 0.328308
0.310333 0.563904 0.331238
0.318695 0.566498 0.333923
0.321899 0.569275 0.335510
0.312592 0.570679 0.333221
0.343994 0.571686 0.331940
0.420319 0.582062 0.320526
0.475372 0.587677 0.307037
0.515350 0.595551 0.312775
0.546051 0.603363 0.323334
0.566254 0.601440 0.324402
0.581512 0.595184 0.321808
0.597351 0.591339 0.321808
0.610718 0.585999 0.321106
0.624756 0.579163 0.319763
0.641907 0.574219 0.319641
0.661957 0.573151 0.321716
0.678925 0.573669 0.323425
0.694611 0.574310 0.325134
0.708099 0.575470 0.326599
0.720093 0.576080 0.327698
0.731598 0.575592 0.328125
0.743286 0.575287 0.328918
0.753510 0.575378 0.329987
0.763000 0.574219 0.330719
0.773010 0.573669 0.331909
0.257904 0.564941 0.322357
0.264709 0.566925 0.324280
0.271912 0.569427 0.326660
0.279694 0.572174 0.329346
0.287903 0.574097 0.331573
0.297302 0.576080 0.334503
0.307800 0.578583 0.338104
0.317596 0.581299 0.341064
0.325745 0.584137 0.343750
0.328552 0.587341 0.345642
0.320923 0.588684 0.343323
0.350616 0.589905 0.342041
0.419250 0.599579 0.333069
0.476257 0.605743 0.319336
0.515717 0.611542 0.317139
0.549683 0.621552 0.331116
0.573578 0.624268 0.335815
0.588684 0.619659 0.334290
0.603394 0.614410 0.332245
0.617920 0.610474 0.332397
0.631226 0.606934 0.332489
0.643311 0.599182 0.330505
0.657623 0.592712 0.329315
0.676727 0.591003 0.331482
0.692657 0.589996 0.332520
0.707428 0.590363 0.333923
0.720917 0.590485 0.335022
0.731812 0.590057 0.335480
0.744629 0.590240 0.336334
0.754578 0.589294 0.336731
0.764771 0.588348 0.337158
0.775269 0.587677 0.337982
0.264893 0.581177 0.331390
0.271851 0.583740 0.333771
0.279114 0.586426 0.336182
0.286957 0.588776 0.338593
0.295105 0.590759 0.341095
0.305054 0.592957 0.344208
0.315247 0.595795 0.347900
0.325226 0.599091 0.351105
0.333801 0.602539 0.354248
0.334839 0.605621 0.355316
0.322540 0.606628 0.351715
0.354797 0.608551 0.352020
0.420197 0.617950 0.345825
0.472778 0.623535 0.331726
0.515167 0.628571 0.325226
0.547272 0.637512 0.335663
0.576294 0.644379 0.344910
0.596191 0.644165 0.346680
0.609924 0.638977 0.344696
0.624573 0.636444 0.344238
0.638000 0.632629 0.344421
0.650146 0.627136 0.343658
0.660980 0.620056 0.341675
0.672577 0.611267 0.339142
0.690125 0.608124 0.340332
0.705658 0.606384 0.341370
0.719940 0.605377 0.342346
0.731842 0.605133 0.343201
0.744690 0.605255 0.344330
0.754913 0.603973 0.344360
0.765778 0.603027 0.344543
0.776062 0.601807 0.344818
0.272186 0.597778 0.340759
0.279175 0.600830 0.343262
0.286713 0.603790 0.345856
0.294556 0.606720 0.348389
0.303436 0.610046 0.351715
0.313263 0.612915 0.355164
0.323669 0.616821 0.359222
0.333466 0.620361 0.362274
0.341431 0.624573 0.365448
0.342621 0.626648 0.365936
0.327332 0.627289 0.361328
0.359070 0.630310 0.363586
0.417633 0.637421 0.360413
0.468903 0.644928 0.348877
0.508728 0.647705 0.337524
0.544067 0.654236 0.340942
0.572998 0.663422 0.351959
0.598846 0.667084 0.357880
0.617126 0.665710 0.358765
0.629517 0.659485 0.355927
0.642334 0.655243 0.354401
0.656189 0.654297 0.355957
0.667328 0.648010 0.354706
0.677551 0.641052 0.352814
0.688660 0.632050 0.350250
0.703400 0.625366 0.349335
0.718445 0.623016 0.350464
0.731903 0.622284 0.351501
0.743744 0.620483 0.351654
0.754700 0.619019 0.351776
0.765198 0.617157 0.351593
0.776550 0.616180 0.351959
0.283081 0.622711 0.354340
0.290161 0.626373 0.356995
0.298035 0.630341 0.360107
0.305267 0.632629 0.361938
0.313751 0.635040 0.364746
0.323822 0.638916 0.368683
0.333740 0.641754 0.371857
0.342834 0.644501 0.374298
0.349548 0.646606 0.375946
0.351837 0.649841 0.377441
0.342804 0.651642 0.375336
0.358490 0.653870 0.375641
0.413269 0.659485 0.376862
0.462830 0.666840 0.367004
0.503296 0.670197 0.355103
0.535614 0.670959 0.345428
0.567108 0.678833 0.355347
0.594788 0.685577 0.364899
0.619446 0.687775 0.369781
0.636139 0.685455 0.370270
0.648132 0.680573 0.368073
0.660309 0.675293 0.365509
0.672211 0.672302 0.365845
0.684143 0.669678 0.366364
0.693878 0.661896 0.364227
0.702179 0.650360 0.359772
0.715118 0.642883 0.358093
0.730865 0.639404 0.359283
0.742432 0.636780 0.359406
0.753387 0.633972 0.358948
0.765106 0.632263 0.359009
0.776489 0.631378 0.360077
0.295166 0.650848 0.369019
0.301849 0.653351 0.371155
0.308746 0.656006 0.373291
0.316162 0.658661 0.375610
0.324097 0.660614 0.377808
0.333740 0.664642 0.381622
0.343323 0.667419 0.384857
0.351196 0.668579 0.386200
0.358856 0.671600 0.388428
0.361694 0.674011 0.389893
0.354919 0.676392 0.389008
0.354889 0.678162 0.387360
0.403564 0.682343 0.390411
0.453888 0.688660 0.386230
0.493195 0.692017 0.375519
0.528442 0.693298 0.362823
0.558990 0.694305 0.358948
0.587555 0.701233 0.368774
