src/assets/luts/ON1 Nature & Wildlife LUTs/CinematicX LUTs - 30 Free Cinematic LUTs - The Resolve Store 2022/Sabana  - Rec709.cube
# Copyright: (C) Copyright 2022 The Resolve Store 
# Cannot be resold, shared or otherwise redistributed
TITLE "CinematicX (Rec.709)"
#LUT size
LUT_3D_SIZE 5
#LUT data points
DOMAIN_MIN 0.000000 0.000000 0.000000
DOMAIN_MAX 0.903226 0.903226 0.903226
0.020813 0.024353 0.032562
0.091949 0.048065 0.051819
0.283936 0.112030 0.100952
0.484436 0.188507 0.171600
0.614655 0.238342 0.219482
0.075104 0.150513 0.095398
0.122894 0.160583 0.101593
0.355743 0.214783 0.139618
0.542175 0.278748 0.202271
0.669067 0.323822 0.246948
0.162384 0.358978 0.203674
0.222229 0.386627 0.224121
0.425934 0.366791 0.205658
0.616394 0.411743 0.250702
0.715576 0.437317 0.280518
0.242340 0.529694 0.301849
0.302002 0.545319 0.320251
0.514191 0.580078 0.308105
0.645752 0.555511 0.311890
0.740997 0.560150 0.321869
0.305023 0.674866 0.381134
0.358124 0.689514 0.396942
0.483154 0.713287 0.395111
0.667786 0.726562 0.393738
0.740356 0.681641 0.378662
0.058319 0.070953 0.131531
0.111115 0.078705 0.142578
0.273773 0.097992 0.153198
0.490784 0.178833 0.206299
0.616547 0.229187 0.251343
0.074341 0.156281 0.171204
0.126404 0.177094 0.189514
0.368103 0.229187 0.201691
0.557434 0.287964 0.251770
0.672699 0.325745 0.285645
0.162140 0.369537 0.237396
0.218475 0.401703 0.257111
0.428009 0.402863 0.278992
0.628143 0.439636 0.296021
0.720551 0.451813 0.315399
0.227966 0.514252 0.313354
0.295380 0.554871 0.352600
0.488098 0.587433 0.347900
0.647888 0.573456 0.359497
0.747284 0.573151 0.359283
0.288696 0.656036 0.393250
0.361633 0.717957 0.441864
0.441589 0.721313 0.450073
0.659912 0.737518 0.439819
0.743744 0.696472 0.426666
0.091034 0.134674 0.271790
0.140076 0.136230 0.272095
0.310944 0.121002 0.283997
0.532715 0.193298 0.294647
0.643066 0.230896 0.309601
0.109528 0.219330 0.310272
0.162323 0.251251 0.340210
0.378448 0.249634 0.345123
0.583435 0.288422 0.338409
0.684967 0.318695 0.351349
0.152771 0.366730 0.391449
0.197662 0.401306 0.422668
0.376923 0.460144 0.464111
0.617035 0.494690 0.463898
0.739258 0.522461 0.474182
0.235168 0.564758 0.496216
0.265076 0.573608 0.495483
0.378418 0.608826 0.484589
0.633453 0.622864 0.501831
0.756927 0.642151 0.509277
0.293488 0.702637 0.539551
0.321838 0.702576 0.507874
0.372864 0.728088 0.472137
0.619385 0.766174 0.540405
0.748810 0.737762 0.533264
0.136627 0.208557 0.415894
0.178528 0.211517 0.414093
0.253937 0.144287 0.405731
0.557159 0.209930 0.414612
0.665314 0.243774 0.414856
0.155701 0.293457 0.450653
0.202728 0.319824 0.471252
0.317352 0.307037 0.466125
0.600494 0.313812 0.470123
0.702667 0.341278 0.484619
0.186768 0.404114 0.505615
0.229309 0.434143 0.534790
0.345520 0.492371 0.578461
0.604828 0.503845 0.573700
0.733551 0.525543 0.584930
0.225708 0.533600 0.581512
0.258972 0.551025 0.601685
0.333862 0.593964 0.636108
0.608673 0.663452 0.646973
0.739105 0.668213 0.642731
0.276093 0.672607 0.651611
0.309845 0.693024 0.662079
0.348053 0.713715 0.653870
0.595306 0.808136 0.659302
0.752380 0.800507 0.667938
0.170380 0.261414 0.518280
0.209778 0.266266 0.518402
0.273499 0.240112 0.508667
0.552887 0.218689 0.513489
0.678925 0.256561 0.532959
0.188293 0.344879 0.552063
0.232391 0.366302 0.570435
0.328827 0.384003 0.575165
0.583313 0.334747 0.579803
0.705658 0.356445 0.609894
0.212372 0.441925 0.606781
0.254822 0.467865 0.637543
0.349426 0.514923 0.680603
0.578033 0.501587 0.681885
0.723480 0.508179 0.688202
0.244659 0.545898 0.681671
0.279419 0.563263 0.701172
0.350189 0.598663 0.722839
0.603821 0.686798 0.744354
0.733368 0.653442 0.737762
0.278961 0.651855 0.730713
0.308197 0.662720 0.739349
0.348663 0.682983 0.753693
0.551392 0.778778 0.783142
0.748993 0.818878 0.796570
