src/assets/luts/ON1 Nature & Wildlife LUTs/CinematicX LUTs - 30 Free Cinematic LUTs - The Resolve Store 2022/Sabana  - Rec709.cube
# Copyright: (C) Copyright 2022 The Resolve Store 
# Cannot be resold, shared or otherwise redistributed
TITLE "CinematicX (Rec.709)"
#LUT size
LUT_3D_SIZE 8
#LUT data points
DOMAIN_MIN 0.000000 0.000000 0.000000
DOMAIN_MAX 0.903226 0.903226 0.903226
0.020813 0.024353 0.032562
0.053009 0.032471 0.040131
0.108521 0.054932 0.057343
0.219971 0.094452 0.087036
0.349243 0.136414 0.122467
0.463074 0.180145 0.163818
0.544159 0.212006 0.193756
0.614655 0.238342 0.219482
0.042542 0.082611 0.059814
0.071045 0.090088 0.067108
0.107971 0.096313 0.070312
0.253052 0.142914 0.102631
0.393036 0.192596 0.146118
0.490845 0.225037 0.178558
0.569977 0.254852 0.208252
0.643005 0.281281 0.233765
0.086029 0.176483 0.108398
0.115112 0.189819 0.116913
0.139099 0.186188 0.113831
0.265564 0.202545 0.121582
0.440399 0.257446 0.170258
0.533417 0.288422 0.201782
0.608948 0.314270 0.228088
0.677582 0.338989 0.251953
0.133575 0.295898 0.168976
0.165100 0.314240 0.180573
0.199188 0.320007 0.187775
0.289093 0.288086 0.161987
0.491852 0.341156 0.202881
0.578430 0.361084 0.229401
0.644470 0.380280 0.250488
0.702972 0.400421 0.269379
0.187744 0.414032 0.235352
0.218597 0.429199 0.245667
0.258789 0.441620 0.258575
0.387268 0.457520 0.241852
0.520996 0.438324 0.245361
0.615570 0.460449 0.264221
0.675537 0.464233 0.277588
0.725677 0.475800 0.292358
0.232941 0.509827 0.290192
0.263000 0.520111 0.299438
0.302002 0.528503 0.311249
0.414856 0.546082 0.296143
0.548767 0.552673 0.299957
0.626587 0.535980 0.300842
0.692688 0.544678 0.309814
0.738678 0.543610 0.315155
0.264893 0.581177 0.331390
0.295105 0.590759 0.341095
0.333801 0.602539 0.354248
0.420197 0.617950 0.345825
0.576294 0.644379 0.344910
0.638000 0.632629 0.344421
0.690125 0.608124 0.340332
0.744690 0.605255 0.344330
0.305023 0.674866 0.381134
0.332855 0.683044 0.389496
0.365814 0.693268 0.399658
0.393402 0.704895 0.403534
0.550018 0.713409 0.367859
0.650970 0.726532 0.391785
0.704163 0.714691 0.389557
0.740356 0.681641 0.378662
0.041351 0.047058 0.084564
0.071045 0.054352 0.092468
0.101868 0.058167 0.094177
0.193359 0.079468 0.109772
0.336639 0.125153 0.138519
0.461670 0.173096 0.181641
0.543945 0.205658 0.212250
0.613983 0.233002 0.236603
0.053406 0.094238 0.106506
0.081116 0.101440 0.112610
0.122925 0.111328 0.115753
0.258148 0.152618 0.137024
0.402008 0.198090 0.171814
0.499756 0.230835 0.205231
0.576111 0.258331 0.232452
0.647644 0.283844 0.256775
0.082428 0.178680 0.137573
0.110626 0.192230 0.144745
0.140381 0.194611 0.151276
0.283661 0.216919 0.157471
0.447266 0.264099 0.193634
0.539764 0.296082 0.224792
0.610748 0.317047 0.247345
0.677826 0.340088 0.269409
0.132233 0.297302 0.185516
0.164185 0.319366 0.199860
0.202454 0.331055 0.210846
0.298828 0.307159 0.199524
0.498932 0.349426 0.226288
0.589020 0.376434 0.254395
0.648438 0.387787 0.270081
0.706421 0.407318 0.287994
0.185883 0.414124 0.251984
0.219147 0.437408 0.268402
0.260864 0.449493 0.282501
0.385529 0.466156 0.269592
0.526337 0.452728 0.273010
0.621460 0.472137 0.287720
0.680054 0.471436 0.298096
0.727997 0.481262 0.311035
0.227356 0.504242 0.304291
0.261932 0.525085 0.319885
0.303925 0.535736 0.335754
0.387299 0.550476 0.333160
0.549774 0.563324 0.327026
0.629181 0.546204 0.326538
0.696075 0.553650 0.331787
0.742676 0.549957 0.334778
0.259857 0.579041 0.346191
0.292023 0.593872 0.358521
0.333771 0.608002 0.376495
0.390656 0.621582 0.381409
0.570190 0.650909 0.367462
0.637329 0.640717 0.369385
0.691437 0.616730 0.365387
0.747894 0.614014 0.367828
0.299469 0.672058 0.395905
0.335541 0.698181 0.414032
0.369904 0.704132 0.424347
0.376984 0.708588 0.423492
0.540375 0.721985 0.400055
0.646667 0.731934 0.414520
0.703949 0.721222 0.415009
0.742920 0.690704 0.405273
0.064545 0.080139 0.149841
0.090027 0.081207 0.152039
0.123596 0.083130 0.158783
0.203186 0.083344 0.162292
0.359619 0.126556 0.176758
0.473938 0.171021 0.205566
0.551117 0.200012 0.232208
0.618164 0.227203 0.255493
0.071716 0.121857 0.167450
0.099091 0.131958 0.177185
0.135468 0.137604 0.181458
0.231415 0.139313 0.185028
0.411438 0.187012 0.202667
0.515625 0.229156 0.234680
0.585327 0.254974 0.256622
0.650238 0.278992 0.277496
0.081055 0.180145 0.195557
0.106628 0.193115 0.206329
0.144867 0.210449 0.221863
0.262909 0.230255 0.221222
0.453888 0.274750 0.238922
0.553101 0.307922 0.268250
0.619904 0.323517 0.282623
0.683563 0.343445 0.299377
0.133362 0.318329 0.248566
0.158203 0.327881 0.248932
0.195465 0.349884 0.252289
0.288086 0.350128 0.269135
0.497955 0.365204 0.263123
0.587189 0.387878 0.284088
0.654816 0.409821 0.303680
0.711090 0.422272 0.316010
0.186096 0.424561 0.274811
0.207733 0.429108 0.277802
0.253265 0.456512 0.294678
0.309906 0.472473 0.318237
0.521362 0.474762 0.323608
0.622803 0.484283 0.317291
0.686951 0.494965 0.332703
0.732697 0.494751 0.336487
0.222137 0.504059 0.313812
0.243713 0.507660 0.315460
0.295593 0.539703 0.346985
0.320557 0.555084 0.366486
0.550354 0.584961 0.373840
0.628754 0.559845 0.359467
0.697510 0.566223 0.360626
0.746063 0.558197 0.357513
0.247711 0.567413 0.348206
0.271240 0.573669 0.348846
0.325836 0.609528 0.386169
0.339722 0.626160 0.401947
0.547150 0.656464 0.399872
0.636169 0.657532 0.410400
0.693420 0.628082 0.395966
0.751007 0.624573 0.395477
0.287903 0.655487 0.389008
0.312744 0.669495 0.404633
0.369659 0.722412 0.449707
0.366699 0.716797 0.446899
0.512177 0.729126 0.445923
0.632538 0.738281 0.446747
0.703217 0.737701 0.456085
0.743652 0.698669 0.434082
0.081787 0.115387 0.227875
0.108429 0.117828 0.229187
0.139618 0.116364 0.234375
0.219666 0.092438 0.235596
0.384583 0.138763 0.249878
0.504761 0.182892 0.258942
0.576447 0.208435 0.272369
0.636047 0.228485 0.284698
0.088776 0.159851 0.249237
0.115417 0.169525 0.257080
0.150757 0.177887 0.264038
0.242279 0.154419 0.261505
0.428864 0.195282 0.269897
0.538330 0.231079 0.280487
0.605072 0.253754 0.293213
0.660400 0.273285 0.305817
0.099792 0.213654 0.274414
0.128204 0.230225 0.290710
0.163239 0.251740 0.310272
0.249969 0.264526 0.306824
0.465210 0.278351 0.311035
0.562836 0.301758 0.315033
0.629150 0.321594 0.327179
0.686981 0.337708 0.337738
0.124146 0.302795 0.324036
0.151306 0.324036 0.342590
0.179169 0.345520 0.362671
0.274414 0.378906 0.386078
0.466583 0.406769 0.390167
0.587738 0.429779 0.388885
0.668671 0.456573 0.407806
0.722778 0.454468 0.397858
0.186615 0.446747 0.394714
0.209595 0.462067 0.406952
0.230774 0.470184 0.405121
0.266174 0.485474 0.392487
0.495087 0.509552 0.433044
0.614441 0.514465 0.406128
0.684570 0.526398 0.413269
0.742798 0.537201 0.421478
0.229523 0.545105 0.440552
0.245697 0.546295 0.435699
0.263397 0.543884 0.421844
0.301575 0.566437 0.405914
0.516205 0.600525 0.444061
0.619354 0.589447 0.447937
0.697845 0.598633 0.441101
0.753845 0.606842 0.450409
0.256866 0.612640 0.468109
0.270355 0.607574 0.455505
0.290955 0.609406 0.443085
0.331055 0.631287 0.420624
0.501495 0.662964 0.457031
0.632843 0.687073 0.489807
0.689362 0.657715 0.471802
0.756256 0.662170 0.475159
0.294342 0.693054 0.475494
0.310852 0.693970 0.467651
0.335358 0.698303 0.452515
0.383301 0.723724 0.457123
0.467651 0.729980 0.469788
0.602356 0.754059 0.500427
0.700256 0.762634 0.524628
0.746765 0.720306 0.490753
0.105103 0.158203 0.317535
0.129974 0.160736 0.318329
0.159760 0.157074 0.316284
0.197235 0.123535 0.319427
0.407867 0.154877 0.332794
0.520874 0.190369 0.330292
0.591064 0.214478 0.332886
0.651093 0.235413 0.338654
0.116089 0.206085 0.340149
0.141663 0.215332 0.347015
0.173981 0.222900 0.350525
0.231781 0.209076 0.350586
0.447754 0.213531 0.357605
0.553314 0.240601 0.351288
0.619720 0.261383 0.354126
0.675049 0.278992 0.358521
0.127960 0.257233 0.361694
0.154785 0.273712 0.376343
0.188843 0.297546 0.397217
0.264099 0.315948 0.404816
0.475098 0.298309 0.401062
0.575439 0.310028 0.385895
0.643616 0.327789 0.388550
0.698090 0.343323 0.396637
0.149475 0.330017 0.401550
0.176849 0.350983 0.421783
0.205475 0.372803 0.442139
0.268890 0.406158 0.463348
0.439087 0.430878 0.463226
0.591919 0.436096 0.465271
0.670746 0.450073 0.466644
0.725281 0.455444 0.464935
0.179504 0.425446 0.454254
0.202545 0.442139 0.469025
0.226624 0.459686 0.486450
0.270172 0.485382 0.508575
0.462463 0.529968 0.529480
0.589783 0.548370 0.531281
0.681183 0.561768 0.530121
0.745758 0.576660 0.537140
0.218231 0.528290 0.507782
0.238434 0.541107 0.519714
0.259033 0.554382 0.532349
0.286102 0.566620 0.536224
0.470154 0.610107 0.553619
0.602386 0.629272 0.552460
0.686401 0.627014 0.540924
0.751282 0.635498 0.542877
0.255615 0.618927 0.559967
0.273224 0.626953 0.565216
0.287659 0.627655 0.559509
0.306091 0.630127 0.544128
0.456207 0.682678 0.545258
0.608032 0.703735 0.561737
0.686890 0.687958 0.556152
0.755768 0.691681 0.561981
0.291229 0.702271 0.590668
0.306305 0.704620 0.578613
0.323242 0.707703 0.559540
0.352081 0.724731 0.539307
0.444244 0.765656 0.539612
0.580383 0.774933 0.572205
0.686493 0.783051 0.587402
0.750366 0.754852 0.571381
0.130951 0.199615 0.398285
0.153900 0.202087 0.398285
0.181274 0.201019 0.395569
0.220306 0.188660 0.398560
0.386810 0.158783 0.400635
0.535095 0.202087 0.402100
0.606628 0.224518 0.398926
0.661682 0.241272 0.397186
0.141968 0.248169 0.419739
0.165558 0.256073 0.425232
0.194763 0.261597 0.424957
0.242767 0.257721 0.426666
0.427002 0.222809 0.427185
0.564453 0.252136 0.420349
0.633240 0.271912 0.423065
0.684235 0.285431 0.427582
0.153412 0.298553 0.439301
0.178802 0.312927 0.451202
0.209900 0.332733 0.467560
0.272125 0.354065 0.476685
0.446381 0.310974 0.464478
0.584015 0.329651 0.464233
0.653107 0.344940 0.470642
0.706116 0.359741 0.479248
0.172211 0.363159 0.472107
0.197510 0.381805 0.488739
0.224487 0.399261 0.504669
0.280090 0.430267 0.527649
0.434784 0.449341 0.521088
0.581940 0.444641 0.530762
0.667114 0.459015 0.540039
0.726532 0.472015 0.543365
0.193695 0.436005 0.512299
0.216400 0.451782 0.528076
0.240662 0.469055 0.546356
0.283936 0.493347 0.567291
0.445587 0.544159 0.589844
0.571808 0.565979 0.587891
0.672180 0.564423 0.593658
0.740082 0.571808 0.588379
0.217743 0.515350 0.557373
0.237183 0.525879 0.569855
0.257690 0.537720 0.583069
0.289490 0.556885 0.602875
0.407928 0.606873 0.623688
0.584625 0.641998 0.627136
0.667816 0.645782 0.625092
0.742035 0.650665 0.623230
0.244843 0.592896 0.600677
0.263489 0.603302 0.609680
0.283142 0.615509 0.619690
0.306305 0.630463 0.630890
0.392944 0.672455 0.638672
0.585724 0.714691 0.641571
0.682343 0.717072 0.639709
0.738953 0.711548 0.638306
0.279724 0.680054 0.642334
0.298615 0.690857 0.646942
0.316406 0.699463 0.649536
0.332306 0.704590 0.637482
0.391327 0.745056 0.623138
0.567993 0.801788 0.637482
0.673462 0.806122 0.655762
0.753448 0.792358 0.650085
0.151642 0.232025 0.462006
0.173676 0.235107 0.462982
0.200043 0.235779 0.460144
0.233612 0.223145 0.457245
0.384216 0.172974 0.460358
0.533508 0.207245 0.459991
0.614594 0.230957 0.459839
0.671356 0.249084 0.469604
0.162598 0.280487 0.481964
0.186340 0.289703 0.488037
0.213562 0.295288 0.487732
0.259552 0.299164 0.490234
0.423553 0.238922 0.485291
0.562042 0.262054 0.485138
0.638702 0.281494 0.493622
0.693115 0.300079 0.509857
0.173431 0.329376 0.500153
0.198059 0.343079 0.511353
0.227051 0.359436 0.524719
0.280396 0.377838 0.531799
0.431763 0.326569 0.521545
0.571045 0.342499 0.529022
0.654816 0.359741 0.543579
0.708740 0.374420 0.555542
0.189331 0.389618 0.530243
0.213684 0.406250 0.546204
0.239105 0.419800 0.558533
0.288910 0.447327 0.583527
0.430542 0.474609 0.591614
0.578613 0.442657 0.583679
0.666534 0.460388 0.597351
0.722382 0.475769 0.607635
0.206818 0.452850 0.567413
0.229340 0.468231 0.584534
0.253601 0.483185 0.602081
0.294189 0.505005 0.621918
0.436279 0.561279 0.652222
0.573975 0.559357 0.643677
0.670807 0.555328 0.642181
0.731232 0.570496 0.648376
0.227661 0.520233 0.613708
0.248016 0.532135 0.628815
0.268585 0.542572 0.641418
0.299683 0.558289 0.656219
0.419220 0.613220 0.677246
0.583649 0.655212 0.679443
0.669800 0.650757 0.677826
0.735504 0.650970 0.680664
0.248749 0.584961 0.650818
0.266724 0.593475 0.660217
0.284637 0.601257 0.667694
0.308594 0.614899 0.680023
0.398682 0.663086 0.700531
0.560547 0.711426 0.705902
0.674530 0.727783 0.707428
0.734741 0.728027 0.708618
0.274231 0.658508 0.682953
0.291473 0.666534 0.688782
0.310028 0.676971 0.694672
0.331635 0.691864 0.702209
0.378998 0.724548 0.711182
0.504303 0.783752 0.713257
0.671021 0.820709 0.723145
0.747772 0.817413 0.721497
0.170380 0.261414 0.518280
0.192047 0.265106 0.519257
0.217468 0.267365 0.517639
0.248688 0.254883 0.510651
0.348724 0.180054 0.503143
0.527100 0.212463 0.513367
0.616028 0.236664 0.519806
0.678925 0.256561 0.532959
0.180634 0.308899 0.537598
0.203827 0.317047 0.543274
0.228912 0.322205 0.542938
0.273254 0.329681 0.543610
0.383392 0.248779 0.530151
0.549408 0.271973 0.545715
0.636841 0.291840 0.558075
0.696106 0.307770 0.577087
0.190582 0.356201 0.556702
0.214447 0.368530 0.566742
0.241943 0.382568 0.580811
0.290344 0.399689 0.586731
0.382721 0.355530 0.571869
0.560669 0.349854 0.586060
0.649170 0.364288 0.601807
0.707947 0.374329 0.621277
0.204468 0.412415 0.587463
0.228699 0.427826 0.604156
0.253754 0.439850 0.616486
0.298248 0.463593 0.642853
0.425262 0.500366 0.659241
0.563354 0.445251 0.654205
0.658203 0.451630 0.654297
0.718689 0.462280 0.668610
0.220795 0.471802 0.628082
0.243988 0.486450 0.647217
0.267975 0.499115 0.662567
0.303528 0.517120 0.678070
0.420837 0.570282 0.708923
0.562897 0.594330 0.706146
0.662811 0.548706 0.701874
0.726990 0.551117 0.702576
0.239594 0.531036 0.671326
0.260529 0.542938 0.686310
0.280945 0.552032 0.696167
0.308838 0.565643 0.707397
0.412445 0.615723 0.728119
0.574921 0.669342 0.740326
0.659332 0.659576 0.732117
0.731720 0.633179 0.730164
0.259552 0.590759 0.707581
0.278046 0.599701 0.716400
0.295837 0.605927 0.721741
0.318115 0.614868 0.728760
0.406799 0.659515 0.747131
0.560059 0.717346 0.760376
0.674805 0.739563 0.760773
0.736847 0.729523 0.763885
0.278961 0.651855 0.730713
0.295593 0.658264 0.735992
0.312958 0.664673 0.741302
0.333099 0.674377 0.748230
0.385376 0.704437 0.764252
0.510773 0.763855 0.780853
0.661469 0.804840 0.789703
0.748993 0.818878 0.796570
