src/assets/luts/ON1 Nature & Wildlife LUTs/CinematicX LUTs - 30 Free Cinematic LUTs - The Resolve Store 2022/Santo - Rec709.cube
# Copyright: (C) Copyright 2022 The Resolve Store 
# Cannot be resold, shared or otherwise redistributed
TITLE "CinematicX (Rec.709)"
LUT_3D_SIZE 9
0.000000 0.000000 0.000000
0.053345 0.003632 0.002014
0.148895 0.011902 0.002594
0.265778 0.024414 0.001862
0.382721 0.040436 0.002106
0.498260 0.057190 0.003326
0.611115 0.072968 0.004608
0.722382 0.089050 0.006744
0.834717 0.103394 0.009064
0.011932 0.038605 0.003937
0.066284 0.049164 0.005707
0.188965 0.078949 0.006531
0.313873 0.097504 0.006348
0.431396 0.107056 0.005859
0.540710 0.110657 0.005341
0.647308 0.124939 0.006287
0.755554 0.143494 0.007507
0.861389 0.161194 0.009918
0.028137 0.138885 0.021576
0.093628 0.149750 0.014771
0.221985 0.182068 0.010742
0.359467 0.224213 0.011292
0.474426 0.237823 0.011078
0.580688 0.243500 0.011353
0.684418 0.247559 0.011719
0.787506 0.252411 0.012634
0.887390 0.262115 0.013611
0.074280 0.283478 0.072601
0.142731 0.285553 0.060608
0.268799 0.299011 0.054443
0.404083 0.333069 0.023041
0.502716 0.359985 0.016907
0.604675 0.368164 0.015686
0.710907 0.371155 0.015259
0.815155 0.375153 0.015289
0.915741 0.382812 0.015411
0.156250 0.407684 0.115051
0.217255 0.408020 0.106812
0.324127 0.417755 0.113647
0.451691 0.432800 0.123718
0.549042 0.460388 0.087250
0.627716 0.482086 0.025848
0.725403 0.492096 0.021210
0.832672 0.498016 0.018158
0.940582 0.502808 0.016113
0.247986 0.518219 0.174561
0.302795 0.519684 0.175446
0.390381 0.526276 0.187622
0.494690 0.534241 0.202515
0.595642 0.541168 0.190704
0.668671 0.566284 0.118683
0.741547 0.595551 0.033295
0.841003 0.614044 0.024475
0.957214 0.623444 0.017365
0.329742 0.619080 0.248047
0.378571 0.618988 0.250305
0.446960 0.620728 0.257904
0.527863 0.622437 0.265686
0.615906 0.620575 0.260132
0.698608 0.625336 0.218933
0.767517 0.663330 0.108490
0.845093 0.712280 0.034637
0.959106 0.738953 0.022095
0.354736 0.710022 0.298889
0.403687 0.707947 0.298553
0.467102 0.706024 0.300476
0.538025 0.702667 0.302338
0.614441 0.697601 0.298126
0.698730 0.689758 0.276093
0.775970 0.699829 0.217957
0.847534 0.762634 0.072876
0.940308 0.830811 0.031372
0.333496 0.795776 0.320892
0.391571 0.793091 0.317780
0.457153 0.789307 0.315216
0.528168 0.783478 0.313141
0.604553 0.775604 0.309113
0.684174 0.765503 0.298706
0.766327 0.754120 0.274994
0.835144 0.770111 0.221619
0.902710 0.850250 0.330750
0.002228 0.004059 0.015991
0.041687 0.002960 0.033264
0.126617 0.005524 0.031006
0.242310 0.010101 0.033325
0.352844 0.014557 0.033112
0.466156 0.020264 0.029572
0.583130 0.034027 0.031860
0.714630 0.063904 0.041168
0.834473 0.084137 0.050079
0.014465 0.060913 0.057434
0.056152 0.069397 0.061615
0.181854 0.079346 0.041351
0.307892 0.073975 0.041168
0.419403 0.070374 0.038666
0.526581 0.079193 0.036102
0.638733 0.101593 0.042206
0.750549 0.124756 0.050079
0.860809 0.147400 0.057617
0.016846 0.163177 0.087006
0.069611 0.180603 0.085907
0.214081 0.195038 0.060791
0.360870 0.223358 0.052521
0.477905 0.226044 0.050354
0.582428 0.226746 0.054230
0.685699 0.226868 0.058350
0.789154 0.226898 0.063049
0.889923 0.236359 0.067963
0.026062 0.294434 0.121094
0.080261 0.299164 0.102692
0.234344 0.307617 0.085205
0.398895 0.334961 0.060303
0.505920 0.358948 0.046478
0.608948 0.364532 0.063385
0.715088 0.366364 0.070557
0.818756 0.370270 0.074799
0.918640 0.378235 0.078674
0.088440 0.425995 0.168396
0.161407 0.418152 0.142578
0.285645 0.423645 0.135590
0.434326 0.436096 0.146454
0.545929 0.460541 0.113953
0.630768 0.482391 0.051880
0.729828 0.491394 0.071320
0.836823 0.496582 0.082275
0.943726 0.501221 0.087830
0.203308 0.526794 0.206421
0.263519 0.526428 0.200592
0.360413 0.531860 0.207916
0.476685 0.539459 0.223969
0.587372 0.543579 0.215729
0.666931 0.566345 0.148346
0.744781 0.596619 0.058167
0.845367 0.614410 0.076630
0.961090 0.623138 0.090851
0.301941 0.627411 0.275940
0.352722 0.627136 0.275818
0.427490 0.628601 0.282074
0.514252 0.629547 0.290863
0.605530 0.626404 0.287689
0.693451 0.627319 0.249634
0.765991 0.662811 0.152618
0.848328 0.714081 0.062927
0.963074 0.739807 0.079773
0.341644 0.721863 0.336945
0.393555 0.719940 0.335114
0.456146 0.717865 0.335815
0.529236 0.713928 0.337616
0.607269 0.706879 0.333710
0.691772 0.696167 0.312439
0.772949 0.701813 0.257385
0.847290 0.763184 0.141785
0.943054 0.833221 0.065155
0.330292 0.810822 0.372467
0.389832 0.808716 0.367737
0.454956 0.805084 0.364166
0.525269 0.798767 0.361145
0.600067 0.788666 0.355988
0.678162 0.775665 0.344025
0.761353 0.761108 0.318359
0.833893 0.773193 0.266907
0.903748 0.859131 0.412750
0.016571 0.026520 0.080383
0.045441 0.040863 0.129486
0.104065 0.023895 0.106842
0.205353 0.009186 0.089020
0.314178 0.013489 0.084808
0.427551 0.018677 0.089508
0.545624 0.023376 0.096771
0.668823 0.027588 0.104401
0.789581 0.030426 0.109741
0.031891 0.107452 0.155334
0.055328 0.121704 0.180969
0.141754 0.100403 0.162262
0.269073 0.040192 0.120209
0.374115 0.048798 0.100494
0.479218 0.056946 0.096191
0.586060 0.062500 0.102753
0.701508 0.069702 0.109375
0.828033 0.097046 0.121948
0.034149 0.232117 0.226654
0.052185 0.243103 0.235138
0.174133 0.241028 0.223724
0.351288 0.224304 0.190735
0.466888 0.209686 0.153961
0.568024 0.200714 0.128662
0.670959 0.182159 0.132660
0.777039 0.180359 0.134308
0.879791 0.193878 0.135468
0.031036 0.360382 0.276764
0.066711 0.367615 0.268219
0.212677 0.364227 0.241150
0.382050 0.352448 0.217865
0.501678 0.360809 0.205627
0.609772 0.359314 0.180511
0.716736 0.357788 0.156372
0.823151 0.355164 0.151642
0.923035 0.358215 0.146820
0.053314 0.472198 0.298035
0.105621 0.471680 0.281311
0.247375 0.466034 0.252686
0.407501 0.460449 0.250549
0.537384 0.466400 0.233185
0.631470 0.484131 0.207489
0.737396 0.488220 0.162781
0.844574 0.490631 0.157593
0.949921 0.494385 0.166290
0.088379 0.559235 0.297821
0.154480 0.546814 0.267731
0.295624 0.548737 0.256805
0.440643 0.555603 0.277679
0.569824 0.553436 0.279114
0.663208 0.569153 0.227356
0.748871 0.598358 0.179871
0.854095 0.612640 0.142761
0.968994 0.620422 0.173187
0.214355 0.636414 0.315369
0.271729 0.635620 0.307373
0.366760 0.638367 0.307373
0.478577 0.640839 0.318604
0.583221 0.637848 0.322205
0.683258 0.632324 0.290497
0.763855 0.663025 0.197388
0.854004 0.716766 0.098022
0.968140 0.739655 0.148224
0.297882 0.732758 0.380707
0.353851 0.732269 0.375732
0.424316 0.732056 0.374725
0.507263 0.729279 0.377411
0.592102 0.721588 0.376801
0.678925 0.708588 0.359802
0.766846 0.706390 0.308289
0.845276 0.763336 0.207397
0.947113 0.836731 0.100342
0.313629 0.824310 0.428345
0.374207 0.823608 0.422180
0.442719 0.822052 0.417725
0.514862 0.817261 0.414856
0.592316 0.807251 0.410889
0.670441 0.792511 0.400452
0.753723 0.774780 0.376099
0.831299 0.779663 0.326141
0.904694 0.869843 0.488983
0.038483 0.078064 0.176025
0.055664 0.094391 0.226654
0.096344 0.077148 0.233093
0.180847 0.048798 0.194214
0.281555 0.014435 0.179321
0.384125 0.018402 0.190552
0.495239 0.023102 0.206543
0.616394 0.027374 0.215393
0.741943 0.031006 0.217560
0.042053 0.156433 0.239319
0.055756 0.173218 0.276520
0.104187 0.167084 0.295532
0.227661 0.101593 0.242035
0.316345 0.027740 0.199219
0.418732 0.037170 0.204987
0.529816 0.049072 0.216003
0.650574 0.060577 0.222076
0.789398 0.097473 0.239044
0.031525 0.282623 0.337097
0.052979 0.291992 0.360199
0.114685 0.300476 0.373688
0.309082 0.259766 0.329865
0.442505 0.203613 0.290649
0.537323 0.178467 0.275879
0.634979 0.154999 0.267029
0.738861 0.155701 0.263123
0.850098 0.188416 0.274750
0.039368 0.423920 0.417999
0.045013 0.429413 0.423157
0.106049 0.434937 0.425232
0.342072 0.404266 0.384033
0.494232 0.370911 0.345825
0.603424 0.358185 0.327728
0.707428 0.350189 0.313263
0.811066 0.342804 0.297089
0.907715 0.346680 0.289276
0.054352 0.525024 0.458984
0.077118 0.532196 0.457092
0.215210 0.523621 0.424957
0.387848 0.512482 0.398621
0.527588 0.492615 0.380066
0.628967 0.492126 0.353394
0.736298 0.490540 0.336182
0.844208 0.488190 0.321075
0.947052 0.487457 0.311768
0.099396 0.614929 0.472107
0.153900 0.610443 0.454376
0.284210 0.606812 0.425171
0.425476 0.603821 0.414398
0.554474 0.591522 0.415283
0.657959 0.586853 0.384155
0.749084 0.604889 0.347260
0.857666 0.614044 0.329102
0.969666 0.618500 0.324829
0.181244 0.685394 0.469360
0.216949 0.682068 0.456512
0.342773 0.681915 0.435822
0.459229 0.681763 0.432404
0.569244 0.675415 0.439728
0.671326 0.661438 0.427887
0.761932 0.677582 0.372131
0.856140 0.721222 0.335846
0.971527 0.739807 0.316010
0.241638 0.757141 0.470337
0.282501 0.754059 0.456726
0.381744 0.755249 0.447968
0.481628 0.756073 0.449005
0.576965 0.750916 0.456512
0.665192 0.738342 0.452301
0.759644 0.727753 0.422791
0.845215 0.773926 0.350525
0.949310 0.840027 0.309052
0.270142 0.836517 0.489136
0.336639 0.835754 0.479614
0.415039 0.836334 0.473969
0.497192 0.834808 0.468994
0.580719 0.827942 0.467987
0.662415 0.813660 0.463196
0.744507 0.795471 0.446564
0.827545 0.792694 0.405334
0.905090 0.880096 0.544250
0.048859 0.135040 0.270966
0.060974 0.142426 0.298157
0.087433 0.137085 0.327332
0.144623 0.097137 0.306396
0.266815 0.060822 0.260223
0.355927 0.020630 0.252289
0.449615 0.024628 0.265167
0.557098 0.029785 0.288086
0.677246 0.035187 0.312256
0.046295 0.212738 0.331451
0.058502 0.220978 0.353424
0.086090 0.228210 0.390778
0.169952 0.189941 0.378571
0.296692 0.090790 0.288086
0.382538 0.037750 0.269958
0.475281 0.039795 0.279755
0.584869 0.051697 0.302551
0.728577 0.092346 0.346252
0.036285 0.325409 0.427582
0.048767 0.331909 0.439087
0.083771 0.344696 0.469727
0.197998 0.341492 0.469421
0.408356 0.257721 0.395081
0.498718 0.199707 0.362518
0.576904 0.152863 0.349335
0.657471 0.102234 0.342987
0.807770 0.223175 0.394226
0.035980 0.432312 0.479248
0.045349 0.438049 0.492065
0.140198 0.441803 0.509216
0.254364 0.450226 0.514557
0.465118 0.412445 0.460907
0.580414 0.369263 0.436920
0.675842 0.349121 0.428131
0.775665 0.343689 0.423859
0.873840 0.362793 0.431915
0.059021 0.560974 0.558197
0.065216 0.566376 0.563110
0.089661 0.581085 0.575256
0.303253 0.563843 0.545959
0.502350 0.539978 0.512726
0.618073 0.507935 0.482849
0.723480 0.493713 0.466644
0.828400 0.485657 0.455933
0.923401 0.488739 0.456024
0.087494 0.654785 0.609222
0.101654 0.657501 0.606812
0.242615 0.651398 0.579956
0.402527 0.644562 0.553040
0.540039 0.634369 0.535004
0.645325 0.615265 0.517731
0.742859 0.614227 0.485016
0.853149 0.615784 0.470459
0.960144 0.617249 0.464752
0.174194 0.719116 0.605469
0.207031 0.716705 0.595001
0.329773 0.718292 0.571075
0.450714 0.716797 0.553802
0.562073 0.711487 0.547638
0.659119 0.699097 0.545197
0.753998 0.698334 0.515656
0.855499 0.726776 0.481384
0.970459 0.740173 0.468323
0.238403 0.785065 0.600098
0.280914 0.784698 0.589783
0.378357 0.787048 0.573334
0.479279 0.786926 0.562531
0.574982 0.783813 0.559387
0.663635 0.774536 0.562622
0.752136 0.763123 0.554047
0.843231 0.793365 0.512360
0.949036 0.844849 0.480438
0.257416 0.856232 0.604980
0.334015 0.858154 0.595428
0.412018 0.860260 0.585175
0.498108 0.861328 0.578033
0.582428 0.859924 0.574066
0.664612 0.851715 0.574951
0.743347 0.837860 0.575806
0.824036 0.832703 0.568237
0.908875 0.889709 0.557983
0.052155 0.192291 0.357849
0.063934 0.198090 0.378265
0.077301 0.212891 0.421661
0.138397 0.175385 0.420013
0.255615 0.113098 0.362701
0.354370 0.075012 0.319580
0.430603 0.033081 0.314453
0.516296 0.036530 0.332306
0.615509 0.044037 0.361206
0.047028 0.265686 0.414948
0.059692 0.271057 0.430786
0.074646 0.289734 0.474487
0.144348 0.274231 0.489563
0.305084 0.202301 0.434967
0.380920 0.107178 0.345398
0.457275 0.069580 0.336731
0.537476 0.050507 0.347748
0.665680 0.097473 0.402039
0.039032 0.360779 0.491455
0.053314 0.365601 0.502838
0.071594 0.380829 0.536743
0.158417 0.388275 0.560211
0.362518 0.353119 0.522125
0.479858 0.261871 0.444183
0.543884 0.200439 0.414398
0.593872 0.118042 0.389679
0.748413 0.267578 0.473267
0.040009 0.449310 0.561432
0.053436 0.455566 0.574036
0.081421 0.464539 0.588409
0.197418 0.476166 0.602722
0.397278 0.479370 0.575958
0.549042 0.424194 0.521698
0.636658 0.384796 0.505981
0.720673 0.357422 0.504150
0.815552 0.391663 0.527161
0.056702 0.557648 0.596863
0.067596 0.562866 0.604919
0.129272 0.565613 0.616119
0.290497 0.564392 0.617889
0.446381 0.574341 0.614441
0.592468 0.550598 0.576965
0.688568 0.515045 0.563263
0.784424 0.493073 0.559814
0.874969 0.503540 0.567627
0.094879 0.673706 0.674408
0.104858 0.677856 0.677277
0.125519 0.680115 0.677948
0.286835 0.680389 0.664307
0.491638 0.670013 0.641632
0.620239 0.651245 0.617950
0.718018 0.628662 0.600647
0.823853 0.618652 0.592377
0.922943 0.619171 0.594147
0.145813 0.745026 0.709808
0.174286 0.744080 0.703949
0.271851 0.745667 0.690155
0.419434 0.744965 0.672607
0.550507 0.736359 0.651947
0.644073 0.727234 0.637573
0.732971 0.718262 0.628418
0.843109 0.732788 0.610687
0.957520 0.741821 0.605865
0.219452 0.799438 0.704132
0.261353 0.800385 0.695984
0.355835 0.804474 0.683319
0.470215 0.805847 0.670135
0.572449 0.803192 0.657684
0.657806 0.798981 0.651611
0.739319 0.791443 0.651947
0.830994 0.807098 0.640320
0.943024 0.848969 0.620728
0.252106 0.862701 0.702667
0.320190 0.865692 0.693787
0.407745 0.870453 0.685516
0.499786 0.874298 0.677277
0.586182 0.875916 0.669220
0.666138 0.874573 0.665039
0.744293 0.866547 0.669891
0.817505 0.861511 0.677826
0.900818 0.902863 0.673370
0.053223 0.252258 0.443817
0.065735 0.257660 0.459778
0.079376 0.275146 0.497528
0.122894 0.274933 0.530396
0.218872 0.221588 0.505798
0.371460 0.146759 0.427368
0.443054 0.108032 0.385376
0.513275 0.089600 0.388458
0.586304 0.073517 0.405853
0.048279 0.314758 0.491730
0.062225 0.318726 0.503723
0.078491 0.333984 0.537079
0.125610 0.341858 0.573242
0.245697 0.319794 0.567261
0.401398 0.205566 0.470398
0.467010 0.147583 0.411133
0.536926 0.130829 0.412079
0.628265 0.164886 0.449188
0.044006 0.393097 0.553650
0.058746 0.397736 0.564423
0.080078 0.408630 0.589630
0.133240 0.420074 0.623047
0.277985 0.426941 0.619629
0.473694 0.369873 0.562866
0.535583 0.269226 0.485352
0.574036 0.188873 0.448151
0.705597 0.317780 0.527466
0.047241 0.470703 0.613922
0.061401 0.476257 0.622040
0.085754 0.484436 0.638763
0.154205 0.493317 0.664032
0.319489 0.519409 0.662842
0.519928 0.494873 0.621368
0.614288 0.443756 0.575165
0.683258 0.408356 0.564758
0.762085 0.433380 0.585236
0.060608 0.559723 0.660309
0.077606 0.564789 0.670074
0.140045 0.563782 0.683868
0.255554 0.574615 0.695190
0.382446 0.594360 0.696533
0.554077 0.599243 0.663940
0.655853 0.561646 0.627319
0.732635 0.530060 0.621216
0.809113 0.533600 0.632568
0.095215 0.670074 0.703857
0.117249 0.670837 0.705414
0.148804 0.669495 0.707703
0.285431 0.671173 0.709137
0.467682 0.672546 0.705963
0.585663 0.676910 0.695831
0.682312 0.656769 0.665588
0.767273 0.633148 0.664459
0.854919 0.632263 0.676422
0.153198 0.752747 0.751892
0.171906 0.753937 0.750793
0.192169 0.756470 0.750824
0.273651 0.762665 0.748627
0.479431 0.763824 0.734985
0.617279 0.751312 0.715759
0.703522 0.735657 0.698090
0.800873 0.734741 0.703369
0.904480 0.740295 0.713470
0.192627 0.807678 0.776764
0.226288 0.809540 0.773224
0.276337 0.813324 0.768585
0.425751 0.820312 0.759125
0.557129 0.818665 0.746307
0.651337 0.811249 0.731232
0.724518 0.806458 0.721802
0.806580 0.811493 0.726837
0.927551 0.849609 0.736145
0.224670 0.860199 0.778473
0.293579 0.865234 0.772919
0.385406 0.872498 0.768158
0.487183 0.878479 0.762482
0.585785 0.881592 0.755249
0.667084 0.881775 0.746490
0.739227 0.880920 0.741577
0.809753 0.877441 0.750153
0.888428 0.908295 0.766235
0.055237 0.307617 0.522949
0.068512 0.311646 0.534454
0.085449 0.326630 0.565399
0.110504 0.348938 0.614471
0.192932 0.343079 0.630219
0.369354 0.260376 0.562134
0.475494 0.209595 0.497711
0.533600 0.182465 0.465332
0.592438 0.175873 0.470856
0.053009 0.358124 0.561554
0.067413 0.361145 0.570404
0.086395 0.372711 0.595581
0.117126 0.393707 0.643280
0.201294 0.398621 0.657196
0.403809 0.354523 0.612732
0.499390 0.262390 0.531708
0.555054 0.227936 0.491028
0.622833 0.244141 0.506989
0.052094 0.423462 0.612946
0.067627 0.426819 0.620636
0.092987 0.435059 0.640411
0.130737 0.451935 0.680695
0.217926 0.468262 0.690613
0.441711 0.452820 0.658417
0.558228 0.397980 0.605591
0.590485 0.296539 0.532532
0.684143 0.373871 0.576355
0.055603 0.493713 0.665771
0.074982 0.497772 0.673584
0.106049 0.502869 0.686951
0.149475 0.514282 0.716034
0.251343 0.538300 0.728912
0.479736 0.549591 0.699677
0.605255 0.514191 0.661804
0.667908 0.467468 0.622223
0.730713 0.479218 0.629364
0.080811 0.573700 0.730286
0.109711 0.573792 0.731628
0.145081 0.576172 0.736755
0.181702 0.583527 0.750824
0.312347 0.605957 0.762238
0.513184 0.630676 0.736877
0.636597 0.609589 0.700409
0.706055 0.574493 0.669556
0.766388 0.568817 0.671631
0.105286 0.664978 0.756775
0.137787 0.662994 0.757538
0.175049 0.662079 0.764191
0.291290 0.666473 0.774933
0.436951 0.678955 0.778137
0.547546 0.693329 0.768127
0.659149 0.689392 0.729828
0.730713 0.662750 0.704742
0.796722 0.653778 0.710449
0.142517 0.755493 0.782959
0.171814 0.754242 0.781342
0.201935 0.754425 0.782898
0.265106 0.759247 0.789337
0.455658 0.764130 0.787994
0.598114 0.761597 0.781036
0.685364 0.757385 0.762421
0.753967 0.740723 0.738495
0.829987 0.738983 0.752167
0.184753 0.814545 0.810760
0.209808 0.816864 0.809906
0.238770 0.820770 0.810272
0.281128 0.825867 0.811157
0.465118 0.836243 0.807220
0.614899 0.832825 0.796051
0.709869 0.820740 0.781219
0.776367 0.810730 0.770508
0.874725 0.834747 0.799896
0.203888 0.858582 0.829987
0.241760 0.862152 0.828064
0.332123 0.871674 0.826263
0.451813 0.881256 0.824341
0.568573 0.885864 0.819489
0.663177 0.883820 0.810944
0.736053 0.880096 0.801514
0.801544 0.883820 0.800964
0.873199 0.903625 0.821686
0.061829 0.354889 0.594238
0.076965 0.358795 0.604980
0.097839 0.370178 0.629089
0.122833 0.384003 0.661072
0.199646 0.392944 0.678680
0.357056 0.384338 0.659149
0.497772 0.339691 0.611694
0.568085 0.299103 0.568787
0.609711 0.268524 0.542358
0.061859 0.395752 0.624481
0.079132 0.398926 0.633331
0.101959 0.408234 0.653992
0.130585 0.421906 0.685425
0.208252 0.433594 0.697540
0.377991 0.433472 0.679688
0.520752 0.399323 0.641052
0.591553 0.353394 0.595764
0.643433 0.345032 0.582825
0.062469 0.452362 0.668945
0.083282 0.453827 0.674255
0.111847 0.460785 0.691315
0.147156 0.474121 0.721283
0.225983 0.489868 0.727356
0.412628 0.503937 0.709991
0.554626 0.480743 0.680634
0.632721 0.450195 0.646027
0.684326 0.436981 0.630188
0.072144 0.516479 0.718475
0.097809 0.517334 0.722168
0.131836 0.522125 0.734711
0.170715 0.532593 0.758636
0.256989 0.551910 0.765808
0.451355 0.579163 0.746338
0.589539 0.566254 0.719086
0.668884 0.541046 0.689117
0.720673 0.524323 0.672180
0.101135 0.587494 0.770386
0.133087 0.586609 0.770905
0.165527 0.589600 0.777588
0.202301 0.597290 0.795715
0.298462 0.616241 0.803833
0.487335 0.645416 0.784241
0.616730 0.645050 0.750122
0.695526 0.622101 0.723389
0.749176 0.602936 0.707611
0.136627 0.664337 0.819427
0.170349 0.662476 0.821045
0.203278 0.663147 0.828217
0.287720 0.670532 0.831299
0.374390 0.685486 0.833557
0.522736 0.703796 0.820496
0.641724 0.711884 0.780701
0.718079 0.694489 0.754181
0.772125 0.677490 0.739899
0.135681 0.756775 0.840912
0.174622 0.753326 0.839447
0.211945 0.752808 0.845612
0.269531 0.754883 0.858734
0.442291 0.762512 0.859955
0.589630 0.767792 0.844757
0.670563 0.772247 0.821716
0.740906 0.761597 0.784790
0.795929 0.749268 0.773468
0.149017 0.834686 0.860260
0.193359 0.831421 0.855804
0.230713 0.833160 0.857361
0.268127 0.838470 0.864044
0.436890 0.848022 0.868469
0.591614 0.849854 0.867340
0.702789 0.842926 0.856262
0.771210 0.828674 0.824158
0.823090 0.819366 0.809509
0.182648 0.875336 0.869385
0.243500 0.878571 0.866486
0.319275 0.885345 0.866364
0.423340 0.894012 0.867126
0.544586 0.900391 0.865936
0.647797 0.899933 0.860931
0.732239 0.893372 0.852173
0.798920 0.889130 0.846588
0.853058 0.892456 0.848419
