src/assets/luts/ON1 Nature & Wildlife LUTs/CinematicX LUTs - 30 Free Cinematic LUTs - The Resolve Store 2022/Santo - Rec709.cube
# Copyright: (C) Copyright 2022 The Resolve Store 
# Cannot be resold, shared or otherwise redistributed
TITLE "CinematicX (Rec.709)"
LUT_3D_SIZE 5
0.000000 0.000000 0.000000
0.148895 0.011902 0.002594
0.382721 0.040436 0.002106
0.611115 0.072968 0.004608
0.834717 0.103394 0.009064
0.028137 0.138885 0.021576
0.221985 0.182068 0.010742
0.474426 0.237823 0.011078
0.684418 0.247559 0.011719
0.887390 0.262115 0.013611
0.156250 0.407684 0.115051
0.324127 0.417755 0.113647
0.549042 0.460388 0.087250
0.725403 0.492096 0.021210
0.940582 0.502808 0.016113
0.329742 0.619080 0.248047
0.446960 0.620728 0.257904
0.615906 0.620575 0.260132
0.767517 0.663330 0.108490
0.959106 0.738953 0.022095
0.333496 0.795776 0.320892
0.457153 0.789307 0.315216
0.604553 0.775604 0.309113
0.766327 0.754120 0.274994
0.902710 0.850250 0.330750
0.016571 0.026520 0.080383
0.104065 0.023895 0.106842
0.314178 0.013489 0.084808
0.545624 0.023376 0.096771
0.789581 0.030426 0.109741
0.034149 0.232117 0.226654
0.174133 0.241028 0.223724
0.466888 0.209686 0.153961
0.670959 0.182159 0.132660
0.879791 0.193878 0.135468
0.053314 0.472198 0.298035
0.247375 0.466034 0.252686
0.537384 0.466400 0.233185
0.737396 0.488220 0.162781
0.949921 0.494385 0.166290
0.214355 0.636414 0.315369
0.366760 0.638367 0.307373
0.583221 0.637848 0.322205
0.763855 0.663025 0.197388
0.968140 0.739655 0.148224
0.313629 0.824310 0.428345
0.442719 0.822052 0.417725
0.592316 0.807251 0.410889
0.753723 0.774780 0.376099
0.904694 0.869843 0.488983
0.048859 0.135040 0.270966
0.087433 0.137085 0.327332
0.266815 0.060822 0.260223
0.449615 0.024628 0.265167
0.677246 0.035187 0.312256
0.036285 0.325409 0.427582
0.083771 0.344696 0.469727
0.408356 0.257721 0.395081
0.576904 0.152863 0.349335
0.807770 0.223175 0.394226
0.059021 0.560974 0.558197
0.089661 0.581085 0.575256
0.502350 0.539978 0.512726
0.723480 0.493713 0.466644
0.923401 0.488739 0.456024
0.174194 0.719116 0.605469
0.329773 0.718292 0.571075
0.562073 0.711487 0.547638
0.753998 0.698334 0.515656
0.970459 0.740173 0.468323
0.257416 0.856232 0.604980
0.412018 0.860260 0.585175
0.582428 0.859924 0.574066
0.743347 0.837860 0.575806
0.908875 0.889709 0.557983
0.053223 0.252258 0.443817
0.079376 0.275146 0.497528
0.218872 0.221588 0.505798
0.443054 0.108032 0.385376
0.586304 0.073517 0.405853
0.044006 0.393097 0.553650
0.080078 0.408630 0.589630
0.277985 0.426941 0.619629
0.535583 0.269226 0.485352
0.705597 0.317780 0.527466
0.060608 0.559723 0.660309
0.140045 0.563782 0.683868
0.382446 0.594360 0.696533
0.655853 0.561646 0.627319
0.809113 0.533600 0.632568
0.153198 0.752747 0.751892
0.192169 0.756470 0.750824
0.479431 0.763824 0.734985
0.703522 0.735657 0.698090
0.904480 0.740295 0.713470
0.224670 0.860199 0.778473
0.385406 0.872498 0.768158
0.585785 0.881592 0.755249
0.739227 0.880920 0.741577
0.888428 0.908295 0.766235
0.061829 0.354889 0.594238
0.097839 0.370178 0.629089
0.199646 0.392944 0.678680
0.497772 0.339691 0.611694
0.609711 0.268524 0.542358
0.062469 0.452362 0.668945
0.111847 0.460785 0.691315
0.225983 0.489868 0.727356
0.554626 0.480743 0.680634
0.684326 0.436981 0.630188
0.101135 0.587494 0.770386
0.165527 0.589600 0.777588
0.298462 0.616241 0.803833
0.616730 0.645050 0.750122
0.749176 0.602936 0.707611
0.135681 0.756775 0.840912
0.211945 0.752808 0.845612
0.442291 0.762512 0.859955
0.670563 0.772247 0.821716
0.795929 0.749268 0.773468
0.182648 0.875336 0.869385
0.319275 0.885345 0.866364
0.544586 0.900391 0.865936
0.732239 0.893372 0.852173
0.853058 0.892456 0.848419
