src/assets/luts/ON1 Nature & Wildlife LUTs/CinematicX LUTs - 30 Free Cinematic LUTs - The Resolve Store 2022/Santo - Rec709.cube
# Copyright: (C) Copyright 2022 The Resolve Store 
# Cannot be resold, shared or otherwise redistributed
TITLE "CinematicX (Rec.709)"
LUT_3D_SIZE 33
0.000000 0.000000 0.000000
0.010193 0.000702 0.000610
0.022339 0.001465 0.001343
0.036835 0.002380 0.001740
0.053345 0.003632 0.002014
0.072693 0.005035 0.002197
0.096069 0.006683 0.002838
0.120697 0.009186 0.002472
0.148895 0.011902 0.002594
0.177246 0.014801 0.002686
0.206360 0.017914 0.002441
0.236084 0.021057 0.002258
0.265778 0.024414 0.001862
0.295288 0.028320 0.001801
0.324097 0.032410 0.001801
0.353485 0.036194 0.001892
0.382721 0.040436 0.002106
0.411926 0.044708 0.002563
0.440765 0.048920 0.002869
0.469666 0.052887 0.003174
0.498260 0.057190 0.003326
0.526825 0.061157 0.003479
0.555023 0.065155 0.003784
0.583313 0.069061 0.004059
0.611115 0.072968 0.004608
0.638611 0.077148 0.005127
0.666351 0.081116 0.005646
0.694336 0.085052 0.006226
0.722382 0.089050 0.006744
0.750488 0.092773 0.007355
0.778748 0.096436 0.007935
0.806732 0.100006 0.008545
0.834717 0.103394 0.009064
0.001129 0.007019 0.000580
0.010284 0.007782 0.001129
0.024017 0.009674 0.001892
0.040070 0.011536 0.002533
0.058716 0.013184 0.003021
0.080658 0.015137 0.002930
0.105011 0.016876 0.003296
0.130798 0.019135 0.003204
0.159119 0.021881 0.003082
0.187347 0.024658 0.003204
0.216675 0.027679 0.002808
0.246521 0.031067 0.002441
0.276062 0.034760 0.002167
0.305878 0.038605 0.001953
0.335205 0.042542 0.002106
0.364532 0.046509 0.002380
0.394012 0.050751 0.002472
0.423431 0.054871 0.002625
0.452301 0.058960 0.002869
0.480988 0.063446 0.003174
0.509491 0.067413 0.003296
0.537109 0.071808 0.003815
0.564606 0.076019 0.004181
0.592438 0.080353 0.004456
0.620239 0.084442 0.004761
0.647858 0.088623 0.005249
0.675659 0.092804 0.005737
0.703156 0.097107 0.006287
0.730682 0.101349 0.006897
0.758453 0.105469 0.007446
0.786285 0.109436 0.008026
0.814026 0.113251 0.008575
0.841644 0.116455 0.009186
0.003418 0.015167 0.001282
0.013184 0.016479 0.001770
0.023621 0.017914 0.002533
0.041107 0.021362 0.003357
0.062958 0.024719 0.004120
0.086151 0.027710 0.004120
0.112122 0.030121 0.004028
0.139832 0.032288 0.004089
0.167999 0.035065 0.003754
0.196899 0.036621 0.003876
0.226807 0.038605 0.003326
0.256989 0.042023 0.002991
0.287079 0.046265 0.002869
0.316772 0.049774 0.002594
0.346680 0.053558 0.002716
0.376190 0.057495 0.002808
0.405914 0.061584 0.002808
0.435120 0.065826 0.002808
0.463226 0.070038 0.003296
0.491394 0.074615 0.003662
0.519257 0.078979 0.003906
0.546997 0.083313 0.004120
0.574646 0.087555 0.004272
0.602356 0.091858 0.004517
0.629272 0.096680 0.005280
0.656311 0.101105 0.005676
0.683838 0.105499 0.005981
0.711487 0.109955 0.006470
0.739014 0.114288 0.006989
0.766541 0.118347 0.007538
0.793945 0.122620 0.008118
0.821136 0.126770 0.008728
0.848022 0.130859 0.009308
0.007599 0.025330 0.002350
0.017853 0.026764 0.002655
0.028290 0.028381 0.003204
0.043152 0.031464 0.004181
0.063904 0.036621 0.004944
0.090729 0.042694 0.005188
0.119141 0.047089 0.005249
0.148804 0.050873 0.005310
0.178375 0.054321 0.004974
0.208557 0.056976 0.005096
0.238770 0.059937 0.004791
0.268799 0.062683 0.004425
0.299713 0.065399 0.004181
0.329803 0.068268 0.003906
0.359619 0.072083 0.003998
0.389099 0.075439 0.003906
0.418152 0.076691 0.003723
0.446533 0.078522 0.003510
0.474579 0.082703 0.003784
0.502502 0.087158 0.003967
0.529999 0.091766 0.004272
0.557037 0.096283 0.004639
0.584076 0.100891 0.005005
0.611084 0.105499 0.005341
0.638184 0.109985 0.005615
0.665558 0.114380 0.005951
0.692749 0.119110 0.006165
0.719818 0.124054 0.006897
0.747101 0.128357 0.007233
0.774323 0.132538 0.007721
0.801544 0.136932 0.008331
0.828278 0.141266 0.008850
0.854767 0.145325 0.009521
0.011932 0.038605 0.003937
0.022217 0.040955 0.004517
0.033173 0.042572 0.004425
0.046722 0.044647 0.004974
0.066284 0.049164 0.005707
0.093048 0.057343 0.006134
0.124603 0.066010 0.006348
0.156555 0.072754 0.006439
0.188965 0.078949 0.006531
0.220612 0.084137 0.006653
0.252228 0.089203 0.006287
0.283295 0.093506 0.006287
0.313873 0.097504 0.006348
0.344147 0.101044 0.006104
0.373840 0.103516 0.006104
0.402893 0.105530 0.005859
0.431396 0.107056 0.005859
0.459442 0.108612 0.005707
0.486938 0.108490 0.005554
0.513763 0.108093 0.005188
0.540710 0.110657 0.005341
0.567719 0.113037 0.005310
0.594299 0.115662 0.005493
0.620667 0.120300 0.005768
0.647308 0.124939 0.006287
0.674103 0.129700 0.006714
0.701233 0.134277 0.006866
0.728638 0.138702 0.006989
0.755554 0.143494 0.007507
0.782135 0.148254 0.008240
0.808563 0.152924 0.008881
0.835114 0.156769 0.009430
0.861389 0.161194 0.009918
0.016327 0.056946 0.005615
0.025970 0.059174 0.006378
0.037628 0.060669 0.006256
0.052094 0.062592 0.006012
0.070953 0.065796 0.006317
0.096161 0.073242 0.006805
0.128448 0.085388 0.007263
0.163269 0.096527 0.007446
0.197937 0.106110 0.007660
0.231506 0.113708 0.007751
0.264496 0.120300 0.007843
0.296204 0.125702 0.007782
0.327240 0.130157 0.007782
0.357727 0.133972 0.007751
0.387146 0.137238 0.007935
0.416138 0.139801 0.007721
0.444305 0.142029 0.007904
0.471802 0.144073 0.007721
0.498962 0.145813 0.007660
0.525665 0.146820 0.007507
0.551910 0.146820 0.007507
0.578094 0.146240 0.007477
0.604126 0.144409 0.007294
0.630249 0.144897 0.007263
0.656616 0.145355 0.007294
0.683044 0.146515 0.007355
0.709839 0.150909 0.007599
0.736420 0.155884 0.008026
0.763184 0.160309 0.008575
0.789703 0.164978 0.009003
0.815979 0.169586 0.009491
0.841797 0.174133 0.010040
0.867645 0.178253 0.010590
0.020294 0.078644 0.007385
0.031281 0.081268 0.007721
0.043396 0.083801 0.008514
0.058472 0.086487 0.007324
0.077240 0.089172 0.007385
0.101837 0.094513 0.007629
0.132629 0.105438 0.008148
0.168823 0.119873 0.008667
0.205780 0.132599 0.008789
0.241241 0.143005 0.008881
0.275085 0.151031 0.008942
0.307770 0.157257 0.008942
0.339294 0.162292 0.008972
0.369751 0.166229 0.009094
0.399200 0.169525 0.008972
0.427826 0.172180 0.008972
0.455872 0.174438 0.009033
0.483124 0.176544 0.009003
0.510010 0.178314 0.009064
0.536407 0.179688 0.009155
0.562439 0.180939 0.009064
0.588501 0.181976 0.009277
0.614410 0.182495 0.009216
0.640411 0.182495 0.009186
0.666351 0.181519 0.009247
0.692291 0.180542 0.009125
0.718353 0.177826 0.009094
0.744598 0.179932 0.009460
0.770996 0.182526 0.009766
0.796906 0.183685 0.010101
0.822754 0.188019 0.010406
0.848328 0.192444 0.010925
0.873627 0.196899 0.011322
0.022522 0.106628 0.009979
0.036316 0.109589 0.010315
0.048767 0.112152 0.010468
0.064880 0.114929 0.010803
0.085175 0.117859 0.008911
0.109314 0.121552 0.009155
0.139587 0.129120 0.009277
0.175232 0.142639 0.009491
0.213196 0.157898 0.009796
0.250580 0.170776 0.009857
0.285278 0.180481 0.010040
0.318207 0.188019 0.010010
0.349701 0.193604 0.010071
0.380219 0.197998 0.010071
0.409546 0.201447 0.010132
0.438110 0.204041 0.010132
0.465912 0.206238 0.010162
0.493042 0.208130 0.010193
0.519806 0.209686 0.010101
0.546051 0.211029 0.010345
0.572174 0.212341 0.010468
0.598083 0.213531 0.010468
0.623932 0.214600 0.010590
0.649841 0.215546 0.010529
0.675751 0.216187 0.010498
0.701752 0.216919 0.010742
0.727600 0.217377 0.010925
0.753479 0.217407 0.011047
0.779297 0.217285 0.011200
0.804810 0.217316 0.011688
0.830109 0.218750 0.011871
0.855377 0.221710 0.012146
0.880341 0.223907 0.012512
0.028137 0.138885 0.021576
0.040802 0.141968 0.020233
0.054962 0.144592 0.017578
0.072174 0.146973 0.014496
0.093628 0.149750 0.014771
0.119202 0.153381 0.013153
0.149597 0.158142 0.010925
0.184204 0.167633 0.010620
0.221985 0.182068 0.010742
0.259766 0.197021 0.011017
0.295563 0.208771 0.011292
0.328369 0.217590 0.011200
0.359467 0.224213 0.011292
0.389526 0.229279 0.011322
0.418579 0.232971 0.011322
0.446899 0.235687 0.011108
0.474426 0.237823 0.011078
0.501495 0.239532 0.011169
0.528198 0.240967 0.011230
0.554626 0.242218 0.011261
0.580688 0.243500 0.011353
0.606689 0.244507 0.011230
0.632568 0.245575 0.011414
0.658447 0.246643 0.011536
0.684418 0.247559 0.011719
0.710297 0.248688 0.011841
0.736145 0.249786 0.012207
0.762024 0.250763 0.012299
0.787506 0.252411 0.012634
0.812836 0.254211 0.012909
0.837891 0.256165 0.013184
0.862671 0.258972 0.013458
0.887390 0.262115 0.013611
0.035461 0.174530 0.034607
0.048401 0.177124 0.033783
0.062622 0.179443 0.031677
0.080841 0.181885 0.028229
0.103271 0.184479 0.022400
0.130432 0.187378 0.019104
0.161041 0.191193 0.016937
0.194885 0.196869 0.012482
0.232208 0.207001 0.011902
0.269897 0.221558 0.012177
0.305634 0.235504 0.012543
0.338715 0.246185 0.012543
0.369354 0.253845 0.012512
0.398529 0.259613 0.012634
0.426758 0.263947 0.012390
0.454468 0.266937 0.012299
0.481750 0.269287 0.012390
0.508698 0.271088 0.012360
0.535400 0.272522 0.012146
0.561829 0.273590 0.012115
0.588135 0.274567 0.012115
0.614258 0.275421 0.012207
0.640259 0.276428 0.012360
0.666443 0.277252 0.012451
0.692413 0.278290 0.012512
0.718323 0.279358 0.012756
0.744263 0.280579 0.012939
0.769745 0.282104 0.013214
0.795288 0.283691 0.013367
0.820465 0.285614 0.013733
0.845306 0.288086 0.013947
0.869904 0.291016 0.014252
0.894653 0.293762 0.014404
0.046295 0.211761 0.048309
0.058044 0.213196 0.046478
0.072998 0.214844 0.044617
0.091461 0.216522 0.042084
0.114380 0.218842 0.039337
0.141754 0.221893 0.036011
0.173157 0.225342 0.028015
0.207184 0.229187 0.022125
0.244415 0.235779 0.018463
0.281647 0.246429 0.013153
0.317169 0.260193 0.013428
0.349854 0.272858 0.013672
0.379974 0.282166 0.013855
0.408142 0.289032 0.013702
0.435120 0.293915 0.013641
0.461761 0.297546 0.013641
0.488464 0.300323 0.013489
0.515076 0.302307 0.013275
0.541595 0.303894 0.013306
0.567963 0.305023 0.013275
0.594421 0.305878 0.013245
0.620758 0.306641 0.013184
0.647034 0.307404 0.013153
0.673248 0.308228 0.013306
0.699463 0.309052 0.013397
0.725586 0.309967 0.013580
0.751495 0.311127 0.013794
0.777130 0.312622 0.013977
0.802582 0.314178 0.014160
0.827606 0.316284 0.014282
0.852417 0.318481 0.014557
0.877075 0.321167 0.014648
0.901794 0.323853 0.014832
0.059021 0.248474 0.060730
0.071045 0.248962 0.058136
0.086151 0.249390 0.055298
0.104340 0.250671 0.052734
0.127869 0.252563 0.050232
0.154541 0.255280 0.047974
0.185669 0.258301 0.045166
0.220123 0.262177 0.041687
0.256714 0.267212 0.031769
0.294281 0.274719 0.028687
0.329895 0.285187 0.023682
0.361908 0.297119 0.014557
0.391357 0.308655 0.015228
0.418457 0.317078 0.015533
0.444244 0.323029 0.015350
0.469543 0.327362 0.015076
0.495300 0.330597 0.014893
0.521118 0.333099 0.014771
0.547150 0.334930 0.014557
0.573395 0.336273 0.014465
0.599792 0.337219 0.014343
0.626251 0.338013 0.014191
0.652771 0.338654 0.014252
0.679291 0.339325 0.014313
0.705627 0.340088 0.014282
0.731934 0.340851 0.014282
0.757996 0.341858 0.014435
0.783783 0.343109 0.014587
0.809204 0.344574 0.014801
0.834290 0.346405 0.014771
0.859192 0.348511 0.014954
0.883972 0.350922 0.015137
0.908722 0.353485 0.015198
0.074280 0.283478 0.072601
0.087341 0.283142 0.069153
0.101196 0.283447 0.066345
0.120422 0.284027 0.063232
0.142731 0.285553 0.060608
0.169403 0.287842 0.058685
0.199615 0.290710 0.057434
0.233185 0.294373 0.055878
0.268799 0.299011 0.054443
0.306000 0.304352 0.051361
0.341980 0.311859 0.046295
0.375000 0.321869 0.036652
0.404083 0.333069 0.023041
0.430573 0.343170 0.018524
0.454987 0.350677 0.017212
0.478790 0.355927 0.017151
0.502716 0.359985 0.016907
0.527496 0.363007 0.016693
0.552826 0.365295 0.016327
0.578583 0.366943 0.015930
0.604675 0.368164 0.015686
0.631073 0.369141 0.015533
0.657745 0.369843 0.015350
0.684326 0.370544 0.015381
0.710907 0.371155 0.015259
0.737396 0.371826 0.015289
0.763733 0.372650 0.015289
0.789551 0.373810 0.015350
0.815155 0.375153 0.015289
0.840515 0.376648 0.015350
0.865631 0.378510 0.015411
0.890625 0.380615 0.015411
0.915741 0.382812 0.015411
0.092499 0.316925 0.083771
0.103851 0.316528 0.080414
0.119720 0.316010 0.076599
0.137421 0.316620 0.073730
0.158783 0.317688 0.071014
0.184723 0.319641 0.069366
0.214783 0.322266 0.068512
0.246826 0.325562 0.068512
0.281067 0.329773 0.068756
0.316864 0.334320 0.068756
0.352875 0.339905 0.067078
0.386597 0.347504 0.062744
0.416870 0.357147 0.054565
0.443817 0.367584 0.042847
0.467957 0.376709 0.029907
0.490021 0.382904 0.019867
0.512360 0.387848 0.019501
0.535187 0.391754 0.019104
0.558960 0.394653 0.018372
0.583893 0.396759 0.017822
0.609436 0.398438 0.017456
0.635559 0.399658 0.017090
0.661926 0.400665 0.016785
0.688629 0.401520 0.016632
0.715393 0.402283 0.016357
0.742096 0.402924 0.016144
0.768524 0.403687 0.016052
0.794647 0.404602 0.015961
0.820557 0.405731 0.015808
0.846130 0.407166 0.015808
0.871552 0.408783 0.015717
0.896973 0.410553 0.015625
0.922516 0.412384 0.015564
0.112488 0.348358 0.093842
0.124512 0.347870 0.090332
0.139832 0.347534 0.086609
0.156433 0.347778 0.083588
0.177826 0.348724 0.081268
0.201599 0.350311 0.080048
0.230804 0.352844 0.079803
0.261658 0.355988 0.080872
0.294769 0.359802 0.082764
0.329193 0.363953 0.084412
0.363922 0.368317 0.085052
0.397705 0.374054 0.083923
0.428741 0.381439 0.079407
0.456238 0.390472 0.071136
0.480591 0.400055 0.059906
0.502960 0.408569 0.042633
0.523987 0.414612 0.031860
0.544861 0.418915 0.021881
0.566681 0.422638 0.021179
0.589813 0.425507 0.020386
0.614288 0.427704 0.019714
0.639801 0.429443 0.018982
0.665955 0.430786 0.018463
0.692474 0.431915 0.018097
0.719147 0.432922 0.017578
0.746063 0.433716 0.017242
0.772705 0.434570 0.016907
0.799164 0.435547 0.016724
0.825256 0.436615 0.016479
0.851196 0.437836 0.016296
0.877075 0.439209 0.016083
0.902802 0.440796 0.015900
0.928772 0.442413 0.015808
0.133331 0.378723 0.104401
0.144836 0.377991 0.100769
0.159790 0.377655 0.097626
0.176208 0.377838 0.095001
0.196594 0.378754 0.093384
0.220398 0.380310 0.092438
0.247345 0.382568 0.093292
0.277069 0.385468 0.094910
0.309143 0.389038 0.097809
0.341644 0.392853 0.100739
0.375366 0.396851 0.103027
0.408875 0.401184 0.103943
0.440247 0.406616 0.102051
0.468536 0.413757 0.096558
0.493317 0.422089 0.087006
0.515533 0.431030 0.073975
0.536499 0.439087 0.059479
0.556488 0.444946 0.040588
0.576324 0.448975 0.025085
0.597473 0.452637 0.023651
0.620148 0.455658 0.022491
0.644287 0.458130 0.021576
0.669678 0.460022 0.020752
0.695923 0.461578 0.019928
0.722473 0.462891 0.019165
0.749329 0.464081 0.018555
0.776062 0.465240 0.018005
0.802856 0.466309 0.017548
0.829376 0.467407 0.017151
0.855774 0.468567 0.016785
0.881989 0.469910 0.016541
0.908295 0.471161 0.016235
0.934753 0.472565 0.015930
0.156250 0.407684 0.115051
0.166992 0.407196 0.112488
0.180511 0.406921 0.109802
0.196808 0.407196 0.107941
0.217255 0.408020 0.106812
0.239868 0.409698 0.106934
0.265900 0.411804 0.107910
0.294006 0.414551 0.110382
0.324127 0.417755 0.113647
0.355591 0.421417 0.117554
0.387665 0.425049 0.121094
0.420380 0.428680 0.123505
0.451691 0.432800 0.123718
0.480469 0.437988 0.120758
0.506042 0.444397 0.113403
0.528534 0.452057 0.102203
0.549042 0.460388 0.087250
0.568787 0.468323 0.069794
0.587952 0.474274 0.049042
0.606903 0.478210 0.028107
0.627716 0.482086 0.025848
0.649963 0.485352 0.024719
0.673859 0.488037 0.023529
0.699127 0.490265 0.022369
0.725403 0.492096 0.021210
0.752136 0.493744 0.020203
0.778992 0.495270 0.019379
0.805908 0.496643 0.018738
0.832672 0.498016 0.018158
0.859558 0.499329 0.017609
0.886475 0.500488 0.017090
0.913391 0.501740 0.016602
0.940582 0.502808 0.016113
0.178650 0.436035 0.127319
0.189697 0.435730 0.125122
0.203003 0.435638 0.123383
0.219360 0.435974 0.122131
0.237244 0.436859 0.121735
0.259338 0.438416 0.122406
0.285187 0.440552 0.124268
0.312256 0.443146 0.127411
0.340332 0.446136 0.131470
0.370117 0.449402 0.135773
0.401123 0.452789 0.139862
0.432373 0.455872 0.143311
0.462860 0.459015 0.144897
0.491943 0.462708 0.143616
0.518280 0.467468 0.138550
0.541504 0.473480 0.129364
0.562134 0.480591 0.115662
0.581146 0.488525 0.098358
0.599762 0.496338 0.078461
0.618256 0.502441 0.054779
0.636780 0.506653 0.031403
0.657166 0.510864 0.028107
0.679321 0.514587 0.026733
0.703094 0.517670 0.025299
0.728241 0.520264 0.023804
0.754517 0.522522 0.022461
0.781342 0.524536 0.021179
0.808289 0.526367 0.020203
0.835480 0.528046 0.019257
0.862793 0.529572 0.018524
0.890259 0.530945 0.017761
0.918030 0.532166 0.016937
0.945801 0.533356 0.016357
0.201874 0.464020 0.141327
0.212952 0.463715 0.139587
0.225647 0.463776 0.138641
0.241730 0.464142 0.137939
0.259674 0.465088 0.138214
0.280304 0.466553 0.139526
0.304657 0.468597 0.141998
0.329590 0.471039 0.145477
0.357208 0.473816 0.149841
0.385681 0.476715 0.154480
0.414429 0.479736 0.158783
0.444489 0.482483 0.162659
0.474091 0.484955 0.164856
0.502777 0.487518 0.164825
0.529297 0.490723 0.161530
0.553253 0.495117 0.154266
0.574768 0.500854 0.143005
0.593964 0.507660 0.127258
0.611847 0.515503 0.107361
0.629517 0.523315 0.084930
0.647552 0.529846 0.056519
0.665619 0.534424 0.032074
0.686005 0.539276 0.030090
0.708069 0.543457 0.028625
0.731842 0.547150 0.026886
0.757080 0.550232 0.025208
0.783203 0.552948 0.023651
0.810242 0.555328 0.022064
0.837677 0.557404 0.020752
0.865387 0.559326 0.019562
0.893494 0.560913 0.018433
0.921814 0.562347 0.017517
0.950317 0.563690 0.016510
0.225250 0.491333 0.157288
0.236053 0.491150 0.156036
0.248505 0.491333 0.155701
0.263885 0.491791 0.155518
0.282013 0.492798 0.156586
0.301605 0.494110 0.158203
0.323029 0.495880 0.160583
0.348450 0.498016 0.164368
0.373566 0.500427 0.168671
0.399994 0.502991 0.173218
0.428467 0.505554 0.177765
0.456207 0.508087 0.181702
0.484558 0.510254 0.184296
0.512512 0.512085 0.184906
0.539062 0.514099 0.182770
0.563751 0.516846 0.177429
0.585999 0.521088 0.167999
0.605865 0.526550 0.154266
0.623901 0.533356 0.136353
0.640961 0.541260 0.114288
0.658203 0.549500 0.088837
0.675751 0.556458 0.057556
0.693634 0.561859 0.033417
0.714111 0.567413 0.032043
0.736328 0.572327 0.029938
0.760223 0.576630 0.028076
0.785583 0.580231 0.026337
0.812073 0.583405 0.024231
0.839417 0.586121 0.022369
0.867645 0.588409 0.020782
0.896118 0.590424 0.019318
0.924896 0.592194 0.018066
0.954102 0.593719 0.016876
0.247986 0.518219 0.174561
0.259033 0.518250 0.174133
0.269867 0.518372 0.173828
0.286682 0.518921 0.174347
0.302795 0.519684 0.175446
0.321411 0.520874 0.177368
0.342957 0.522400 0.180084
0.365417 0.524231 0.183502
0.390381 0.526276 0.187622
0.415161 0.528442 0.191742
0.441010 0.530670 0.196045
0.467804 0.532623 0.199921
0.494690 0.534241 0.202515
0.521637 0.535583 0.203430
0.547699 0.536957 0.202240
0.572388 0.538727 0.198212
0.595642 0.541168 0.190704
0.616180 0.545380 0.179199
0.634949 0.550903 0.163300
0.652191 0.558014 0.143097
0.668671 0.566284 0.118683
0.685669 0.575104 0.090240
0.703003 0.582733 0.058167
0.720764 0.589111 0.035217
0.741547 0.595551 0.033295
0.764160 0.601318 0.031067
0.788300 0.606201 0.029022
0.813965 0.610443 0.026764
0.841003 0.614044 0.024475
0.869049 0.617065 0.022583
0.897980 0.619537 0.020599
0.927429 0.621582 0.018860
0.957214 0.623444 0.017365
0.270020 0.544495 0.192627
0.281189 0.544525 0.192688
0.292053 0.544617 0.192688
0.307098 0.545044 0.193451
0.322662 0.545807 0.194611
0.341522 0.546844 0.196716
0.361572 0.548065 0.199158
0.383057 0.549622 0.202484
0.405060 0.551208 0.206146
0.429626 0.552887 0.210083
0.454376 0.554688 0.214111
0.479248 0.556458 0.217590
0.504272 0.557709 0.219971
0.529999 0.558441 0.221222
0.555786 0.559174 0.220398
0.580017 0.560211 0.217316
0.603271 0.561829 0.211334
0.624878 0.564117 0.201782
0.644287 0.568298 0.187897
0.662140 0.574219 0.169708
0.678741 0.581726 0.147430
0.695129 0.590668 0.120605
0.712067 0.600311 0.088379
0.729248 0.608826 0.055511
0.747284 0.616455 0.036224
0.768311 0.624023 0.033997
0.791412 0.630585 0.031769
0.816071 0.636230 0.029480
0.842346 0.640991 0.026947
0.870056 0.644958 0.024506
0.898865 0.648193 0.022156
0.928650 0.650757 0.019989
0.959167 0.652924 0.018097
0.291138 0.570129 0.211304
0.302124 0.570129 0.211426
0.313599 0.570129 0.211670
0.327728 0.570526 0.212433
0.342896 0.571136 0.213806
0.360474 0.571960 0.215668
0.378632 0.572815 0.217896
0.399658 0.573975 0.221039
0.421082 0.575195 0.224304
0.443298 0.576538 0.227875
0.466370 0.577881 0.231415
0.490051 0.579010 0.234497
0.513916 0.579987 0.236603
0.538330 0.580627 0.237762
0.562622 0.580658 0.237427
0.586609 0.580872 0.234863
0.609619 0.581665 0.229675
0.631195 0.583221 0.221710
0.651581 0.585663 0.210175
0.670166 0.590088 0.194031
0.687439 0.596466 0.173706
0.703888 0.604767 0.149109
0.720245 0.614777 0.119446
0.737518 0.625610 0.082672
0.754364 0.634918 0.046356
0.772980 0.644287 0.036987
0.794556 0.652954 0.034454
0.818268 0.660370 0.032166
0.843597 0.666687 0.029663
0.870667 0.671875 0.026794
0.899200 0.676056 0.024048
0.928955 0.679474 0.021576
0.959900 0.682129 0.019135
0.312103 0.595062 0.230103
0.321930 0.594971 0.230133
0.333069 0.594910 0.230469
0.346191 0.595123 0.231201
0.361511 0.595490 0.232483
0.378693 0.596069 0.234344
0.395477 0.596680 0.236359
0.414825 0.597595 0.239136
0.435455 0.598328 0.241974
0.456451 0.599274 0.245026
0.478485 0.600128 0.248047
0.499817 0.600983 0.250549
0.522034 0.601562 0.252472
0.544800 0.601837 0.253357
0.568024 0.601776 0.252869
0.591248 0.601318 0.250427
0.613708 0.601166 0.246216
0.635559 0.601746 0.239014
0.656281 0.603210 0.229187
0.675873 0.605927 0.215637
0.694061 0.610901 0.197784
0.711060 0.618073 0.175293
0.727631 0.627411 0.148590
0.744354 0.638855 0.115417
0.761871 0.651093 0.072418
0.778564 0.661652 0.041077
0.797882 0.672577 0.037170
0.820129 0.682404 0.034882
0.844757 0.690704 0.032135
0.871033 0.697571 0.029144
0.899017 0.703033 0.026123
0.928497 0.707397 0.023285
0.959991 0.710815 0.020477
0.329742 0.619080 0.248047
0.340363 0.618896 0.248322
0.351227 0.618744 0.248474
0.363647 0.618744 0.249146
0.378571 0.618988 0.250305
0.392761 0.619293 0.251740
0.410828 0.619629 0.253571
0.428528 0.620117 0.255646
0.446960 0.620728 0.257904
0.466370 0.621307 0.260315
0.486572 0.621704 0.262390
0.507629 0.622040 0.264343
0.527863 0.622437 0.265686
0.549286 0.622345 0.266144
0.571320 0.621948 0.265594
0.593567 0.621460 0.263794
0.615906 0.620575 0.260132
0.637909 0.620300 0.254303
0.659088 0.620789 0.245636
0.679443 0.622284 0.234009
0.698608 0.625336 0.218933
0.716400 0.631042 0.199280
0.733398 0.639221 0.174988
0.750183 0.649994 0.145996
0.767517 0.663330 0.108490
0.784790 0.676697 0.063263
0.801910 0.688965 0.038879
0.821991 0.701324 0.036957
0.845093 0.712280 0.034637
0.870941 0.721405 0.031372
0.898285 0.728638 0.028442
0.927460 0.734344 0.025269
0.959106 0.738953 0.022095
0.341370 0.642517 0.263733
0.351959 0.642303 0.263824
0.362701 0.642059 0.264008
0.374451 0.641937 0.264465
0.389679 0.641968 0.265320
0.403229 0.641968 0.266327
0.420227 0.642120 0.267822
0.437073 0.642395 0.269348
0.455109 0.642517 0.271179
0.473877 0.642822 0.273163
0.492218 0.642822 0.274841
0.512421 0.642822 0.276337
0.532532 0.642883 0.277466
0.552429 0.642731 0.277771
0.573273 0.642059 0.277252
0.594971 0.641174 0.275574
0.616913 0.639984 0.272247
0.638733 0.638794 0.267273
0.660248 0.638489 0.259979
0.680878 0.638977 0.250031
0.700928 0.640564 0.236938
0.719696 0.644257 0.220551
0.737488 0.650909 0.199219
0.754456 0.660309 0.173157
0.771667 0.672821 0.141815
0.789520 0.688141 0.099396
0.806488 0.702667 0.057465
0.824280 0.716797 0.038361
0.845490 0.730591 0.036469
0.869751 0.742493 0.033905
0.896851 0.752136 0.030518
0.925812 0.759766 0.027435
0.957123 0.765900 0.024109
0.348846 0.665497 0.277252
0.359680 0.665161 0.277252
0.370789 0.664795 0.277435
0.382446 0.664520 0.277618
0.397583 0.664337 0.278290
0.410950 0.664185 0.279022
0.426910 0.664062 0.280090
0.443054 0.664032 0.281250
0.460266 0.663879 0.282623
0.478485 0.663818 0.284088
0.497101 0.663544 0.285461
0.515961 0.663361 0.286682
0.535583 0.662964 0.287445
0.554749 0.662537 0.287659
0.574799 0.661774 0.287018
0.595459 0.660645 0.285645
0.616943 0.659363 0.282776
0.638519 0.657745 0.278229
0.659943 0.656250 0.272186
0.680969 0.655914 0.263580
0.701447 0.656464 0.252563
0.721069 0.658356 0.238342
0.739624 0.662933 0.220520
0.757233 0.670593 0.197998
0.774475 0.681519 0.170471
