src/assets/luts/ON1 Nature & Wildlife LUTs/CinematicX LUTs - 30 Free Cinematic LUTs - The Resolve Store 2022/Tanama - Rec709.cube
# Copyright: (C) Copyright 2022 The Resolve Store 
# Cannot be resold, shared or otherwise redistributed
TITLE "CinematicX (Rec.709)"
LUT_3D_SIZE 5
0.000000 0.000000 0.000000
0.214111 0.004150 0.000671
0.517914 0.005676 0.002197
0.781921 0.010925 0.003021
0.933350 0.381683 0.384918
0.110779 0.235901 0.002106
0.377228 0.285126 0.002533
0.647888 0.348083 0.007477
0.912964 0.355804 0.012939
0.955750 0.466583 0.421356
0.328369 0.558075 0.001984
0.507111 0.604126 0.004272
0.704346 0.621063 0.003571
0.884979 0.631866 0.006073
0.985168 0.640564 0.501678
0.419006 0.759430 0.012756
0.547546 0.823456 0.023499
0.733337 0.843353 0.044708
0.870880 0.840637 0.071320
0.995544 0.824219 0.609222
0.773621 0.947632 0.665863
0.801331 0.949249 0.673126
0.874451 0.950806 0.696960
0.950378 0.950256 0.746185
0.991028 0.959625 0.824615
0.001160 0.044556 0.127594
0.227570 0.054230 0.189819
0.541504 0.051453 0.223755
0.772003 0.048370 0.244232
0.921783 0.380005 0.428223
0.037567 0.210602 0.252472
0.240173 0.220947 0.180603
0.586700 0.263306 0.209137
0.840485 0.021851 0.011536
0.946503 0.465240 0.461456
0.215576 0.535583 0.314697
0.375214 0.543213 0.208252
0.599152 0.535095 0.144073
0.888794 0.590149 0.005554
0.981384 0.640564 0.538239
0.332886 0.759918 0.292114
0.416351 0.751740 0.011841
0.699158 0.834351 0.037048
0.864349 0.832977 0.064453
0.995331 0.825256 0.638916
0.770020 0.947174 0.686798
0.798553 0.949219 0.693970
0.873016 0.951752 0.716339
0.951355 0.952393 0.764679
0.992035 0.961853 0.839935
0.000000 0.035889 0.238983
0.151947 0.033722 0.349945
0.424103 0.030334 0.381470
0.645599 0.028320 0.407166
0.883698 0.374847 0.514771
0.000275 0.205414 0.417389
0.097900 0.212952 0.451172
0.477997 0.218445 0.438965
0.676971 0.029724 0.407440
0.911835 0.457672 0.544830
0.080872 0.488800 0.560883
0.232147 0.498718 0.528259
0.496735 0.475006 0.455231
0.799988 0.507019 0.456970
0.960907 0.637207 0.621948
0.243530 0.716492 0.555298
0.255402 0.717957 0.518555
0.579956 0.775269 0.493500
0.802765 0.772156 0.483765
0.991119 0.826508 0.717255
0.757263 0.943756 0.744537
0.786987 0.947144 0.750366
0.867035 0.953308 0.770020
0.953186 0.958130 0.815613
0.994812 0.968567 0.882721
0.000000 0.022827 0.336426
0.081970 0.026642 0.443787
0.321747 0.012482 0.477539
0.555664 0.016998 0.506348
0.821564 0.374176 0.605621
0.000000 0.200409 0.500824
0.001373 0.155212 0.535217
0.292053 0.086243 0.558655
0.559509 0.016205 0.518951
0.849884 0.449341 0.632568
0.000763 0.436035 0.674286
0.000153 0.405365 0.660980
0.334869 0.470245 0.674194
0.725433 0.471161 0.633789
0.911041 0.627258 0.708832
0.090729 0.645782 0.726898
0.091370 0.640289 0.720642
0.478638 0.740265 0.719788
0.771576 0.775848 0.712921
0.970703 0.826324 0.813293
0.709198 0.929108 0.825745
0.743256 0.935394 0.830780
0.837372 0.950012 0.846741
0.952515 0.966278 0.889069
0.998413 0.980591 0.942841
0.001221 0.149200 0.532104
0.014038 0.168091 0.563110
0.146027 0.224640 0.623474
0.445068 0.321259 0.682312
0.748627 0.389801 0.710205
0.000244 0.266937 0.598083
0.004089 0.283386 0.626343
0.114105 0.335754 0.689636
0.458618 0.417419 0.729401
0.776276 0.457245 0.734924
0.034546 0.496674 0.771545
0.082550 0.513153 0.783844
0.260864 0.559418 0.810181
0.549194 0.624512 0.828186
0.848572 0.626740 0.800842
0.277771 0.731842 0.879486
0.325806 0.746857 0.886597
0.465698 0.789001 0.905396
0.696960 0.846863 0.923340
0.934631 0.828217 0.894043
0.493164 0.878418 0.921631
0.531830 0.888062 0.926941
0.649780 0.914917 0.941437
0.836914 0.952209 0.960999
0.998413 0.996796 1.000000
