src/assets/luts/ON1 Nature & Wildlife LUTs/CinematicX LUTs - 30 Free Cinematic LUTs - The Resolve Store 2022/Tanama - Rec709.cube
# Copyright: (C) Copyright 2022 The Resolve Store 
# Cannot be resold, shared or otherwise redistributed
TITLE "CinematicX (Rec.709)"
LUT_3D_SIZE 9
0.000000 0.000000 0.000000
0.093018 0.002197 0.000000
0.214111 0.004150 0.000671
0.368958 0.004852 0.001404
0.517914 0.005676 0.002197
0.654266 0.008179 0.002533
0.781921 0.010925 0.003021
0.928619 0.232422 0.199127
0.933350 0.381683 0.384918
0.032288 0.090668 0.002502
0.153625 0.112000 0.002502
0.310181 0.142731 0.004669
0.476013 0.165588 0.007202
0.623840 0.180206 0.009552
0.751221 0.190094 0.012451
0.865143 0.182404 0.016846
0.942535 0.277679 0.209564
0.940948 0.408508 0.396027
0.110779 0.235901 0.002106
0.232147 0.254730 0.002106
0.377228 0.285126 0.002533
0.520050 0.328278 0.005371
0.647888 0.348083 0.007477
0.783966 0.364166 0.009399
0.912964 0.355804 0.012939
0.964844 0.372498 0.234009
0.955750 0.466583 0.421356
0.229095 0.408539 0.001068
0.335632 0.434143 0.002289
0.445984 0.437469 0.002380
0.573547 0.470551 0.002686
0.658264 0.495941 0.005280
0.765930 0.509766 0.006195
0.910431 0.497864 0.007538
0.986877 0.486694 0.249664
0.972412 0.547974 0.458618
0.328369 0.558075 0.001984
0.412384 0.593048 0.002502
0.507111 0.604126 0.004272
0.615692 0.609589 0.003845
0.704346 0.621063 0.003571
0.772461 0.638397 0.006012
0.884979 0.631866 0.006073
0.996857 0.600769 0.219482
0.985168 0.640564 0.501678
0.385742 0.671265 0.004730
0.451294 0.711456 0.005646
0.535217 0.732727 0.009491
0.635315 0.742615 0.011292
0.729675 0.744995 0.012573
0.797760 0.745941 0.015411
0.864563 0.747162 0.014801
0.994659 0.714966 0.039459
0.992798 0.735443 0.548370
0.419006 0.759430 0.012756
0.473297 0.800262 0.015625
0.547546 0.823456 0.023499
0.638550 0.837128 0.032837
0.733337 0.843353 0.044708
0.814209 0.842560 0.059418
0.870880 0.840637 0.071320
0.955231 0.815765 0.049377
0.995544 0.824219 0.609222
0.443481 0.834900 0.022919
0.491669 0.869293 0.027649
0.559723 0.888092 0.038422
0.644287 0.895996 0.052277
0.734985 0.896545 0.068451
0.818909 0.890198 0.087830
0.879639 0.880981 0.106354
0.924988 0.881226 0.144470
0.993347 0.897766 0.704254
0.773621 0.947632 0.665863
0.781677 0.948151 0.667908
0.801331 0.949249 0.673126
0.833344 0.950439 0.682617
0.874451 0.950806 0.696960
0.916443 0.949982 0.716766
0.950378 0.950256 0.746185
0.970001 0.953613 0.781250
0.991028 0.959625 0.824615
0.006287 0.041443 0.066711
0.119690 0.051849 0.080658
0.272888 0.061005 0.090027
0.428497 0.065979 0.101654
0.562805 0.066010 0.110840
0.684692 0.064941 0.118225
0.800476 0.064362 0.125732
0.913177 0.215363 0.241089
0.930145 0.381226 0.398438
0.033447 0.127960 0.100983
0.128296 0.117706 0.076782
0.277161 0.142029 0.084167
0.465210 0.142029 0.083344
0.554199 0.012726 0.005890
0.677734 0.008667 0.002594
0.800446 0.011353 0.003113
0.927216 0.248230 0.228943
0.937958 0.407959 0.409058
0.095367 0.256287 0.128265
0.174530 0.234772 0.086670
0.297607 0.245361 0.071320
0.489502 0.302002 0.069733
0.653442 0.311188 0.008118
0.792450 0.325073 0.010437
0.915344 0.311218 0.014282
0.950745 0.345398 0.249725
0.953247 0.466309 0.433807
0.187622 0.416138 0.144531
0.243683 0.398376 0.059052
0.385895 0.406708 0.036011
0.519012 0.426636 0.025024
0.643097 0.471313 0.005371
0.764893 0.489716 0.006317
0.915802 0.479126 0.008514
0.978760 0.471863 0.276154
0.970612 0.547760 0.470276
0.278442 0.566772 0.148224
0.317169 0.539520 0.001831
0.466675 0.579712 0.003662
0.587189 0.583862 0.003601
0.685333 0.597382 0.003418
0.765015 0.625488 0.006012
0.890289 0.622833 0.005859
0.993134 0.594208 0.269043
0.984253 0.640564 0.512604
0.341827 0.682220 0.141571
0.383240 0.665375 0.004425
0.506775 0.721497 0.007996
0.618652 0.735474 0.010406
0.721588 0.739532 0.011505
0.794647 0.741669 0.014282
0.868164 0.745850 0.014404
0.998352 0.712341 0.081360
0.992432 0.735626 0.558594
0.383484 0.772125 0.129395
0.419830 0.761810 0.013031
0.524780 0.819885 0.021332
0.625793 0.836853 0.031830
0.727509 0.844177 0.044281
0.812775 0.843597 0.059631
0.871246 0.841034 0.071716
0.958496 0.815247 0.049194
0.995514 0.824493 0.617828
0.414917 0.847443 0.115723
0.444031 0.836609 0.023163
0.538055 0.885620 0.035065
0.631073 0.896667 0.050507
0.727692 0.897827 0.067444
0.815887 0.891205 0.087402
0.879028 0.881439 0.106415
0.925201 0.881378 0.145020
0.993530 0.898224 0.710876
0.772644 0.947540 0.671997
0.780884 0.948090 0.674072
0.800598 0.949280 0.679260
0.832703 0.950592 0.688507
0.874054 0.951111 0.702576
0.916412 0.950470 0.722229
0.950684 0.950897 0.751587
0.970306 0.954285 0.786285
0.991333 0.960297 0.829102
0.001160 0.044556 0.127594
0.084351 0.051666 0.173157
0.227570 0.054230 0.189819
0.388550 0.053680 0.207123
0.541504 0.051453 0.223755
0.670166 0.049133 0.235016
0.772003 0.048370 0.244232
0.884338 0.198151 0.316376
0.921783 0.380005 0.428223
0.009338 0.115845 0.198029
0.097076 0.126068 0.194397
0.240387 0.138062 0.194702
0.426361 0.132202 0.220612
0.576233 0.055389 0.210510
0.699036 0.052216 0.212372
0.795105 0.052490 0.217621
0.893738 0.224274 0.310303
0.930084 0.406799 0.438202
0.037567 0.210602 0.252472
0.128479 0.218689 0.214417
0.240173 0.220947 0.180603
0.391876 0.242310 0.193085
0.586700 0.263306 0.209137
0.778076 0.239471 0.163574
0.840485 0.021851 0.011536
0.913361 0.278503 0.284637
0.946503 0.465240 0.461456
0.124786 0.374481 0.294098
0.177490 0.377563 0.257324
0.292450 0.352051 0.194427
0.402802 0.351593 0.169617
0.574463 0.411346 0.192047
0.764465 0.446808 0.144836
0.935455 0.418304 0.011902
0.959167 0.424988 0.304077
0.965668 0.547241 0.496613
0.215576 0.535583 0.314697
0.224701 0.528656 0.261932
0.375214 0.543213 0.208252
0.502075 0.540985 0.168671
0.599152 0.535095 0.144073
0.739777 0.588806 0.073151
0.888794 0.590149 0.005554
0.987823 0.565491 0.296692
0.981384 0.640564 0.538239
0.283020 0.661133 0.311127
0.297882 0.664429 0.261566
0.387207 0.662140 0.056610
0.560028 0.706177 0.051178
0.684509 0.708069 0.035034
0.768433 0.707825 0.028900
0.857117 0.729584 0.011536
0.998749 0.700623 0.175476
0.991241 0.735870 0.582947
0.332886 0.759918 0.292114
0.348755 0.768036 0.244965
0.416351 0.751740 0.011841
0.576050 0.821777 0.024841
0.699158 0.834351 0.037048
0.799011 0.835052 0.051971
0.864349 0.832977 0.064453
0.964844 0.812134 0.046997
0.995331 0.825256 0.638916
0.372253 0.842896 0.266449
0.385620 0.847137 0.220032
0.444824 0.839111 0.023499
0.589813 0.895416 0.044250
0.705536 0.900085 0.063965
0.806580 0.893524 0.085632
0.877136 0.882568 0.106354
0.925751 0.881805 0.146484
0.993927 0.899292 0.726898
0.770020 0.947174 0.686798
0.778320 0.947815 0.688812
0.798553 0.949219 0.693970
0.830963 0.950836 0.702850
0.873016 0.951752 0.716339
0.916260 0.951569 0.735535
0.951355 0.952393 0.764679
0.971039 0.955872 0.798401
0.992035 0.961853 0.839935
0.000000 0.041779 0.179504
0.049438 0.044891 0.256836
0.186829 0.042999 0.280884
0.336212 0.041718 0.299072
0.479004 0.039459 0.315674
0.609558 0.037109 0.330170
0.715576 0.036774 0.342682
0.848541 0.190552 0.398285
0.907074 0.378052 0.469604
0.000580 0.112183 0.272400
0.032715 0.114227 0.315216
0.197174 0.118317 0.328491
0.363190 0.111908 0.327026
0.497559 0.038788 0.320435
0.630371 0.037262 0.328857
0.732086 0.037842 0.337585
0.860413 0.215790 0.397522
0.915680 0.404358 0.478760
0.006897 0.207001 0.356201
0.040161 0.214874 0.365875
0.183350 0.209137 0.319885
0.340637 0.219666 0.314484
0.530365 0.231842 0.348053
0.703339 0.183990 0.348145
0.779388 0.042267 0.308319
0.883728 0.267670 0.389648
0.933319 0.462616 0.500854
0.059967 0.358459 0.426361
0.094421 0.347870 0.403137
0.228607 0.326599 0.344879
0.346130 0.320160 0.314209
0.493103 0.338898 0.321991
0.675995 0.367828 0.338226
0.847473 0.317047 0.299347
0.922028 0.362183 0.364441
0.955017 0.545288 0.535217
0.162018 0.514282 0.451965
0.161285 0.497711 0.425171
0.310120 0.517151 0.401367
0.408722 0.469238 0.335388
0.506714 0.460785 0.310364
0.661835 0.513916 0.325592
0.860107 0.536407 0.290741
0.970428 0.514282 0.353241
0.974457 0.639832 0.576935
0.235901 0.641296 0.455292
0.239960 0.638550 0.435028
0.283447 0.637878 0.375305
0.474304 0.650330 0.361389
0.599976 0.650757 0.343353
0.685516 0.639771 0.321777
0.832581 0.691864 0.263550
0.996552 0.663330 0.220856
0.987976 0.736237 0.621033
0.287537 0.742950 0.440765
0.294525 0.748169 0.422272
0.312347 0.745697 0.348206
0.476532 0.790771 0.269257
0.645294 0.817688 0.282440
0.769104 0.816437 0.287598
0.847870 0.810974 0.280731
0.958710 0.794678 0.033752
0.994232 0.825836 0.672943
0.330597 0.829559 0.415588
0.337585 0.833832 0.394226
0.358887 0.843231 0.321625
0.441833 0.829712 0.022217
0.640533 0.891052 0.050201
0.773132 0.890076 0.074341
0.863403 0.879364 0.098053
0.919647 0.877319 0.131775
0.994385 0.901062 0.753632
0.765259 0.946136 0.711365
0.773621 0.946930 0.713196
0.794098 0.948700 0.717987
0.827698 0.950928 0.726654
0.870789 0.952637 0.739288
0.915771 0.953308 0.757660
0.952271 0.954865 0.786316
0.972137 0.958557 0.818695
0.993225 0.964600 0.858093
0.000000 0.035889 0.238983
0.029816 0.037445 0.321869
0.151947 0.033722 0.349945
0.292969 0.031097 0.366302
0.424103 0.030334 0.381470
0.549286 0.028442 0.394409
0.645599 0.028320 0.407166
0.799622 0.184967 0.465240
0.883698 0.374847 0.514771
0.000000 0.109436 0.332581
0.002563 0.072754 0.363403
0.141815 0.059265 0.399384
0.303558 0.035645 0.389923
0.432495 0.029388 0.388672
0.561096 0.027985 0.398102
0.653656 0.028564 0.408386
0.813324 0.208466 0.468018
0.892914 0.400574 0.523560
0.000275 0.205414 0.417389
0.000153 0.192963 0.419434
0.097900 0.212952 0.451172
0.314117 0.220642 0.444672
0.477997 0.218445 0.438965
0.639832 0.161682 0.445587
0.676971 0.029724 0.407440
0.839966 0.256714 0.470795
0.911835 0.457672 0.544830
0.011078 0.343262 0.514648
0.008667 0.326385 0.502930
0.139404 0.355652 0.507874
0.308441 0.332092 0.446564
0.469055 0.343353 0.438446
0.649231 0.365814 0.465698
0.801544 0.294495 0.450256
0.883118 0.344818 0.470306
0.936523 0.540710 0.578979
0.080872 0.488800 0.560883
0.078278 0.471313 0.543030
0.232147 0.498718 0.528259
0.375000 0.477173 0.476990
0.496735 0.475006 0.455231
0.627014 0.488922 0.455139
0.799988 0.507019 0.456970
0.910858 0.486664 0.467316
0.960907 0.637207 0.621948
0.179688 0.612305 0.563782
0.181885 0.608948 0.554535
0.217285 0.607147 0.528900
0.434906 0.644531 0.521942
0.546387 0.616882 0.483124
0.639984 0.608734 0.462585
0.783813 0.649384 0.452942
0.941772 0.632446 0.453918
0.980408 0.735901 0.667755
0.243530 0.716492 0.555298
0.247589 0.720734 0.548981
0.255402 0.717957 0.518555
0.417145 0.772003 0.504791
0.579956 0.775269 0.493500
0.715790 0.786499 0.499512
0.802765 0.772156 0.483765
0.932800 0.765625 0.400452
0.991119 0.826508 0.717255
0.289581 0.806976 0.538055
0.293884 0.811096 0.528870
0.305664 0.820587 0.499908
0.328857 0.823853 0.413025
0.568542 0.882568 0.414886
0.741455 0.893524 0.438232
0.857941 0.886017 0.456940
0.923859 0.877045 0.457825
0.994385 0.903717 0.789825
0.757263 0.943756 0.744537
0.765900 0.944794 0.746155
0.786987 0.947144 0.750366
0.821533 0.950348 0.758148
0.867035 0.953308 0.770020
0.914459 0.955383 0.787537
0.953186 0.958130 0.815613
0.973236 0.962250 0.845825
0.994812 0.968567 0.882721
0.000000 0.028473 0.293610
0.017792 0.031097 0.371613
0.120758 0.027863 0.402466
0.255737 0.021454 0.417725
0.383118 0.021423 0.432861
0.506714 0.021729 0.445923
0.591919 0.022400 0.456696
0.750366 0.183929 0.521240
0.854156 0.373230 0.558899
0.000000 0.105988 0.388184
0.000000 0.023285 0.332703
0.096954 0.026642 0.430176
0.255493 0.018188 0.437714
0.389191 0.019745 0.444366
0.513214 0.021240 0.450714
0.595154 0.022308 0.459747
0.763672 0.205414 0.525909
0.863586 0.397858 0.567383
0.000000 0.204529 0.461334
0.000000 0.188324 0.463409
0.017212 0.182709 0.510162
0.236755 0.182434 0.525909
0.439697 0.168793 0.518158
0.582794 0.142334 0.509521
0.603607 0.022400 0.464905
0.788788 0.248444 0.533508
0.883118 0.452698 0.587799
0.000488 0.330475 0.562683
0.000244 0.318726 0.557373
0.018921 0.338989 0.589600
0.214325 0.339722 0.567780
0.441772 0.352051 0.551575
0.599945 0.350922 0.542908
0.744995 0.272736 0.532623
0.829254 0.325165 0.542877
0.910065 0.534790 0.621704
0.016174 0.464111 0.636963
0.014374 0.453644 0.629791
0.054291 0.469482 0.638977
0.289215 0.495941 0.616913
0.460144 0.482971 0.567413
0.610474 0.495575 0.560181
0.776917 0.498077 0.567871
0.872803 0.466309 0.559631
0.939453 0.632812 0.666718
0.092346 0.581604 0.655853
0.092072 0.577545 0.651581
0.117676 0.571411 0.635956
0.367615 0.624084 0.627319
0.516418 0.619385 0.597534
0.636658 0.624603 0.585724
0.761810 0.634857 0.577148
0.908630 0.613617 0.576508
0.965576 0.733276 0.715576
0.184082 0.682007 0.645844
0.186737 0.684662 0.644440
0.191956 0.679779 0.629333
0.359100 0.739166 0.634888
0.549194 0.766876 0.628204
0.675934 0.764313 0.615021
0.781891 0.766541 0.605804
0.925079 0.753082 0.563995
0.983856 0.826721 0.766083
0.243286 0.773590 0.633270
0.246155 0.776794 0.629974
0.253754 0.784271 0.619415
0.266724 0.786560 0.584717
0.526550 0.865662 0.604492
0.665955 0.891113 0.563385
0.831909 0.892212 0.578278
0.920319 0.873901 0.569031
0.992676 0.906769 0.831787
0.742523 0.938843 0.783752
0.751495 0.940247 0.785217
0.773560 0.943451 0.789001
0.810120 0.948090 0.795807
0.858521 0.953033 0.806458
0.911652 0.957367 0.823364
0.953522 0.962006 0.850616
0.974152 0.966858 0.878357
0.996674 0.973877 0.911926
0.000000 0.022827 0.336426
0.007751 0.027252 0.409607
0.081970 0.026642 0.443787
0.204590 0.017334 0.462067
0.321747 0.012482 0.477539
0.437897 0.014099 0.492950
0.555664 0.016998 0.506348
0.709290 0.188568 0.579071
0.821564 0.374176 0.605621
0.000000 0.100128 0.438782
0.000000 0.028320 0.379456
0.043884 0.031219 0.464539
0.181610 0.018738 0.480530
0.311005 0.010651 0.490295
0.434448 0.013031 0.500946
0.556763 0.016724 0.510468
0.720154 0.207855 0.585022
0.830566 0.397217 0.613556
0.000000 0.200409 0.500824
0.000000 0.179535 0.504578
0.001373 0.155212 0.535217
0.087708 0.139252 0.564758
0.292053 0.086243 0.558655
0.429321 0.018829 0.525208
0.559509 0.016205 0.518951
0.741058 0.246277 0.595612
0.849884 0.449341 0.632568
0.000000 0.315552 0.590759
0.000000 0.304413 0.586792
0.000000 0.277100 0.583038
0.030182 0.287781 0.618011
0.258179 0.298248 0.633057
0.513702 0.295654 0.620667
0.688507 0.255219 0.599274
0.774170 0.311218 0.608673
0.878204 0.529510 0.664734
0.000763 0.436035 0.674286
0.000549 0.427979 0.670563
0.000153 0.405365 0.660980
0.082550 0.457336 0.703186
0.334869 0.470245 0.674194
0.555176 0.486755 0.657501
0.725433 0.471161 0.633789
0.819733 0.440826 0.625244
0.911041 0.627258 0.708832
0.018585 0.547363 0.720917
0.017059 0.545715 0.722290
0.014221 0.531006 0.713196
0.167328 0.593628 0.738922
0.413239 0.620483 0.715698
0.588654 0.623322 0.682343
0.741638 0.633575 0.672394
0.872101 0.591705 0.662354
0.943726 0.729828 0.760223
0.090729 0.645782 0.726898
0.090576 0.646851 0.728119
0.091370 0.640289 0.720642
0.251251 0.697693 0.729797
0.478638 0.740265 0.719788
0.635681 0.757904 0.713013
0.771576 0.775848 0.712921
0.911743 0.739288 0.690674
0.970703 0.826324 0.813293
0.178619 0.733582 0.710571
0.180511 0.735413 0.709778
0.185608 0.739594 0.706665
0.194611 0.737915 0.690613
0.459717 0.830414 0.722534
0.615875 0.869965 0.717255
0.791962 0.899414 0.714630
0.921906 0.875763 0.689728
0.987701 0.909485 0.873688
0.709198 0.929108 0.825745
0.718994 0.930969 0.827179
0.743256 0.935394 0.830780
0.783722 0.942200 0.837097
0.837372 0.950012 0.846741
0.897308 0.957764 0.861847
0.952515 0.966278 0.889069
0.974304 0.972290 0.913696
0.998413 0.980591 0.942841
0.000092 0.060333 0.456451
0.002686 0.067291 0.483795
0.034027 0.077698 0.512573
0.124603 0.090515 0.538635
0.246246 0.106537 0.564392
0.381287 0.132416 0.593201
0.527191 0.162567 0.622040
0.665588 0.191162 0.635132
0.787292 0.380524 0.656952
0.000031 0.122009 0.500916
0.000732 0.120087 0.513031
0.015717 0.127686 0.539734
0.089294 0.138245 0.565186
0.223907 0.151733 0.586792
0.376404 0.170746 0.609650
0.531555 0.190582 0.632965
0.674194 0.210388 0.642883
0.795898 0.402130 0.664520
0.000000 0.220551 0.552826
0.000031 0.218750 0.558685
0.001892 0.208008 0.569855
0.036713 0.216919 0.603821
0.170502 0.229492 0.627747
0.358734 0.241302 0.641541
0.537994 0.246674 0.654663
0.689087 0.244751 0.656311
0.815186 0.451782 0.682434
0.000000 0.336304 0.639984
0.000000 0.334503 0.641296
0.000214 0.325745 0.641785
0.015717 0.313385 0.648285
0.116455 0.328094 0.677826
0.330170 0.338867 0.685608
0.544983 0.332153 0.684326
0.712433 0.300110 0.674377
0.844879 0.529541 0.712250
0.000458 0.459991 0.734589
0.000824 0.458405 0.735382
0.002258 0.450043 0.734009
0.024597 0.438721 0.730957
0.160919 0.443237 0.725159
0.357758 0.465790 0.730560
0.581390 0.469604 0.716797
0.756897 0.419739 0.690155
0.880890 0.625610 0.752991
0.004486 0.562012 0.791534
0.009766 0.573334 0.801300
0.011963 0.567383 0.800232
0.026062 0.556702 0.797485
0.218353 0.579498 0.789093
0.409515 0.594879 0.780243
0.618622 0.613739 0.770081
0.812073 0.563751 0.727264
0.919067 0.728760 0.802307
0.009277 0.609924 0.791199
0.009338 0.611237 0.794403
0.011017 0.611633 0.797729
0.008270 0.597900 0.792114
0.226990 0.686951 0.823486
0.460297 0.731934 0.824677
0.653900 0.752991 0.821259
0.868225 0.716370 0.780426
0.953369 0.826630 0.854889
0.073761 0.692444 0.784210
0.073242 0.693115 0.785095
0.072296 0.694305 0.786774
0.076355 0.688782 0.779175
0.295532 0.773743 0.812958
0.452881 0.815002 0.822083
0.680328 0.869720 0.835022
0.916199 0.886871 0.839844
0.979919 0.913696 0.912079
0.617889 0.906891 0.870667
0.628418 0.909271 0.872070
0.654572 0.915009 0.875610
0.699158 0.924377 0.881592
0.760895 0.936340 0.889984
0.835022 0.949402 0.901306
0.910065 0.962891 0.919006
0.972260 0.978363 0.949188
0.999390 0.988556 0.972229
0.001221 0.149200 0.532104
0.003174 0.154785 0.541962
0.014038 0.168091 0.563110
0.054749 0.190887 0.592224
0.146027 0.224640 0.623474
0.283997 0.269226 0.653839
0.445068 0.321259 0.682312
0.609863 0.356659 0.700439
0.748627 0.389801 0.710205
0.000641 0.187836 0.550720
0.001709 0.193481 0.560120
0.008820 0.205566 0.581207
0.042114 0.227264 0.611938
0.130707 0.260071 0.644012
0.277618 0.302856 0.672363
0.448425 0.352295 0.697205
0.617493 0.381348 0.710358
0.756897 0.410065 0.717621
0.000244 0.266937 0.598083
0.000641 0.271759 0.606323
0.004089 0.283386 0.626343
0.027405 0.304169 0.657532
0.114105 0.335754 0.689636
0.275146 0.376648 0.714020
0.458618 0.417419 0.729401
0.636169 0.436615 0.732880
0.776276 0.457245 0.734924
0.001801 0.372986 0.683350
0.003601 0.378021 0.690002
0.013794 0.390350 0.705688
0.055328 0.411163 0.728149
0.159760 0.441986 0.751526
0.311676 0.477173 0.768494
0.488495 0.511963 0.776031
0.668335 0.521484 0.768433
0.807861 0.532349 0.763214
0.034546 0.496674 0.771545
0.046570 0.501526 0.775421
0.082550 0.513153 0.783844
0.154541 0.532196 0.795685
0.260864 0.559418 0.810181
0.392090 0.592957 0.823853
0.549194 0.624512 0.828186
0.715729 0.625214 0.812958
0.848572 0.626740 0.800842
0.140839 0.620331 0.837097
0.157806 0.625061 0.839630
0.199982 0.636414 0.845459
0.270477 0.655518 0.854736
0.365051 0.681732 0.866394
0.483612 0.712982 0.877289
0.624298 0.740417 0.880188
0.772614 0.733826 0.861420
0.892883 0.728973 0.845306
0.277771 0.731842 0.879486
0.291626 0.736237 0.881561
0.325806 0.746857 0.886597
0.383789 0.764587 0.894806
0.465698 0.789001 0.905396
0.571808 0.817413 0.915924
0.696960 0.846863 0.923340
0.829987 0.836975 0.909424
0.934631 0.828217 0.894043
0.389709 0.811371 0.902802
0.401672 0.814911 0.904602
0.431488 0.823608 0.908905
0.483795 0.837646 0.915985
0.559235 0.856934 0.925018
0.656647 0.879669 0.934235
0.770142 0.903046 0.942200
0.880585 0.927124 0.952026
0.969666 0.917664 0.946320
0.493164 0.878418 0.921631
0.504150 0.881195 0.923157
0.531830 0.888062 0.926941
0.580139 0.899506 0.933228
0.649780 0.914917 0.941437
0.738312 0.932892 0.950623
0.836914 0.952209 0.960999
0.927490 0.973206 0.976562
0.998413 0.996796 1.000000
