src/assets/luts/ON1 Nature & Wildlife LUTs/CinematicX LUTs - 30 Free Cinematic LUTs - The Resolve Store 2022/Tanama - Rec709.cube
# Copyright: (C) Copyright 2022 The Resolve Store 
# Cannot be resold, shared or otherwise redistributed
TITLE "CinematicX (Rec.709)"
LUT_3D_SIZE 33
0.000000 0.000000 0.000000
0.023254 0.000214 0.000000
0.045715 0.000916 0.000000
0.068573 0.001556 0.000000
0.093018 0.002197 0.000000
0.119354 0.002777 0.000183
0.147980 0.003296 0.000336
0.179382 0.003754 0.000488
0.214111 0.004150 0.000671
0.251404 0.004456 0.000824
0.290436 0.004639 0.001007
0.329437 0.004761 0.001190
0.368958 0.004852 0.001404
0.407440 0.004913 0.001648
0.444763 0.005066 0.001862
0.481750 0.005310 0.002045
0.517914 0.005676 0.002197
0.553314 0.006195 0.002319
0.587585 0.006775 0.002380
0.621185 0.007446 0.002472
0.654266 0.008179 0.002533
0.686707 0.008850 0.002625
0.718842 0.009552 0.002747
0.750549 0.010254 0.002899
0.781921 0.010925 0.003021
0.813141 0.011627 0.003204
0.844513 0.012421 0.003448
0.911011 0.164001 0.118225
0.928619 0.232422 0.199127
0.919861 0.260803 0.255005
0.916321 0.296631 0.303467
0.925720 0.342224 0.347931
0.933350 0.381683 0.384918
0.006653 0.020691 0.000122
0.032074 0.023254 0.000244
0.056488 0.025055 0.000580
0.081879 0.027283 0.000946
0.107910 0.028992 0.001221
0.137512 0.031677 0.001526
0.169220 0.034180 0.001862
0.203766 0.036530 0.002197
0.242065 0.039276 0.002625
0.281158 0.041351 0.003021
0.322144 0.043304 0.003448
0.362976 0.045135 0.003906
0.403259 0.046600 0.004395
0.442535 0.047913 0.004883
0.480286 0.049561 0.005432
0.516174 0.050507 0.005920
0.551788 0.052002 0.006470
0.586029 0.052551 0.006897
0.619568 0.053711 0.007385
0.652008 0.054565 0.007874
0.683929 0.055389 0.008331
0.715485 0.056183 0.008820
0.746277 0.056549 0.009277
0.776031 0.055542 0.009644
0.805695 0.054962 0.010284
0.835388 0.055115 0.011078
0.865540 0.055817 0.012085
0.919220 0.183380 0.120087
0.931610 0.241302 0.200897
0.921478 0.267670 0.257172
0.918427 0.303223 0.305725
0.927429 0.347809 0.350128
0.934723 0.386353 0.386780
0.013794 0.042084 0.000916
0.040894 0.045563 0.001251
0.067383 0.049011 0.001495
0.093750 0.051849 0.001709
0.122162 0.055023 0.001984
0.153473 0.058899 0.002350
0.188904 0.063812 0.002808
0.226746 0.068604 0.003357
0.266815 0.073212 0.003906
0.307617 0.076660 0.004456
0.349213 0.079834 0.005005
0.390717 0.082397 0.005554
0.431641 0.085083 0.006165
0.470978 0.087250 0.006775
0.508392 0.089386 0.007385
0.544495 0.091492 0.008057
0.579376 0.093536 0.008728
0.613159 0.095062 0.009399
0.645935 0.096161 0.010071
0.677734 0.097534 0.010773
0.708832 0.098419 0.011444
0.739288 0.098999 0.012146
0.769135 0.099152 0.012848
0.798126 0.097473 0.013611
0.826294 0.095551 0.014618
0.854370 0.094208 0.015961
0.883057 0.093811 0.017578
0.926483 0.201202 0.121918
0.934906 0.251007 0.203033
0.923187 0.275299 0.259583
0.920776 0.310699 0.308411
0.929352 0.354034 0.352448
0.936249 0.391785 0.389069
0.021851 0.064453 0.001862
0.050415 0.068848 0.001984
0.078217 0.073212 0.002045
0.106598 0.077637 0.002167
0.136902 0.082123 0.002411
0.171051 0.087830 0.002777
0.208374 0.094177 0.003296
0.248627 0.101227 0.003906
0.289154 0.107117 0.004547
0.331085 0.112518 0.005188
0.373260 0.116943 0.005798
0.414825 0.120758 0.006409
0.455841 0.124512 0.007019
0.495056 0.127625 0.007599
0.532440 0.130371 0.008240
0.568909 0.133545 0.008911
0.603943 0.136230 0.009613
0.637299 0.138580 0.010315
0.669342 0.139984 0.011047
0.700623 0.141846 0.011810
0.731201 0.143219 0.012604
0.761108 0.143494 0.013397
0.790466 0.143372 0.014252
0.818787 0.140717 0.015259
0.846161 0.137512 0.016663
0.873108 0.134888 0.018433
0.900360 0.132812 0.020599
0.934875 0.222717 0.123810
0.938751 0.262878 0.205658
0.925049 0.285278 0.262848
0.923920 0.320953 0.312256
0.931915 0.362488 0.355652
0.938324 0.399017 0.391998
0.032288 0.090668 0.002502
0.062714 0.096130 0.002441
0.091919 0.101135 0.002380
0.121704 0.106262 0.002380
0.153625 0.112000 0.002502
0.188721 0.118378 0.002808
0.227112 0.125916 0.003296
0.267853 0.134155 0.003967
0.310181 0.142731 0.004669
0.352570 0.149902 0.005371
0.394257 0.155548 0.006042
0.435425 0.160706 0.006622
0.476013 0.165588 0.007202
0.514893 0.169556 0.007751
0.552185 0.172913 0.008301
0.588440 0.176514 0.008911
0.623840 0.180206 0.009552
0.657532 0.183258 0.010223
0.689819 0.185883 0.010956
0.720947 0.188202 0.011688
0.751221 0.190094 0.012451
0.780884 0.190735 0.013245
0.809937 0.190338 0.014130
0.838043 0.186707 0.015289
0.865143 0.182404 0.016846
0.891724 0.178497 0.018890
0.918182 0.174896 0.021362
0.944061 0.247437 0.125793
0.942535 0.277679 0.209564
0.927643 0.298431 0.267303
0.927887 0.334137 0.317169
0.935120 0.373413 0.359863
0.940948 0.408508 0.396027
0.046417 0.122101 0.002808
0.079010 0.128174 0.002655
0.108887 0.133179 0.002502
0.139008 0.138153 0.002380
0.170471 0.143219 0.002350
0.205841 0.150208 0.002533
0.244598 0.158508 0.002991
0.285767 0.168274 0.003601
0.328491 0.178589 0.004364
0.370850 0.187836 0.005127
0.411896 0.195496 0.005829
0.451874 0.201569 0.006470
0.490845 0.206909 0.007019
0.529327 0.211884 0.007507
0.566376 0.216034 0.007996
0.602509 0.220093 0.008545
0.637878 0.224060 0.009094
0.672150 0.228180 0.009705
0.704803 0.231537 0.010345
0.736572 0.234528 0.011017
0.766998 0.236694 0.011719
0.796875 0.237762 0.012451
0.826050 0.237701 0.013275
0.854340 0.233063 0.014404
0.881714 0.227661 0.015930
0.908264 0.222504 0.017944
0.934937 0.217834 0.020386
0.954315 0.276855 0.128601
0.946350 0.295349 0.214172
0.932465 0.316254 0.273163
0.932709 0.350220 0.323181
0.939056 0.386993 0.365173
0.944092 0.420197 0.401031
0.064240 0.157074 0.002777
0.098755 0.163971 0.002686
0.128632 0.168945 0.002502
0.158051 0.173004 0.002319
0.189056 0.177124 0.002167
0.223328 0.183136 0.002228
0.261536 0.191864 0.002502
0.302612 0.202484 0.003052
0.345001 0.214294 0.003784
0.386658 0.225250 0.004578
0.426636 0.234833 0.005341
0.464752 0.242340 0.006042
0.501709 0.248322 0.006622
0.538361 0.253601 0.007141
0.574463 0.258209 0.007599
0.610321 0.262634 0.008087
0.645752 0.266876 0.008575
0.680359 0.271393 0.009125
0.713806 0.275513 0.009705
0.746185 0.278992 0.010315
0.777710 0.281830 0.010956
0.808258 0.283173 0.011658
0.837952 0.283478 0.012390
0.867126 0.278717 0.013397
0.895447 0.272705 0.014740
0.922638 0.266724 0.016479
0.949829 0.261017 0.018738
0.963104 0.304993 0.131989
0.950623 0.316437 0.219940
0.937897 0.336792 0.280396
0.938019 0.368317 0.329742
0.943451 0.402557 0.371185
0.947723 0.433929 0.406891
0.085785 0.195190 0.002533
0.121094 0.202667 0.002563
0.151093 0.207733 0.002472
0.179688 0.211365 0.002289
0.209320 0.214172 0.002075
0.241974 0.218475 0.001984
0.278961 0.226135 0.002136
0.319061 0.237061 0.002502
0.360962 0.249725 0.003113
0.401978 0.262146 0.003876
0.440247 0.272949 0.004669
0.476318 0.282013 0.005432
0.510712 0.288910 0.006073
0.544525 0.294464 0.006653
0.578644 0.299225 0.007141
0.613434 0.303955 0.007599
0.648590 0.308380 0.008057
0.683289 0.312775 0.008545
0.717316 0.317108 0.009064
0.750671 0.321075 0.009644
0.783234 0.324310 0.010223
0.814941 0.325989 0.010895
0.845642 0.326782 0.011597
0.876404 0.321625 0.012543
0.905945 0.315308 0.013763
0.934265 0.308929 0.015289
0.962341 0.302673 0.017212
0.971222 0.333984 0.136017
0.958038 0.344055 0.226624
0.943542 0.359253 0.287750
0.943756 0.388580 0.337250
0.948181 0.420074 0.378082
0.951630 0.449463 0.413696
0.110779 0.235901 0.002106
0.146576 0.244171 0.002380
0.176117 0.249176 0.002441
0.203918 0.252594 0.002319
0.232147 0.254730 0.002106
0.262909 0.257111 0.001923
0.298035 0.262817 0.001923
0.336731 0.272522 0.002106
0.377228 0.285126 0.002533
0.417450 0.298157 0.003143
0.454437 0.310028 0.003876
0.488373 0.320190 0.004639
0.520050 0.328278 0.005371
0.550537 0.334198 0.006012
0.581543 0.339050 0.006561
0.614105 0.343628 0.007050
0.647888 0.348083 0.007477
0.682037 0.352356 0.007904
0.716309 0.356567 0.008362
0.750275 0.360687 0.008850
0.783966 0.364166 0.009399
0.817017 0.366180 0.010040
0.848999 0.367188 0.010742
0.881653 0.362518 0.011719
0.912964 0.355804 0.012939
0.942688 0.349274 0.014374
0.971985 0.342712 0.016083
0.978546 0.363525 0.139893
0.964844 0.372498 0.234009
0.949615 0.383728 0.295563
0.949890 0.410400 0.344574
0.953094 0.439178 0.385742
0.955750 0.466583 0.421356
0.138641 0.278534 0.001617
0.174530 0.288025 0.002106
0.203522 0.293396 0.002350
0.230255 0.296448 0.002350
0.257111 0.297852 0.002197
0.286102 0.299103 0.002014
0.318848 0.302490 0.001923
0.355530 0.310120 0.001953
0.394592 0.321167 0.002136
0.433594 0.334045 0.002533
0.469574 0.346283 0.003113
0.501892 0.357300 0.003784
0.531097 0.366150 0.004547
0.558258 0.372955 0.005249
0.585419 0.377869 0.005890
0.614746 0.382446 0.006409
0.646027 0.386536 0.006836
0.678589 0.390625 0.007202
0.712219 0.394623 0.007568
0.746246 0.398712 0.007935
0.780579 0.402222 0.008392
0.815033 0.404114 0.008972
0.848511 0.405212 0.009644
0.883270 0.400513 0.010712
0.916382 0.394043 0.011993
0.947784 0.387085 0.013489
0.978546 0.380371 0.015198
0.984802 0.393402 0.143341
0.971130 0.401428 0.241730
0.955902 0.409088 0.302826
0.956085 0.433777 0.352509
0.958221 0.459900 0.393982
0.959961 0.485107 0.429779
0.168335 0.321960 0.001251
0.203735 0.332611 0.001892
0.232056 0.338989 0.002228
0.258057 0.342255 0.002319
0.283539 0.343170 0.002289
0.310425 0.343262 0.002167
0.340790 0.344849 0.002075
0.374969 0.349854 0.001984
0.412140 0.358582 0.002014
0.449799 0.369720 0.002167
0.485138 0.381653 0.002502
0.516815 0.392914 0.003052
0.544495 0.402344 0.003723
0.569336 0.409882 0.004456
0.593079 0.415527 0.005157
0.618225 0.419952 0.005768
0.645966 0.423920 0.006226
0.675903 0.427734 0.006561
0.707733 0.431549 0.006836
0.740906 0.435242 0.007050
0.774933 0.438660 0.007324
0.810059 0.440552 0.007721
0.844971 0.441437 0.008301
0.881348 0.436737 0.009308
0.916565 0.430176 0.010712
0.949493 0.423279 0.012329
0.981903 0.416199 0.014191
0.989960 0.424286 0.144714
0.977020 0.429535 0.246094
0.961945 0.435028 0.310028
0.961914 0.457886 0.360809
0.963196 0.481750 0.402802
0.964233 0.505035 0.438934
0.198944 0.365723 0.001068
0.233215 0.377228 0.001709
0.260468 0.384155 0.002045
0.285706 0.387970 0.002228
0.310120 0.389099 0.002319
0.335480 0.388824 0.002319
0.363373 0.388947 0.002289
0.394592 0.391296 0.002197
0.429199 0.397308 0.002106
0.465088 0.406342 0.002106
0.499847 0.416595 0.002228
0.531860 0.427582 0.002533
0.559357 0.437256 0.003082
0.583313 0.445557 0.003754
0.604889 0.451874 0.004486
0.626312 0.456726 0.005157
0.649872 0.460663 0.005737
0.676300 0.464417 0.006104
0.705292 0.467896 0.006348
0.736603 0.471344 0.006470
0.769623 0.474365 0.006531
0.804535 0.476196 0.006683
0.839905 0.477051 0.007019
0.877655 0.471252 0.007843
0.914337 0.464264 0.009125
0.948975 0.457153 0.010864
0.982361 0.449890 0.012848
0.993988 0.454712 0.138702
0.982361 0.458038 0.248657
0.967377 0.461273 0.316711
0.967316 0.482605 0.369141
0.967987 0.504486 0.411926
0.968445 0.526031 0.448578
0.229095 0.408539 0.001068
0.261932 0.420563 0.001617
0.287933 0.428009 0.001923
0.311981 0.432465 0.002136
0.335632 0.434143 0.002289
0.359863 0.434174 0.002441
0.385864 0.433868 0.002502
0.414337 0.434418 0.002502
0.445984 0.437469 0.002380
0.479706 0.443817 0.002289
0.513275 0.452026 0.002228
0.545166 0.461273 0.002350
0.573547 0.470551 0.002686
0.597717 0.479004 0.003204
0.618683 0.485992 0.003876
0.638245 0.491547 0.004608
0.658264 0.495941 0.005280
0.680695 0.499878 0.005798
0.706329 0.503540 0.006104
0.734802 0.506836 0.006226
0.765930 0.509766 0.006195
0.799561 0.511383 0.006104
0.834595 0.512207 0.006134
0.872772 0.506317 0.006531
0.910431 0.497864 0.007538
0.945618 0.490082 0.009064
0.979675 0.482330 0.011078
0.996490 0.483704 0.126556
0.986877 0.486694 0.249664
0.972382 0.487976 0.322510
0.972321 0.507812 0.377228
0.972473 0.528015 0.421356
0.972412 0.547974 0.458618
0.257446 0.449036 0.001221
0.288300 0.461395 0.001617
0.313080 0.469391 0.001801
0.335968 0.474548 0.002014
0.358887 0.477264 0.002258
0.382446 0.478333 0.002533
0.407135 0.478271 0.002716
0.433655 0.478271 0.002808
0.462555 0.479340 0.002777
0.493958 0.482849 0.002655
0.525848 0.488464 0.002533
0.557220 0.495575 0.002472
0.585968 0.503204 0.002594
0.610901 0.510773 0.002899
0.632324 0.517822 0.003448
0.651550 0.524139 0.004120
0.669861 0.529266 0.004822
0.689026 0.533661 0.005463
0.710938 0.537750 0.005951
0.736206 0.541534 0.006165
0.764648 0.544769 0.006195
0.796234 0.546509 0.006042
0.830017 0.547302 0.005798
0.867859 0.540833 0.005768
0.905060 0.531189 0.006287
0.940552 0.521942 0.007446
0.974823 0.513397 0.009155
0.997681 0.511749 0.105713
0.990448 0.515076 0.248230
0.976807 0.514923 0.327484
0.976837 0.533691 0.384979
0.976532 0.552124 0.430817
0.976135 0.570526 0.469025
0.283478 0.487213 0.001465
0.311920 0.499542 0.001648
0.335327 0.508148 0.001770
0.357239 0.514099 0.001953
0.379395 0.517883 0.002258
0.402496 0.520264 0.002655
0.426575 0.521240 0.002960
0.451752 0.521423 0.003174
0.478851 0.522064 0.003204
0.507874 0.523682 0.003143
0.538086 0.526764 0.002991
0.568359 0.531372 0.002838
0.597015 0.536987 0.002777
0.622589 0.542999 0.002869
0.644806 0.548889 0.003143
0.664459 0.555084 0.003693
0.682373 0.560730 0.004333
0.699951 0.565735 0.005005
0.718750 0.570251 0.005646
0.740631 0.574768 0.006104
0.765961 0.578644 0.006317
0.794922 0.581024 0.006256
0.826355 0.581848 0.006012
0.861237 0.575745 0.005646
0.898407 0.564880 0.005585
0.934235 0.554504 0.006195
0.968872 0.544647 0.007446
0.997528 0.539093 0.069519
0.993347 0.543488 0.243805
0.980713 0.542236 0.331299
0.980743 0.559662 0.392426
0.980225 0.576721 0.440247
0.979584 0.593658 0.479736
0.307343 0.523804 0.001709
0.333466 0.536469 0.001770
0.354889 0.545227 0.001801
0.375763 0.552002 0.001984
0.397247 0.556702 0.002350
0.419861 0.560120 0.002808
0.443420 0.562164 0.003265
0.468079 0.563385 0.003571
0.493866 0.563965 0.003723
0.521118 0.564819 0.003723
0.549652 0.566376 0.003601
0.578552 0.569092 0.003418
0.606689 0.572540 0.003204
0.632477 0.576630 0.003113
0.655457 0.580933 0.003143
0.675842 0.585785 0.003357
0.694061 0.590942 0.003845
0.711029 0.596008 0.004456
0.728058 0.600739 0.005157
0.746979 0.605652 0.005798
0.768799 0.610168 0.006287
0.793884 0.612793 0.006470
0.822327 0.613983 0.006409
0.855164 0.609497 0.006012
0.891663 0.598602 0.005554
0.927795 0.587494 0.005585
0.962799 0.576782 0.006256
0.996429 0.566772 0.008972
0.995270 0.571899 0.234985
0.983948 0.569580 0.333771
0.984009 0.585663 0.399506
0.983459 0.601532 0.449707
0.982544 0.617004 0.490540
0.328369 0.558075 0.001984
0.352142 0.570679 0.001923
0.371948 0.579956 0.001892
0.391724 0.587341 0.002106
0.412384 0.593048 0.002502
0.434448 0.597321 0.003052
0.457611 0.600372 0.003601
0.481781 0.602631 0.004028
0.507111 0.604126 0.004272
0.533356 0.605011 0.004364
0.560516 0.605957 0.004272
0.588257 0.607544 0.004089
0.615692 0.609589 0.003845
0.641388 0.611938 0.003601
0.664856 0.614624 0.003418
0.685852 0.617706 0.003387
0.704346 0.621063 0.003571
0.721130 0.625061 0.004028
0.737091 0.629272 0.004639
0.753784 0.633667 0.005341
0.772461 0.638397 0.006012
0.794250 0.641937 0.006561
0.819702 0.644073 0.006775
0.849457 0.642517 0.006622
0.884979 0.631866 0.006073
0.920898 0.620728 0.005646
0.956329 0.609406 0.005768
0.991882 0.598358 0.006500
0.996857 0.600769 0.219482
0.986755 0.597473 0.333649
0.986816 0.611786 0.405701
0.986298 0.626434 0.459015
0.985168 0.640564 0.501678
0.346680 0.590210 0.002289
0.368256 0.602661 0.002167
0.386810 0.612305 0.002136
0.405457 0.620331 0.002350
0.425293 0.626801 0.002838
0.446655 0.632019 0.003479
0.469299 0.635956 0.004120
0.492950 0.639191 0.004639
0.517853 0.641632 0.004974
0.543854 0.643280 0.005157
0.570221 0.644348 0.005127
0.596924 0.645782 0.005005
0.623535 0.646790 0.004761
0.648895 0.647949 0.004456
0.672363 0.648926 0.004150
0.693787 0.650177 0.003937
0.712891 0.651794 0.003876
0.729950 0.654175 0.004059
0.745483 0.657104 0.004517
0.760925 0.660828 0.005157
0.777557 0.665222 0.005890
0.796509 0.669128 0.006622
0.818726 0.672028 0.007172
0.845093 0.673279 0.007355
0.878601 0.664154 0.006927
0.914062 0.653473 0.006348
0.949432 0.642120 0.006012
0.985199 0.630707 0.006226
0.998352 0.630585 0.194763
0.989044 0.625580 0.330170
0.988983 0.638000 0.410248
0.988739 0.651367 0.468109
0.987579 0.664337 0.512970
0.362396 0.620239 0.002777
0.382324 0.632843 0.002655
0.399567 0.642609 0.002594
0.417206 0.651093 0.002838
0.436249 0.658203 0.003387
0.456726 0.664001 0.004120
0.478729 0.668671 0.004852
0.501709 0.672455 0.005493
0.525787 0.675415 0.005951
0.551178 0.677582 0.006195
0.577240 0.679077 0.006256
0.603149 0.680389 0.006226
0.628998 0.681396 0.006042
0.654175 0.682098 0.005798
0.677917 0.682526 0.005493
0.699890 0.682648 0.005219
0.719788 0.683014 0.005096
0.737640 0.684052 0.005127
0.753693 0.685822 0.005402
0.768616 0.688324 0.005951
0.783844 0.691925 0.006683
0.800446 0.695465 0.007446
0.819641 0.698242 0.008087
0.842407 0.701141 0.008514
0.873016 0.694122 0.008118
0.907227 0.684967 0.007568
0.942383 0.674225 0.007050
0.977417 0.662689 0.006866
0.998962 0.658661 0.152069
0.991272 0.654144 0.323151
0.990631 0.664124 0.413269
0.990753 0.676453 0.476501
0.989716 0.688171 0.524414
0.374939 0.646667 0.003571
0.393311 0.659393 0.003448
0.409576 0.669403 0.003418
0.426239 0.678162 0.003693
0.444305 0.685608 0.004272
0.464020 0.691833 0.005127
0.485260 0.697052 0.006012
0.507690 0.701538 0.006805
0.531128 0.705139 0.007385
0.555847 0.707977 0.007782
0.581451 0.709991 0.008026
0.607269 0.711731 0.008087
0.632812 0.713135 0.008118
0.657806 0.714142 0.008057
0.681915 0.714569 0.007965
0.704620 0.714630 0.007874
0.725464 0.714386 0.007843
0.744232 0.714539 0.007935
0.761047 0.715210 0.008270
0.776276 0.716461 0.008820
0.790802 0.718781 0.009552
0.805725 0.721527 0.010315
0.822235 0.723602 0.010834
0.841797 0.726166 0.011139
0.867828 0.721985 0.010345
0.900146 0.714478 0.009552
0.934784 0.705261 0.008972
0.969391 0.694489 0.008636
0.999359 0.684937 0.062103
0.993317 0.682434 0.313538
0.991882 0.689941 0.415466
0.992279 0.701263 0.484589
0.991394 0.711914 0.536133
0.385742 0.671265 0.004730
0.403107 0.684357 0.004669
0.418182 0.694489 0.004700
0.433990 0.703583 0.005005
0.451294 0.711456 0.005646
0.470245 0.718048 0.006592
0.490631 0.723602 0.007660
0.512421 0.728607 0.008667
0.535217 0.732727 0.009491
0.559235 0.736115 0.010132
0.584290 0.738770 0.010620
0.609802 0.740906 0.010986
0.635315 0.742615 0.011292
0.660217 0.744019 0.011566
0.684479 0.744873 0.011841
0.707825 0.745117 0.012207
0.729675 0.744995 0.012573
0.749451 0.744720 0.013031
0.767212 0.744843 0.013672
0.783173 0.745087 0.014496
0.797760 0.745941 0.015411
0.811829 0.747620 0.016266
0.826447 0.748535 0.016510
0.843140 0.750122 0.016510
0.864563 0.747162 0.014801
0.893219 0.740967 0.013031
0.926605 0.733612 0.012146
0.961273 0.724457 0.011688
0.994659 0.714966 0.039459
0.995453 0.711365 0.299133
0.992981 0.715393 0.416962
0.993439 0.725800 0.492889
0.992798 0.735443 0.548370
0.395386 0.694824 0.006287
0.411530 0.707764 0.006317
0.425995 0.718323 0.006378
0.440979 0.727661 0.006775
0.457520 0.735870 0.007538
0.475677 0.742706 0.008606
0.495483 0.748505 0.009857
0.516479 0.753693 0.011139
0.538696 0.758362 0.012299
0.562012 0.762085 0.013214
0.586365 0.765228 0.014069
0.611328 0.767792 0.014862
0.636658 0.769897 0.015656
0.661652 0.771515 0.016388
0.685883 0.772797 0.017212
0.709442 0.773438 0.018188
0.732086 0.773560 0.019226
0.752960 0.773407 0.020355
0.771820 0.773346 0.021606
0.788696 0.773285 0.023010
0.803955 0.773285 0.024384
0.818054 0.773865 0.025696
0.831635 0.773499 0.025848
0.846161 0.773712 0.025513
0.863647 0.771790 0.023315
0.887665 0.765228 0.019257
0.918121 0.759460 0.017273
0.952209 0.752258 0.016510
0.986755 0.744110 0.038574
0.996765 0.740051 0.270081
0.993805 0.740326 0.416748
0.994354 0.749817 0.501190
0.993927 0.758667 0.561523
0.404022 0.717285 0.008148
0.419128 0.730103 0.008331
0.432983 0.740814 0.008484
0.447357 0.750336 0.008972
0.463135 0.758789 0.009857
0.480652 0.765869 0.011108
0.499756 0.771851 0.012604
0.520264 0.777069 0.014130
0.541779 0.781860 0.015656
0.564362 0.785828 0.016998
0.588013 0.789185 0.018280
0.612488 0.792236 0.019592
0.637390 0.794678 0.020905
0.662262 0.796509 0.022278
0.686554 0.797852 0.023682
0.710175 0.798798 0.025330
0.733246 0.799103 0.027130
0.754944 0.799072 0.029022
0.774750 0.798950 0.031067
0.792603 0.798737 0.033203
0.808716 0.798309 0.035278
0.823395 0.798157 0.037170
0.836945 0.798492 0.038727
0.850189 0.797211 0.038239
0.864960 0.795471 0.036133
0.884369 0.788269 0.029785
0.910645 0.782715 0.025604
0.942505 0.777374 0.023895
0.976776 0.770813 0.033844
0.996643 0.765289 0.207977
0.994293 0.764801 0.412262
0.995026 0.773254 0.509888
0.994781 0.781281 0.575653
0.411865 0.738831 0.010315
0.426117 0.751495 0.010681
0.439423 0.762329 0.010986
0.453217 0.771942 0.011597
0.468384 0.780579 0.012634
0.485229 0.787811 0.014069
0.503693 0.793976 0.015778
0.523621 0.799377 0.017639
0.544708 0.804077 0.019531
0.566620 0.808197 0.021362
0.589508 0.811737 0.023132
0.613342 0.814880 0.024994
0.637756 0.817749 0.026947
0.662292 0.819824 0.028992
0.686493 0.821289 0.031128
0.710236 0.822266 0.033447
0.733490 0.822784 0.035980
0.755737 0.822815 0.038666
0.776337 0.822693 0.041565
0.795074 0.822357 0.044556
0.812103 0.821686 0.047394
0.827515 0.820953 0.049988
0.841461 0.820526 0.052216
0.854523 0.820648 0.054016
0.867615 0.817993 0.052277
0.883301 0.810364 0.044952
0.905060 0.804138 0.038452
0.933411 0.799469 0.035004
0.966461 0.794617 0.033966
0.993103 0.788544 0.136353
0.994232 0.788116 0.403931
0.995270 0.795929 0.517914
0.995361 0.803223 0.591278
0.419006 0.759430 0.012756
0.432556 0.771606 0.013245
0.445160 0.782074 0.013702
0.458527 0.791473 0.014404
0.473297 0.800262 0.015625
0.489624 0.807281 0.017181
0.507629 0.813507 0.019165
0.526978 0.818573 0.021240
0.547546 0.823456 0.023499
0.569092 0.827362 0.025665
0.591370 0.830963 0.027954
0.614594 0.834015 0.030273
0.638550 0.837128 0.032837
0.662628 0.839630 0.035522
0.686493 0.841309 0.038330
0.710052 0.842529 0.041412
0.733337 0.843353 0.044708
0.755798 0.843628 0.048187
0.776978 0.843414 0.051758
0.796387 0.843262 0.055664
0.814209 0.842560 0.059418
0.830383 0.841644 0.062897
0.844971 0.840851 0.066040
0.858276 0.840271 0.068695
0.870880 0.840637 0.071320
0.883850 0.832458 0.064728
0.901184 0.824341 0.056335
0.925079 0.819489 0.051331
0.955231 0.815765 0.049377
0.986725 0.812866 0.125214
0.994049 0.811737 0.393219
0.995026 0.817322 0.527924
0.995544 0.824219 0.609222
0.425659 0.779297 0.015289
0.438385 0.790497 0.015869
0.450684 0.800903 0.016510
0.463593 0.809753 0.017273
0.478058 0.818298 0.018585
0.493927 0.824982 0.020264
0.511536 0.831024 0.022430
0.530396 0.835876 0.024780
0.550476 0.840057 0.027191
0.571686 0.843811 0.029694
0.593658 0.846741 0.032196
0.616425 0.849731 0.034943
0.640167 0.851868 0.037659
0.663940 0.854431 0.040802
0.687561 0.855347 0.043732
0.710876 0.856384 0.047150
0.734070 0.856659 0.050720
0.756531 0.857056 0.054688
0.777954 0.856537 0.058594
0.797760 0.856079 0.062836
0.815857 0.855713 0.067322
0.832428 0.854675 0.071381
0.847443 0.854248 0.075562
0.861053 0.853455 0.078949
0.873657 0.853699 0.082581
0.885895 0.854340 0.086212
0.899506 0.844025 0.077606
0.918732 0.837677 0.071564
0.944611 0.834259 0.069427
0.975983 0.831604 0.073120
0.992340 0.833069 0.370880
0.994232 0.837433 0.538391
0.995361 0.844147 0.629181
0.431885 0.798431 0.017853
0.444061 0.809326 0.018646
0.455872 0.819031 0.019348
0.468536 0.827881 0.020294
0.482697 0.835754 0.021667
0.498230 0.842499 0.023499
0.515381 0.848083 0.025787
0.533813 0.852844 0.028351
0.553436 0.856567 0.031036
0.574158 0.860016 0.033783
0.595795 0.862518 0.036591
0.618164 0.864990 0.039551
0.641449 0.867004 0.042694
0.665131 0.868835 0.046051
0.688385 0.869659 0.049316
0.711517 0.869965 0.052856
0.734467 0.870178 0.056793
0.756958 0.869781 0.060852
0.778473 0.869415 0.065277
0.798767 0.867889 0.069489
0.817230 0.866913 0.074127
0.834106 0.865509 0.078491
0.849365 0.864380 0.082794
0.863220 0.863220 0.086639
0.875824 0.862488 0.090302
