src/assets/luts/ON1 Nature & Wildlife LUTs/CinematicX LUTs - 30 Free Cinematic LUTs - The Resolve Store 2022/Usabon - Rec709.cube
# Copyright: (C) Copyright 2022 The Resolve Store 
# Cannot be resold, shared or otherwise redistributed
TITLE "CinematicX (Rec.709)"
LUT_3D_SIZE 33
0.000000 0.000000 0.000000
0.009674 0.002258 0.002899
0.029663 0.008057 0.010773
0.047089 0.021118 0.024353
0.065338 0.030212 0.033020
0.086548 0.038574 0.041351
0.108521 0.046478 0.048889
0.131500 0.053436 0.054718
0.153778 0.059265 0.058624
0.177094 0.063538 0.060425
0.201630 0.066895 0.060974
0.227081 0.070740 0.061157
0.253174 0.076508 0.062897
0.279053 0.082550 0.064758
0.304413 0.088470 0.066376
0.329834 0.094360 0.067902
0.356506 0.100586 0.069550
0.383606 0.106812 0.071075
0.409393 0.113617 0.073090
0.435211 0.120239 0.075226
0.462128 0.127594 0.077515
0.489380 0.134735 0.079956
0.516113 0.142609 0.082672
0.543182 0.150391 0.085602
0.570923 0.158264 0.088776
0.599579 0.166046 0.092163
0.628510 0.174133 0.096100
0.657867 0.182159 0.100250
0.687439 0.190216 0.104523
0.717529 0.197998 0.109253
0.748413 0.205750 0.114166
0.779572 0.213379 0.118988
0.811279 0.220551 0.123749
0.000916 0.006561 0.001495
0.008636 0.010315 0.003906
0.031921 0.023590 0.013397
0.052673 0.032349 0.027802
0.074402 0.041473 0.037476
0.096619 0.049835 0.045135
0.118713 0.056946 0.051453
0.139954 0.062744 0.055878
0.162262 0.067566 0.058838
0.185089 0.071411 0.060303
0.209473 0.074951 0.060181
0.234192 0.079346 0.060944
0.260468 0.085419 0.063141
0.286560 0.091187 0.065033
0.312012 0.096924 0.066650
0.337646 0.103180 0.067963
0.363556 0.109528 0.069519
0.389648 0.116089 0.071259
0.415649 0.122711 0.073212
0.441925 0.130066 0.075409
0.468384 0.137390 0.077637
0.494965 0.144958 0.080139
0.521820 0.152710 0.082886
0.549194 0.160889 0.085968
0.577118 0.168976 0.088989
0.605286 0.176849 0.092499
0.634064 0.185059 0.096191
0.663147 0.193085 0.100281
0.692810 0.201172 0.104736
0.722900 0.209076 0.109283
0.753510 0.216888 0.113953
0.784637 0.224457 0.118561
0.816772 0.231201 0.123322
0.004883 0.026123 0.006470
0.017944 0.029724 0.010010
0.031433 0.032349 0.014069
0.051788 0.040375 0.026001
0.076111 0.050659 0.036804
0.101410 0.060486 0.046326
0.124329 0.067505 0.052002
0.146088 0.072540 0.055908
0.168396 0.076843 0.058411
0.191528 0.080750 0.059143
0.216003 0.084564 0.059235
0.241150 0.089417 0.060608
0.266907 0.095306 0.062744
0.292694 0.101196 0.064331
0.318146 0.107178 0.066071
0.343781 0.113190 0.067719
0.369446 0.119568 0.069153
0.395386 0.126556 0.071075
0.421631 0.133636 0.073090
0.447876 0.140747 0.075287
0.473938 0.148407 0.077606
0.500366 0.156189 0.080109
0.527435 0.163849 0.082825
0.554901 0.172119 0.085907
0.582703 0.180267 0.089111
0.610779 0.188354 0.092468
0.639374 0.196503 0.096283
0.668396 0.204620 0.100525
0.698273 0.212585 0.104919
0.728424 0.220490 0.109314
0.758911 0.228180 0.113892
0.789978 0.235779 0.118530
0.821594 0.243164 0.123138
0.013916 0.040985 0.014893
0.027344 0.043823 0.018250
0.037567 0.046204 0.021362
0.051514 0.049316 0.024536
0.074310 0.058136 0.033203
0.101898 0.069427 0.044647
0.127686 0.078186 0.051880
0.150909 0.083801 0.055359
0.174133 0.088318 0.056885
0.198029 0.092316 0.057251
0.222870 0.096710 0.057343
0.248199 0.102264 0.059174
0.273773 0.107605 0.061493
0.299255 0.113525 0.063171
0.324677 0.119720 0.065033
0.350555 0.125824 0.066772
0.376129 0.132446 0.068420
0.401917 0.139282 0.070343
0.428009 0.146423 0.072388
0.454193 0.153595 0.074738
0.480194 0.161316 0.077026
0.506805 0.168945 0.079559
0.533630 0.176819 0.082550
0.561127 0.184998 0.085602
0.588928 0.193054 0.088745
0.617065 0.200928 0.092163
0.645416 0.209106 0.096130
0.674286 0.217316 0.100342
0.704071 0.225128 0.104706
0.734222 0.232758 0.109375
0.764648 0.240570 0.113708
0.795593 0.248138 0.118195
0.827423 0.255157 0.122864
0.024841 0.057465 0.024323
0.034332 0.059601 0.024872
0.043671 0.061432 0.025452
0.055542 0.062561 0.025604
0.072510 0.066223 0.028870
0.097687 0.075256 0.039246
0.126526 0.087158 0.049927
0.153748 0.095825 0.053864
0.179047 0.101685 0.055084
0.204132 0.106201 0.054810
0.229492 0.111206 0.055298
0.255310 0.117096 0.057556
0.281128 0.122650 0.059784
0.306732 0.128571 0.061554
0.332306 0.134705 0.063477
0.357758 0.140930 0.065277
0.383362 0.147552 0.067230
0.409088 0.154388 0.068939
0.435089 0.161469 0.071228
0.461060 0.168762 0.073669
0.487213 0.176239 0.076141
0.513763 0.183624 0.078735
0.540619 0.191467 0.081757
0.567993 0.199493 0.084778
0.595764 0.207397 0.087952
0.623566 0.215302 0.091675
0.651978 0.223022 0.095703
0.681061 0.230743 0.099884
0.710480 0.238800 0.104309
0.740387 0.246613 0.108826
0.770721 0.254303 0.113251
0.802246 0.261047 0.117889
0.833618 0.268280 0.122284
0.029205 0.074036 0.028320
0.038177 0.075470 0.028198
0.048065 0.075653 0.027374
0.060760 0.075806 0.026611
0.074402 0.076569 0.026520
0.093719 0.082031 0.032501
0.121887 0.093109 0.043884
0.153625 0.106354 0.051727
0.182312 0.115845 0.053467
0.208740 0.121948 0.052216
0.234863 0.127960 0.052612
0.260956 0.134460 0.054413
0.287628 0.140137 0.056793
0.314087 0.145905 0.058838
0.339661 0.152100 0.060974
0.365509 0.158264 0.062897
0.390991 0.164642 0.064972
0.416748 0.171234 0.067200
0.442566 0.178253 0.069183
0.468475 0.185577 0.071869
0.494720 0.193054 0.074524
0.521118 0.200500 0.077454
0.548035 0.207977 0.080383
0.575195 0.215729 0.083496
0.602783 0.223267 0.086914
0.630737 0.230927 0.090912
0.659210 0.238403 0.095001
0.687775 0.246368 0.099091
0.717621 0.253662 0.103729
0.747406 0.261139 0.108032
0.777802 0.268555 0.112427
0.808685 0.275696 0.116943
0.840302 0.282379 0.121490
0.036011 0.089691 0.032990
0.045135 0.090271 0.031525
0.054199 0.090546 0.030212
0.064880 0.090485 0.028503
0.076843 0.090454 0.027069
0.092255 0.091339 0.027344
0.117401 0.099701 0.035919
0.150116 0.113922 0.045868
0.184662 0.129364 0.051971
0.214752 0.140167 0.051788
0.240814 0.146667 0.050659
0.267303 0.153595 0.051605
0.293762 0.160126 0.053253
0.320465 0.166107 0.055450
0.346619 0.172089 0.057709
0.371918 0.178223 0.059723
0.397919 0.184204 0.061737
0.423920 0.190613 0.064270
0.450195 0.197296 0.066895
0.476532 0.204102 0.069458
0.502777 0.211212 0.072479
0.529266 0.218353 0.075562
0.555969 0.225769 0.078583
0.583069 0.233154 0.081848
0.610565 0.240540 0.085541
0.638123 0.248077 0.089478
0.666504 0.255463 0.093689
0.695251 0.262970 0.097961
0.724884 0.270081 0.102325
0.754639 0.277313 0.106812
0.785034 0.284302 0.111206
0.815948 0.291016 0.115570
0.847107 0.297760 0.119965
0.040771 0.107361 0.036255
0.049561 0.107483 0.034912
0.058411 0.107239 0.033478
0.068970 0.107056 0.031830
0.080505 0.106567 0.029755
0.094177 0.105316 0.026642
0.113464 0.108124 0.027466
0.144257 0.120148 0.036102
0.182159 0.138428 0.044464
0.218597 0.156097 0.048828
0.247345 0.166229 0.049438
0.274109 0.174133 0.049500
0.300354 0.181274 0.049927
0.326691 0.187866 0.051331
0.352692 0.193970 0.053284
0.378326 0.199921 0.055328
0.404114 0.205963 0.057495
0.430695 0.211945 0.060333
0.457367 0.218018 0.063293
0.483887 0.224396 0.066467
0.510498 0.231018 0.069458
0.537231 0.237762 0.072723
0.563873 0.244751 0.076050
0.591064 0.251770 0.079712
0.618561 0.258942 0.083740
0.646271 0.266144 0.087769
0.674347 0.273438 0.091980
0.703125 0.280548 0.096222
0.732391 0.287506 0.100647
0.762177 0.294464 0.104980
0.792542 0.301086 0.109375
0.823547 0.307281 0.113831
0.856964 0.312256 0.115356
0.044373 0.127106 0.039307
0.052795 0.126923 0.038361
0.062225 0.126312 0.036713
0.072388 0.126038 0.034729
0.084381 0.125244 0.032501
0.097931 0.123291 0.027557
0.112885 0.121002 0.023041
0.138947 0.127716 0.025940
0.176178 0.144745 0.033447
0.216797 0.166107 0.040375
0.253235 0.184387 0.046814
0.282928 0.195801 0.048340
0.309021 0.203583 0.048187
0.334351 0.210663 0.047821
0.359619 0.217163 0.048645
0.385315 0.223114 0.050720
0.410614 0.229126 0.052917
0.437012 0.234802 0.055695
0.463837 0.240387 0.059052
0.490692 0.246399 0.062286
0.517334 0.252716 0.065338
0.544342 0.258820 0.069000
0.571442 0.265198 0.072998
0.598724 0.271912 0.077087
0.626434 0.278564 0.081146
0.654388 0.285309 0.085419
0.682556 0.292114 0.089813
0.711456 0.298737 0.094086
0.740662 0.305573 0.098450
0.770538 0.312042 0.102936
0.800812 0.318298 0.107208
0.831207 0.324493 0.111572
0.866425 0.328247 0.110443
0.047943 0.150024 0.043915
0.057007 0.149536 0.041962
0.066101 0.148895 0.039551
0.076813 0.148468 0.036774
0.089233 0.147430 0.033905
0.103577 0.145355 0.029480
0.117767 0.141541 0.024261
0.136871 0.140808 0.018433
0.168457 0.151978 0.019531
0.210449 0.172913 0.024445
0.255096 0.198425 0.038666
0.292633 0.218048 0.047699
0.320557 0.228210 0.047882
0.344452 0.234619 0.045532
0.368439 0.241180 0.045135
0.393188 0.247345 0.045868
0.418274 0.253204 0.047668
0.443634 0.258850 0.049927
0.470032 0.264404 0.053040
0.496826 0.269958 0.056763
0.523834 0.275635 0.060547
0.550690 0.281372 0.064514
0.578094 0.287292 0.068787
0.606018 0.293274 0.073334
0.633881 0.299438 0.077728
0.662109 0.305664 0.082153
0.690643 0.311829 0.086670
0.719391 0.318237 0.091125
0.749146 0.324371 0.095612
0.779205 0.330444 0.100067
0.809265 0.336334 0.104462
0.839661 0.342285 0.108795
0.877136 0.344421 0.105133
0.056732 0.175720 0.046143
0.063690 0.175690 0.044250
0.073212 0.175232 0.041992
0.083954 0.174744 0.039307
0.096619 0.173615 0.035156
0.110504 0.171295 0.029694
0.125427 0.166687 0.021851
0.142029 0.162476 0.009552
0.166138 0.165222 0.005707
0.204620 0.181885 0.003967
0.249268 0.205719 0.017883
0.296112 0.233948 0.039124
0.330658 0.251190 0.045685
0.356079 0.260010 0.044739
0.379578 0.266602 0.042938
0.402588 0.273010 0.041901
0.426453 0.278900 0.042389
0.451202 0.284393 0.044128
0.476532 0.289734 0.046967
0.502563 0.294861 0.050629
0.529602 0.300018 0.054810
0.556305 0.305389 0.058929
0.583954 0.310699 0.063416
0.612122 0.316223 0.068298
0.640686 0.321686 0.073090
0.669250 0.327332 0.077759
0.698059 0.333038 0.082489
0.727356 0.338745 0.087189
0.757324 0.344360 0.091888
0.787354 0.350067 0.096497
0.817749 0.355408 0.101044
0.848236 0.360840 0.105347
0.886749 0.362061 0.099060
0.066376 0.203400 0.048279
0.073822 0.203247 0.045868
0.082550 0.203033 0.043365
0.093414 0.203003 0.040161
0.107513 0.202087 0.034729
0.121887 0.200531 0.028717
0.137421 0.196289 0.017365
0.153076 0.190125 0.004456
0.173889 0.188538 0.000641
0.206299 0.198395 0.000031
0.247742 0.218201 0.001556
0.293274 0.243774 0.019073
0.335052 0.268250 0.036957
0.368317 0.285339 0.044678
0.393188 0.294037 0.043945
0.414032 0.299377 0.040741
0.435852 0.305115 0.039276
0.459137 0.310638 0.039764
0.483459 0.315796 0.041595
0.508820 0.320740 0.044220
0.535187 0.325562 0.047852
0.561951 0.330292 0.052307
0.589508 0.335144 0.056854
0.617920 0.340057 0.061951
0.646576 0.345154 0.067047
0.675476 0.350128 0.072052
0.704773 0.355194 0.077301
0.734589 0.360352 0.082336
0.764801 0.365479 0.087219
0.795258 0.370514 0.091888
0.825745 0.375458 0.096466
0.858124 0.379669 0.098541
0.894653 0.381012 0.091431
0.081787 0.231506 0.049591
0.088776 0.231750 0.047546
0.096558 0.231934 0.044952
0.108551 0.231659 0.040710
0.121552 0.231110 0.035736
0.136505 0.229553 0.027771
0.152100 0.226135 0.013123
0.167664 0.220642 0.002655
0.185394 0.215637 0.000031
0.213226 0.221252 0.000000
0.249329 0.235168 0.000000
0.290131 0.255249 0.001404
0.332214 0.279083 0.021637
0.371948 0.302643 0.038849
0.404999 0.320404 0.047424
0.427155 0.326874 0.043945
0.447418 0.332306 0.040253
0.468414 0.337524 0.037994
0.490997 0.342468 0.037476
0.515503 0.347198 0.039032
0.540985 0.351715 0.041687
0.567719 0.356110 0.045044
0.595032 0.360413 0.049438
0.622986 0.364838 0.054535
0.652039 0.369263 0.060089
0.681061 0.373901 0.065186
0.710754 0.378418 0.070770
0.740936 0.382996 0.076050
0.771637 0.387604 0.081268
0.802460 0.392090 0.086212
0.833282 0.396515 0.091003
0.867004 0.399841 0.091553
0.902283 0.401184 0.084229
0.101868 0.260864 0.052582
0.107208 0.261383 0.051056
0.116150 0.261444 0.048187
0.126251 0.261536 0.045013
0.138794 0.261261 0.040375
0.153809 0.260223 0.032959
0.169830 0.257263 0.020752
0.184937 0.252502 0.004242
0.199432 0.245331 0.000000
0.222809 0.246643 0.000000
0.254974 0.256622 0.000000
0.291229 0.272064 0.000000
0.328766 0.290710 0.003418
0.368652 0.313385 0.025299
0.407928 0.337463 0.044128
0.438354 0.353302 0.051331
0.460724 0.360229 0.047516
0.479828 0.364502 0.041718
0.499969 0.369324 0.037598
0.522552 0.373932 0.035278
0.547302 0.378326 0.036438
0.573273 0.382507 0.038635
0.600372 0.386475 0.041870
0.628357 0.390472 0.046112
0.656891 0.394409 0.051514
0.686340 0.398438 0.057007
0.715973 0.402557 0.062653
0.746643 0.406586 0.068359
0.777710 0.410614 0.073944
0.808838 0.414673 0.079315
0.840027 0.418640 0.084381
0.874817 0.421204 0.084015
0.909424 0.422363 0.076233
0.123749 0.290619 0.056732
0.129364 0.291107 0.055542
0.137787 0.291138 0.053558
0.147095 0.291321 0.050903
0.159576 0.290924 0.046295
0.172760 0.290161 0.040863
0.188324 0.287781 0.032043
0.203735 0.283905 0.016754
0.218292 0.277527 0.001190
0.236237 0.274353 0.000000
0.263062 0.280151 0.000000
0.296173 0.292725 0.000000
0.330261 0.307709 0.000610
0.365845 0.325714 0.011475
0.402802 0.347260 0.034149
0.437286 0.367554 0.046631
0.466736 0.382629 0.052063
0.491058 0.391632 0.050598
0.511505 0.396973 0.044739
0.531281 0.401093 0.038177
0.553802 0.405243 0.034424
0.578949 0.409363 0.033844
0.605347 0.413147 0.035156
0.632904 0.416779 0.037903
0.661499 0.420349 0.041718
0.691071 0.423828 0.047180
0.721100 0.427338 0.053040
0.751801 0.430908 0.058960
0.782990 0.434540 0.064941
0.814453 0.438110 0.070770
0.846130 0.441559 0.076324
0.881104 0.443817 0.075623
0.914703 0.445160 0.069031
0.148102 0.320099 0.064545
0.152863 0.320435 0.063324
0.161011 0.320526 0.061829
0.169556 0.320557 0.059875
0.180786 0.320404 0.056396
0.193970 0.319580 0.051300
0.208344 0.317657 0.043213
0.223267 0.314453 0.031586
0.237457 0.308655 0.009277
0.254181 0.305389 0.000427
0.276184 0.307373 0.000000
0.304169 0.315826 0.000000
0.335052 0.327545 0.000671
0.366241 0.341400 0.009155
0.398834 0.358337 0.028809
0.432678 0.377686 0.041931
0.465942 0.396973 0.051544
0.495667 0.412567 0.055084
0.521698 0.422974 0.053925
0.542480 0.428375 0.046295
0.562378 0.432251 0.038055
0.585358 0.436249 0.032806
0.610565 0.440033 0.030457
0.637451 0.443481 0.030365
0.665710 0.446808 0.032745
0.695221 0.449921 0.036407
0.725464 0.453064 0.041504
0.756348 0.456177 0.047760
0.787689 0.459320 0.054230
0.819397 0.462372 0.060577
0.851501 0.465454 0.066040
0.886292 0.467407 0.065277
0.919464 0.468872 0.060699
0.174866 0.348511 0.072876
0.178772 0.348907 0.072357
0.184845 0.349091 0.070740
0.193085 0.349091 0.069061
0.204163 0.348663 0.065948
0.216339 0.347870 0.061615
0.229919 0.346100 0.055939
0.243652 0.343170 0.048248
0.257446 0.338776 0.036346
0.271729 0.334198 0.022247
0.289337 0.333344 0.007141
0.313995 0.339478 0.007294
0.341370 0.348663 0.013550
0.368958 0.359344 0.025696
0.397949 0.372375 0.035522
0.428314 0.388336 0.044495
0.459900 0.406372 0.052460
0.491882 0.425018 0.058350
0.523285 0.441864 0.061279
0.550964 0.453247 0.057007
0.572388 0.458954 0.047821
0.593231 0.463043 0.037964
0.616669 0.466736 0.030731
0.642395 0.470215 0.026459
0.669891 0.473480 0.024841
0.699097 0.476471 0.026001
0.729279 0.479340 0.029175
0.760223 0.482086 0.034576
0.791565 0.484863 0.040863
0.823517 0.487549 0.048004
0.856384 0.490173 0.054016
0.890930 0.491943 0.053345
0.924225 0.493286 0.050201
0.201294 0.375885 0.084320
0.205139 0.376251 0.083984
0.210663 0.376251 0.083344
0.218353 0.376099 0.081848
0.227051 0.376129 0.080353
0.238495 0.375183 0.077148
0.251831 0.373352 0.072693
0.265045 0.370911 0.067383
0.277313 0.367065 0.059204
0.290497 0.362915 0.051208
0.305206 0.359558 0.042267
0.324493 0.362030 0.039764
0.348022 0.369202 0.044464
0.373199 0.378174 0.047913
0.399841 0.389221 0.053528
0.426910 0.401917 0.058105
0.455139 0.416748 0.060516
0.485413 0.433960 0.062653
0.517456 0.452515 0.067200
0.549866 0.470093 0.068481
0.578918 0.482513 0.062866
0.602325 0.489105 0.050751
0.623993 0.493103 0.038544
0.648193 0.496735 0.028717
0.674622 0.500092 0.021881
0.703033 0.503143 0.015198
0.732819 0.506012 0.014618
0.763580 0.508606 0.018524
0.795197 0.511017 0.024994
0.827393 0.513336 0.032166
0.860443 0.515656 0.039307
0.895386 0.517151 0.038696
0.928375 0.518616 0.036499
0.228668 0.402374 0.098114
0.232117 0.402466 0.097778
0.236450 0.402466 0.097809
0.243469 0.402252 0.097382
0.251648 0.401947 0.097015
0.261536 0.401001 0.095886
0.273438 0.399292 0.093719
0.284851 0.397247 0.091064
0.296844 0.393585 0.086182
0.308716 0.389587 0.080811
0.320160 0.385132 0.072754
0.336761 0.385681 0.069702
0.355927 0.389618 0.069885
0.378235 0.396454 0.071930
0.401855 0.405792 0.074066
0.426514 0.416840 0.075806
0.452515 0.429474 0.077057
0.480469 0.444214 0.077637
0.510193 0.460938 0.076294
0.542572 0.479492 0.076294
0.574982 0.496613 0.074371
0.604553 0.509369 0.066711
0.630798 0.517700 0.053284
0.654968 0.523193 0.039429
0.679871 0.526428 0.025513
0.707306 0.529785 0.011719
0.736237 0.532776 0.005615
0.766876 0.535370 0.003845
0.798401 0.537659 0.004883
0.830750 0.539795 0.008606
0.864044 0.541656 0.018066
0.899170 0.543030 0.017181
0.932190 0.544464 0.015015
0.254700 0.426788 0.119202
0.257507 0.426819 0.118988
0.261444 0.426819 0.119263
0.267700 0.426605 0.119080
0.275604 0.425964 0.118988
0.284271 0.425110 0.118317
0.293762 0.424072 0.117584
0.305054 0.421539 0.115082
0.315552 0.419006 0.112732
0.326080 0.415588 0.109070
0.337219 0.410645 0.102112
0.349487 0.408600 0.097717
0.365173 0.410034 0.096222
0.384430 0.415527 0.097198
0.405334 0.423004 0.097900
0.427582 0.432129 0.097626
0.452087 0.443726 0.096954
0.478149 0.456818 0.095459
0.505554 0.471283 0.093170
0.535675 0.488281 0.089417
0.567444 0.505920 0.085724
0.599396 0.522400 0.078766
0.630463 0.536163 0.069702
0.660034 0.546448 0.055939
0.686432 0.552704 0.038666
0.712341 0.556122 0.020905
0.740540 0.559265 0.004150
0.770477 0.562042 0.000427
0.801727 0.564484 0.000031
0.834167 0.566559 0.000031
0.867279 0.568481 0.000366
0.902466 0.569580 0.000031
0.935547 0.571014 0.000183
0.280121 0.450256 0.141510
0.282745 0.450165 0.141754
0.285156 0.450348 0.141937
0.292114 0.449799 0.141815
0.298096 0.449341 0.141876
0.305603 0.448578 0.141815
0.314850 0.447357 0.141388
0.324005 0.445465 0.139984
0.334503 0.442841 0.137848
0.343842 0.439697 0.134705
0.353302 0.435883 0.130157
0.363617 0.432129 0.124786
0.376678 0.431915 0.121796
0.391724 0.433807 0.119843
0.410248 0.440186 0.120850
0.430786 0.448364 0.121063
0.452820 0.457581 0.119385
0.476776 0.469391 0.117706
0.503326 0.483215 0.114105
0.531433 0.498230 0.108124
0.561127 0.514832 0.100739
0.592621 0.532135 0.094025
0.625305 0.548859 0.084778
0.658356 0.563721 0.073090
0.690186 0.575134 0.056854
0.718475 0.581696 0.036652
0.745758 0.585358 0.010559
0.774689 0.588470 0.000183
0.805511 0.591278 0.000000
0.837372 0.593719 0.000000
0.870392 0.595673 0.000000
0.905548 0.596802 0.000000
0.938568 0.598145 0.000000
0.304047 0.472412 0.163666
0.306427 0.472321 0.164001
0.308594 0.472473 0.164246
0.313843 0.472107 0.164337
0.319214 0.471588 0.164337
0.326660 0.470490 0.164062
0.334808 0.469513 0.163483
0.343323 0.467804 0.162231
0.351929 0.466217 0.161377
0.361237 0.462921 0.158691
0.370209 0.459320 0.154999
0.379181 0.455841 0.150085
0.389191 0.453735 0.146179
0.401459 0.454224 0.143799
0.417023 0.457672 0.142792
0.435486 0.464630 0.142975
0.455994 0.473328 0.141815
0.477692 0.482666 0.139313
0.502014 0.495056 0.136230
0.528687 0.509308 0.130981
0.557007 0.524811 0.122223
0.587250 0.541656 0.110565
0.618866 0.558716 0.100861
0.652496 0.575500 0.089142
0.687805 0.591766 0.074860
0.721527 0.603943 0.056305
0.751038 0.610382 0.032043
0.779633 0.614441 0.002563
0.809723 0.617828 0.000000
0.841125 0.620728 0.000000
0.873871 0.622955 0.000000
0.908752 0.624390 0.000000
0.941528 0.625885 0.000000
0.326630 0.493805 0.185150
0.328827 0.493805 0.185455
0.331207 0.493805 0.185730
0.335663 0.493378 0.185791
0.340485 0.492859 0.185883
0.347015 0.491882 0.185638
0.353821 0.491150 0.185333
0.361877 0.489441 0.184387
0.370087 0.487823 0.183289
0.378265 0.485504 0.181488
0.386597 0.482605 0.178528
0.394928 0.479248 0.174957
0.403503 0.476318 0.170837
0.413574 0.475281 0.167358
0.425110 0.475616 0.164215
0.441742 0.481354 0.163635
0.460144 0.488586 0.162811
0.480652 0.497986 0.160522
0.502380 0.508087 0.156525
0.526703 0.520660 0.150848
0.553619 0.535461 0.143463
0.582825 0.551758 0.132599
0.614136 0.569000 0.118896
0.646423 0.586121 0.105865
0.680511 0.602539 0.091461
0.718414 0.619965 0.076141
0.753845 0.632690 0.054596
0.784241 0.639069 0.023987
0.814362 0.643799 0.000000
0.845337 0.647491 0.000000
0.878021 0.650177 0.000000
0.912445 0.652039 0.000000
0.944519 0.653748 0.000000
0.349182 0.514343 0.206451
0.350342 0.514465 0.206635
0.352386 0.514496 0.206970
0.355865 0.514221 0.207062
0.360748 0.513428 0.206940
0.366852 0.512421 0.206726
0.372498 0.511871 0.206787
0.379639 0.510651 0.206116
0.387390 0.508942 0.204987
0.395233 0.507172 0.203583
0.402985 0.504486 0.201019
0.410553 0.502228 0.198792
0.418274 0.499359 0.194916
0.426208 0.496643 0.190155
0.436768 0.496979 0.186371
0.447723 0.497742 0.181488
0.464905 0.504913 0.180786
0.483582 0.512695 0.178406
0.504242 0.522644 0.174805
0.526337 0.533356 0.169312
0.551025 0.546387 0.161896
0.578979 0.562073 0.152985
0.609344 0.578918 0.140442
0.641479 0.596527 0.125275
0.675110 0.614227 0.110748
0.710602 0.630829 0.094177
0.748199 0.647125 0.074493
0.784851 0.660309 0.049347
0.818695 0.668610 0.008636
0.849945 0.673676 0.000000
0.882599 0.677124 0.000000
0.916412 0.679504 0.000000
0.947998 0.681671 0.000000
0.368774 0.534210 0.226959
0.370361 0.534180 0.227234
0.372131 0.534149 0.227386
0.374878 0.533875 0.227478
0.379486 0.533112 0.227142
0.383392 0.532806 0.227173
0.390045 0.531799 0.226501
0.396179 0.530884 0.225830
0.402710 0.529785 0.224762
0.409821 0.528595 0.223541
0.417053 0.526703 0.221344
0.424744 0.524506 0.218658
0.431976 0.522736 0.215637
0.439636 0.520416 0.210876
0.447601 0.518402 0.205627
0.457367 0.518738 0.200653
0.470032 0.521545 0.196564
0.487885 0.529266 0.194641
0.506287 0.537231 0.191162
0.527710 0.547852 0.186523
0.550507 0.559540 0.180206
0.576233 0.573181 0.170959
0.605255 0.589447 0.160309
0.636658 0.606842 0.146912
0.670197 0.625000 0.131165
0.705322 0.642944 0.114990
0.742432 0.660065 0.096222
0.780365 0.675720 0.072723
0.817444 0.688690 0.041901
0.853577 0.698120 0.000458
0.887939 0.703400 0.000000
0.921021 0.706665 0.000000
0.951324 0.709503 0.000000
0.383392 0.555695 0.245056
0.385040 0.555603 0.245087
0.386688 0.555573 0.245178
0.389191 0.555573 0.245300
0.394135 0.554871 0.244995
0.397797 0.554657 0.244751
0.403778 0.553772 0.243958
0.409760 0.553162 0.243439
0.416321 0.552185 0.242554
0.423218 0.551056 0.241211
0.429962 0.550049 0.240112
0.437561 0.548279 0.237488
0.445190 0.546570 0.234406
0.452728 0.545074 0.230743
0.460144 0.542969 0.225494
0.468292 0.541321 0.219360
0.479950 0.543335 0.214569
0.492554 0.546082 0.209473
0.510254 0.553925 0.206146
0.529358 0.562561 0.201996
0.551788 0.574066 0.196564
0.575806 0.586304 0.188934
0.602509 0.600433 0.178223
0.632660 0.617340 0.166901
0.665680 0.635529 0.152863
0.700714 0.654022 0.135956
0.737366 0.672180 0.118225
0.774963 0.689117 0.096619
0.813202 0.704681 0.069427
0.851471 0.717926 0.033478
0.890930 0.727295 0.000000
0.925812 0.732635 0.000000
0.954529 0.736450 0.000000
0.395538 0.578979 0.261475
0.397369 0.578644 0.261475
0.399414 0.578339 0.261444
0.401794 0.578217 0.261353
0.406860 0.577576 0.260925
0.410553 0.577423 0.260864
0.416138 0.576782 0.260376
0.421722 0.576202 0.259766
0.428101 0.575531 0.259003
0.435181 0.574707 0.258148
0.442352 0.573517 0.256409
0.449799 0.572601 0.254486
0.457672 0.571167 0.251404
0.465149 0.569946 0.247986
0.472992 0.568390 0.243561
0.480927 0.566895 0.237457
0.489563 0.565674 0.230682
0.501434 0.567871 0.225372
0.514862 0.571381 0.220093
0.532745 0.579193 0.215759
0.553619 0.589203 0.211304
0.577118 0.601227 0.204834
0.602142 0.613983 0.196320
0.629822 0.628601 0.185455
0.661774 0.646393 0.173035
