src/assets/luts/ON1 Nature & Wildlife LUTs/CinematicX LUTs - 30 Free Cinematic LUTs - The Resolve Store 2022/Usabon - Rec709.cube
# Copyright: (C) Copyright 2022 The Resolve Store 
# Cannot be resold, shared or otherwise redistributed
TITLE "CinematicX (Rec.709)"
LUT_3D_SIZE 5
0.000000 0.000000 0.000000
0.153778 0.059265 0.058624
0.356506 0.100586 0.069550
0.570923 0.158264 0.088776
0.811279 0.220551 0.123749
0.044373 0.127106 0.039307
0.176178 0.144745 0.033447
0.410614 0.229126 0.052917
0.626434 0.278564 0.081146
0.866425 0.328247 0.110443
0.174866 0.348511 0.072876
0.257446 0.338776 0.036346
0.459900 0.406372 0.052460
0.669891 0.473480 0.024841
0.924225 0.493286 0.050201
0.368774 0.534210 0.226959
0.402710 0.529785 0.224762
0.470032 0.521545 0.196564
0.670197 0.625000 0.131165
0.951324 0.709503 0.000000
0.413483 0.731537 0.312012
0.471436 0.730438 0.311584
0.554047 0.733643 0.301605
0.675049 0.751099 0.260895
0.876770 0.821442 0.389221
0.018768 0.033691 0.094208
0.125488 0.049561 0.136292
0.313110 0.074768 0.143768
0.516876 0.107635 0.157990
0.755524 0.149323 0.183594
0.016357 0.138794 0.162933
0.159576 0.165070 0.183838
0.415802 0.224823 0.200439
0.630737 0.259766 0.213135
0.879364 0.286224 0.209656
0.053864 0.363770 0.180573
0.216248 0.380859 0.193054
0.418823 0.386108 0.184967
0.679932 0.472534 0.183960
0.945282 0.488129 0.157532
0.260956 0.546234 0.232971
0.342865 0.549164 0.238770
0.450562 0.529938 0.224823
0.656616 0.619904 0.163727
0.959747 0.709625 0.060547
0.381592 0.733246 0.362457
0.448517 0.735413 0.364838
0.542297 0.737885 0.366852
0.657196 0.744568 0.340515
0.873993 0.821777 0.453735
0.027985 0.063751 0.222778
0.064270 0.070312 0.288116
0.260132 0.072876 0.254639
0.422668 0.103455 0.282990
0.661713 0.150696 0.355225
0.030731 0.157990 0.291046
0.064758 0.181305 0.337585
0.360229 0.196625 0.360504
0.543549 0.203888 0.376190
0.786713 0.321442 0.452759
0.072754 0.364716 0.381134
0.133575 0.398529 0.410339
0.434540 0.457855 0.472015
0.651794 0.485443 0.466248
0.914368 0.514954 0.478973
0.214813 0.572021 0.461273
0.316223 0.594360 0.461700
0.475891 0.590454 0.468079
0.610291 0.595459 0.448914
0.951294 0.718048 0.445709
0.300293 0.743408 0.486908
0.401581 0.752197 0.488708
0.528534 0.755096 0.498322
0.644958 0.744202 0.496887
0.894165 0.843048 0.426666
0.048035 0.111450 0.321594
0.060547 0.132782 0.378418
0.255035 0.150482 0.434448
0.403503 0.138031 0.386322
0.569275 0.198822 0.469299
0.051880 0.203278 0.372101
0.064972 0.224762 0.417358
0.297546 0.288055 0.490173
0.481384 0.239929 0.474457
0.654449 0.355682 0.564880
0.098663 0.406769 0.502991
0.143066 0.425201 0.540588
0.353271 0.453217 0.545685
0.590485 0.505096 0.618866
0.785583 0.535828 0.669525
0.219910 0.574585 0.576233
0.229492 0.581055 0.582306
0.425140 0.619202 0.610931
0.633850 0.658722 0.676117
0.912201 0.726318 0.724792
0.282593 0.734619 0.643646
0.393372 0.749664 0.657349
0.516876 0.778198 0.678925
0.653992 0.796753 0.677673
0.879395 0.836792 0.681274
0.070251 0.193146 0.421844
0.089142 0.219299 0.462311
0.246246 0.282288 0.520142
0.468811 0.318604 0.574768
0.566132 0.317932 0.566010
0.082611 0.273895 0.471771
0.102234 0.295044 0.505615
0.270294 0.347260 0.551453
0.505981 0.410034 0.630859
0.617188 0.424530 0.628113
0.159454 0.451294 0.596863
0.175995 0.462402 0.614441
0.321350 0.490631 0.647491
0.550201 0.543182 0.712433
0.714905 0.562469 0.737366
0.225372 0.623688 0.698883
0.240143 0.631775 0.718994
0.429474 0.651794 0.743805
0.564117 0.667114 0.780975
0.810516 0.704132 0.837799
0.230072 0.759857 0.768829
0.374359 0.769348 0.775085
0.479340 0.794128 0.803986
0.615173 0.829315 0.854584
0.877869 0.847351 0.892151
