src/assets/luts/ON1 Nature & Wildlife LUTs/CinematicX LUTs - 30 Free Cinematic LUTs - The Resolve Store 2022/Usabon - Rec709.cube
# Copyright: (C) Copyright 2022 The Resolve Store 
# Cannot be resold, shared or otherwise redistributed
TITLE "CinematicX (Rec.709)"
LUT_3D_SIZE 9
0.000000 0.000000 0.000000
0.065338 0.030212 0.033020
0.153778 0.059265 0.058624
0.253174 0.076508 0.062897
0.356506 0.100586 0.069550
0.462128 0.127594 0.077515
0.570923 0.158264 0.088776
0.687439 0.190216 0.104523
0.811279 0.220551 0.123749
0.024841 0.057465 0.024323
0.072510 0.066223 0.028870
0.179047 0.101685 0.055084
0.281128 0.122650 0.059784
0.383362 0.147552 0.067230
0.487213 0.176239 0.076141
0.595764 0.207397 0.087952
0.710480 0.238800 0.104309
0.833618 0.268280 0.122284
0.044373 0.127106 0.039307
0.084381 0.125244 0.032501
0.176178 0.144745 0.033447
0.309021 0.203583 0.048187
0.410614 0.229126 0.052917
0.517334 0.252716 0.065338
0.626434 0.278564 0.081146
0.740662 0.305573 0.098450
0.866425 0.328247 0.110443
0.081787 0.231506 0.049591
0.121552 0.231110 0.035736
0.185394 0.215637 0.000031
0.332214 0.279083 0.021637
0.447418 0.332306 0.040253
0.540985 0.351715 0.041687
0.652039 0.369263 0.060089
0.771637 0.387604 0.081268
0.902283 0.401184 0.084229
0.174866 0.348511 0.072876
0.204163 0.348663 0.065948
0.257446 0.338776 0.036346
0.341370 0.348663 0.013550
0.459900 0.406372 0.052460
0.572388 0.458954 0.047821
0.669891 0.473480 0.024841
0.791565 0.484863 0.040863
0.924225 0.493286 0.050201
0.280121 0.450256 0.141510
0.298096 0.449341 0.141876
0.334503 0.442841 0.137848
0.376678 0.431915 0.121796
0.452820 0.457581 0.119385
0.561127 0.514832 0.100739
0.690186 0.575134 0.056854
0.805511 0.591278 0.000000
0.938568 0.598145 0.000000
0.368774 0.534210 0.226959
0.379486 0.533112 0.227142
0.402710 0.529785 0.224762
0.431976 0.522736 0.215637
0.470032 0.521545 0.196564
0.550507 0.559540 0.180206
0.670197 0.625000 0.131165
0.817444 0.688690 0.041901
0.951324 0.709503 0.000000
0.411865 0.627533 0.288239
0.424805 0.625916 0.287567
0.449402 0.624207 0.285522
0.480042 0.622314 0.279572
0.514038 0.619507 0.263153
0.562103 0.626099 0.235992
0.659088 0.673645 0.209656
0.800171 0.743439 0.150665
0.951660 0.802002 0.000000
0.413483 0.731537 0.312012
0.438873 0.730164 0.312531
0.471436 0.730438 0.311584
0.509674 0.731628 0.309143
0.554047 0.733643 0.301605
0.605652 0.737701 0.284607
0.675049 0.751099 0.260895
0.793579 0.795410 0.238770
0.876770 0.821442 0.389221
0.001190 0.003326 0.025909
0.056885 0.026276 0.065460
0.140198 0.051910 0.082977
0.243286 0.061768 0.086334
0.339752 0.076721 0.087616
0.435608 0.091278 0.088470
0.545135 0.115112 0.098694
0.684448 0.165466 0.125580
0.813904 0.204865 0.149170
0.010132 0.062622 0.071686
0.070465 0.072571 0.083923
0.178955 0.099976 0.098846
0.289215 0.114441 0.099182
0.390350 0.127655 0.098145
0.489288 0.143250 0.099121
0.598846 0.180573 0.114746
0.715607 0.219666 0.134003
0.839447 0.256683 0.153564
0.019531 0.130219 0.066895
0.069153 0.142029 0.074768
0.161987 0.141602 0.065887
0.313690 0.206055 0.090332
0.422607 0.225098 0.088196
0.527710 0.246979 0.102509
0.635712 0.272522 0.118225
0.749756 0.299347 0.135498
0.881226 0.319366 0.140259
0.006927 0.216400 0.036316
0.052979 0.244171 0.059814
0.166748 0.233032 0.006561
0.322571 0.274963 0.022614
0.452759 0.333466 0.061890
0.548523 0.351624 0.083221
0.659882 0.369263 0.105591
0.778870 0.388031 0.124878
0.912201 0.399414 0.114166
0.093079 0.357941 0.094940
0.151642 0.356201 0.081390
0.234039 0.354218 0.061676
0.321655 0.346069 0.014252
0.454193 0.404205 0.051300
0.575287 0.460205 0.067810
0.676086 0.474304 0.073792
0.798340 0.485809 0.094971
0.931610 0.493744 0.091217
0.237457 0.455780 0.145142
0.265991 0.456268 0.146545
0.316040 0.452942 0.146881
0.365936 0.436890 0.130157
0.442596 0.455414 0.123566
0.557007 0.513519 0.102875
0.693054 0.576538 0.075867
0.810455 0.592407 0.055756
0.944305 0.598969 0.054474
0.345001 0.539764 0.229797
0.359406 0.539185 0.230713
0.389954 0.536163 0.230835
0.425385 0.528961 0.224487
0.462463 0.521881 0.205444
0.541779 0.555634 0.190826
0.665405 0.623199 0.145752
0.819092 0.690063 0.081299
0.955170 0.710083 0.000000
0.398010 0.630554 0.298798
0.414490 0.628967 0.298889
0.439941 0.627899 0.298553
0.473633 0.625641 0.295532
0.510529 0.622437 0.282959
0.554810 0.623474 0.257629
0.649658 0.668213 0.235107
0.795502 0.741913 0.182953
0.952484 0.802826 0.000000
0.405060 0.732788 0.337097
0.432892 0.732056 0.337891
0.466705 0.732666 0.338348
0.506073 0.733643 0.337616
0.551025 0.734924 0.333313
0.602234 0.737915 0.320892
0.667114 0.747314 0.298859
0.784729 0.791199 0.281128
0.873993 0.820648 0.424438
0.018768 0.033691 0.094208
0.041809 0.034912 0.150970
0.125488 0.049561 0.136292
0.213806 0.059387 0.135437
0.313110 0.074768 0.143768
0.411835 0.090363 0.149139
0.516876 0.107635 0.157990
0.634216 0.128021 0.169739
0.755524 0.149323 0.183594
0.026001 0.073334 0.142761
0.040833 0.079742 0.166809
0.154938 0.084442 0.170288
0.265991 0.090973 0.159088
0.360901 0.106781 0.160431
0.454285 0.123047 0.165619
0.553131 0.138611 0.172211
0.666992 0.160065 0.183807
0.804474 0.209625 0.214264
0.016357 0.138794 0.162933
0.021362 0.155823 0.181824
0.159576 0.165070 0.183838
0.299896 0.203979 0.195465
0.415802 0.224823 0.200439
0.521942 0.242462 0.206146
0.630737 0.259766 0.213135
0.746643 0.276917 0.218719
0.879364 0.286224 0.209656
0.010742 0.247375 0.171692
0.053833 0.277130 0.191071
0.180176 0.274017 0.185791
0.280792 0.259247 0.168518
0.435760 0.336243 0.205322
0.544403 0.352997 0.206512
0.663513 0.368317 0.208740
0.788605 0.381409 0.208435
0.930328 0.381256 0.164368
0.053864 0.363770 0.180573
0.089722 0.388611 0.196136
0.216248 0.380859 0.193054
0.289520 0.341309 0.164032
0.418823 0.386108 0.184967
0.565918 0.460663 0.206909
0.679932 0.472534 0.183960
0.808990 0.482178 0.174103
0.945282 0.488129 0.157532
0.107239 0.465851 0.183868
0.149261 0.470093 0.180756
0.268219 0.469269 0.189667
0.348938 0.456451 0.195465
0.407623 0.437500 0.173218
0.537537 0.503418 0.179840
0.691589 0.576721 0.181091
0.819641 0.590210 0.128296
0.954254 0.596771 0.142029
0.260956 0.546234 0.232971
0.287628 0.547974 0.234375
0.342865 0.549164 0.238770
0.403595 0.543488 0.239563
0.450562 0.529938 0.224823
0.523560 0.549194 0.205688
0.656616 0.619904 0.163727
0.824280 0.692108 0.118591
0.959747 0.709625 0.060547
0.353088 0.634583 0.309448
0.375610 0.634460 0.310181
0.410217 0.634735 0.312531
0.455017 0.633209 0.314178
0.500397 0.629059 0.308502
0.544098 0.623901 0.285797
0.633270 0.660248 0.263550
0.786957 0.738861 0.217926
0.953522 0.803986 0.000000
0.381592 0.733246 0.362457
0.410492 0.733673 0.363068
0.448517 0.735413 0.364838
0.492188 0.736969 0.366943
0.542297 0.737885 0.366852
0.595062 0.739258 0.359802
0.657196 0.744568 0.340515
0.770752 0.784668 0.324982
0.873993 0.821777 0.453735
0.027374 0.051910 0.162170
0.027618 0.048859 0.214783
0.098297 0.046021 0.234772
0.193481 0.059082 0.199036
0.281403 0.072571 0.199768
0.370392 0.087555 0.211273
0.470795 0.104797 0.229919
0.588806 0.125061 0.249146
0.717133 0.147461 0.270447
0.026703 0.081787 0.189850
0.028168 0.082855 0.226562
0.110931 0.095215 0.255524
0.225555 0.079437 0.231140
0.307037 0.078796 0.212494
0.396393 0.097717 0.221619
0.500397 0.122467 0.240997
0.622253 0.149902 0.263397
0.775208 0.215607 0.313812
0.014496 0.146881 0.235687
0.024567 0.156647 0.263519
0.114563 0.166443 0.257629
0.272552 0.183807 0.287445
0.401001 0.199127 0.289795
0.498779 0.218872 0.298126
0.601593 0.244751 0.309723
0.714935 0.266876 0.322266
0.839508 0.312897 0.348938
0.023590 0.245819 0.268402
0.025116 0.251190 0.273865
0.143555 0.287384 0.298553
0.291046 0.308716 0.324310
0.423553 0.337555 0.328247
0.535858 0.357544 0.333008
0.650330 0.374939 0.339813
0.770905 0.390472 0.346680
0.914551 0.396393 0.340332
0.056732 0.369232 0.310577
0.081543 0.390259 0.323456
0.216125 0.416046 0.335144
0.328003 0.415375 0.337097
0.397034 0.385956 0.311096
0.549957 0.461884 0.337006
0.669220 0.477295 0.331207
0.800507 0.491364 0.334534
0.942078 0.495758 0.322571
0.115051 0.491821 0.346405
0.151642 0.500488 0.345734
0.272736 0.510925 0.343079
0.357178 0.495239 0.337158
0.401428 0.447113 0.307892
0.506561 0.487396 0.319153
0.679871 0.578613 0.338440
0.814178 0.593292 0.315796
0.953796 0.601257 0.306610
0.219299 0.576172 0.359344
0.226837 0.576691 0.354034
0.325470 0.576111 0.349121
0.395325 0.568604 0.348969
0.446930 0.544128 0.341064
0.483765 0.518188 0.313293
0.622864 0.598694 0.325836
0.818268 0.695129 0.327484
0.959076 0.711823 0.265411
0.286957 0.646912 0.362793
0.298370 0.645447 0.354767
0.369019 0.647003 0.360352
0.431885 0.647369 0.366638
0.489716 0.641022 0.372803
0.536194 0.629211 0.362671
0.600403 0.636780 0.343597
0.765717 0.729248 0.337891
0.955750 0.807587 0.198151
0.324310 0.732544 0.385376
0.364075 0.733459 0.386932
0.413879 0.736694 0.391815
0.468048 0.740021 0.394592
0.526886 0.741394 0.399628
0.584717 0.740723 0.399017
0.646820 0.743103 0.386932
0.750580 0.774261 0.373047
0.878143 0.826965 0.467377
0.027985 0.063751 0.222778
0.033813 0.066559 0.252136
0.064270 0.070312 0.288116
0.172729 0.068512 0.285797
0.260132 0.072876 0.254639
0.337708 0.087708 0.263245
0.422668 0.103455 0.282990
0.532318 0.125244 0.317413
0.661713 0.150696 0.355225
0.031219 0.091766 0.244110
0.036133 0.096222 0.266846
0.066956 0.106079 0.310394
0.199799 0.115448 0.328888
0.276031 0.078278 0.271637
0.354767 0.092102 0.275146
0.442200 0.110168 0.293884
0.556854 0.139374 0.331421
0.719421 0.218658 0.405334
0.030731 0.157990 0.291046
0.033417 0.164368 0.302643
0.064758 0.181305 0.337585
0.217621 0.206360 0.358734
0.360229 0.196625 0.360504
0.456818 0.201691 0.367401
0.543549 0.203888 0.376190
0.638428 0.204987 0.385590
0.786713 0.321442 0.452759
0.039459 0.258942 0.330017
0.042725 0.264893 0.343170
0.149231 0.294891 0.372406
0.234833 0.298401 0.363892
0.407593 0.340607 0.430603
0.520081 0.352234 0.437408
0.624176 0.365601 0.448761
0.737122 0.385803 0.459717
0.872986 0.413116 0.475952
0.072754 0.364716 0.381134
0.074951 0.368927 0.385223
0.133575 0.398529 0.410339
0.288452 0.432404 0.429993
0.434540 0.457855 0.472015
0.537811 0.468445 0.464417
0.651794 0.485443 0.466248
0.787994 0.499634 0.470215
0.914368 0.514954 0.478973
0.126892 0.482941 0.441284
0.128418 0.486084 0.440247
0.254547 0.508209 0.450348
0.364197 0.531189 0.468811
0.458740 0.530182 0.474670
0.507050 0.504425 0.447266
0.665131 0.579102 0.465332
0.806976 0.598389 0.455292
0.944489 0.612396 0.459930
0.214813 0.572021 0.461273
0.217407 0.573975 0.458191
0.316223 0.594360 0.461700
0.406616 0.606812 0.471313
0.475891 0.590454 0.468079
0.509583 0.554138 0.443665
0.610291 0.595459 0.448914
0.813995 0.696838 0.453918
0.951294 0.718048 0.445709
0.276337 0.656891 0.473328
0.289673 0.659424 0.470245
0.363007 0.672363 0.472260
0.434143 0.670959 0.473846
0.498260 0.662231 0.474792
0.545410 0.643097 0.467499
0.584351 0.623688 0.442169
0.739716 0.714172 0.463226
0.952240 0.814209 0.425568
0.300293 0.743408 0.486908
0.351440 0.749023 0.490295
0.401581 0.752197 0.488708
0.465027 0.753876 0.493317
0.528534 0.755096 0.498322
0.587006 0.750824 0.499054
0.644958 0.744202 0.496887
0.722137 0.754272 0.486542
0.894165 0.843048 0.426666
0.038605 0.083374 0.272278
0.044189 0.088501 0.294342
0.055695 0.098877 0.340454
0.152649 0.107788 0.361328
0.248383 0.089874 0.328827
0.322876 0.094910 0.310699
0.399902 0.113495 0.331909
0.489777 0.136200 0.367798
0.604218 0.165100 0.417480
0.040192 0.111725 0.291962
0.043549 0.117004 0.309784
0.053223 0.130463 0.356750
0.169006 0.155426 0.388428
0.287018 0.137177 0.380005
0.338745 0.102539 0.326569
0.416504 0.120667 0.345978
0.506775 0.143402 0.380310
0.651733 0.226898 0.465454
0.039642 0.177612 0.328247
0.043243 0.183258 0.341309
0.054718 0.198486 0.379852
0.185059 0.229706 0.407257
0.335327 0.250610 0.450470
0.428009 0.217957 0.422089
0.499054 0.209717 0.427734
0.562347 0.180603 0.424896
0.717468 0.333862 0.525909
0.057922 0.276276 0.402069
0.061432 0.281372 0.414429
0.072388 0.299774 0.436737
0.216583 0.325378 0.445282
0.358643 0.357452 0.482574
0.485046 0.364319 0.502502
0.576233 0.370819 0.516693
0.677368 0.376953 0.537811
0.780457 0.433716 0.570312
0.084259 0.382172 0.434143
0.086670 0.386963 0.442017
0.137451 0.412598 0.472351
0.292847 0.432953 0.482880
0.386353 0.450653 0.506134
0.527435 0.485504 0.560486
0.620544 0.490570 0.565460
0.740356 0.499725 0.582123
0.872009 0.524475 0.601227
0.140717 0.484100 0.492218
0.143280 0.486572 0.494659
0.148804 0.492676 0.500610
0.298615 0.520447 0.516205
0.422760 0.546631 0.544983
0.545685 0.568146 0.581787
0.643463 0.582947 0.584930
0.792175 0.603546 0.592163
0.915894 0.626343 0.607697
0.219757 0.565826 0.531647
0.222717 0.567719 0.531250
0.291992 0.582642 0.538239
0.385681 0.601898 0.553436
0.487274 0.622162 0.577301
0.564148 0.625183 0.586090
0.610016 0.609802 0.563721
0.804382 0.696533 0.580475
0.944977 0.725403 0.593811
0.269531 0.650543 0.554871
0.282898 0.653381 0.553589
0.345886 0.666687 0.558594
0.428375 0.682343 0.570404
0.517059 0.695892 0.586914
0.578613 0.688171 0.585968
0.619263 0.665375 0.568268
0.735748 0.714783 0.566345
0.946594 0.819489 0.589172
0.297363 0.739868 0.572754
0.338623 0.745514 0.574829
0.398468 0.755890 0.581268
0.467865 0.767853 0.591370
0.529266 0.773987 0.593262
0.581818 0.774567 0.581635
0.642670 0.766113 0.566345
0.716492 0.759918 0.545105
0.886414 0.839172 0.540253
0.048035 0.111450 0.321594
0.050934 0.118134 0.339142
0.060547 0.132782 0.378418
0.119141 0.154327 0.415680
0.255035 0.150482 0.434448
0.338470 0.130859 0.394653
0.403503 0.138031 0.386322
0.481445 0.166779 0.422729
0.569275 0.198822 0.469299
0.046478 0.139221 0.339203
0.049530 0.145447 0.353668
0.060059 0.161346 0.390350
0.121307 0.187683 0.432434
0.278381 0.210266 0.468964
0.363647 0.158325 0.427155
0.419647 0.150879 0.403961
0.496216 0.178009 0.437286
0.593475 0.240601 0.498566
0.051880 0.203278 0.372101
0.055450 0.209686 0.384949
0.064972 0.224762 0.417358
0.123566 0.249329 0.457458
0.297546 0.288055 0.490173
0.426849 0.292572 0.512543
0.481384 0.239929 0.474457
0.529327 0.207428 0.471191
0.654449 0.355682 0.564880
0.068604 0.298431 0.439972
0.070831 0.303833 0.447540
0.079071 0.317413 0.470856
0.143097 0.340424 0.506012
0.313385 0.358429 0.494080
0.469269 0.407379 0.576538
0.547729 0.393890 0.563446
0.622498 0.396179 0.580475
0.705566 0.451202 0.614166
0.098663 0.406769 0.502991
0.101837 0.411957 0.513458
0.143066 0.425201 0.540588
0.276886 0.445435 0.551575
0.353271 0.453217 0.545685
0.487732 0.493927 0.597473
0.590485 0.505096 0.618866
0.672455 0.508514 0.633209
0.785583 0.535828 0.669525
0.152344 0.503876 0.540466
0.155121 0.506958 0.545074
0.161469 0.515320 0.558044
0.307281 0.536102 0.573212
0.421143 0.549591 0.589691
0.508270 0.566711 0.614105
0.623596 0.591461 0.658936
0.730743 0.599731 0.680389
0.854401 0.626709 0.707153
0.219910 0.574585 0.576233
0.223389 0.576416 0.577911
0.229492 0.581055 0.582306
0.295441 0.595703 0.592529
0.425140 0.619202 0.610931
0.536346 0.640015 0.640472
0.633850 0.658722 0.676117
0.770844 0.688416 0.698700
0.912201 0.726318 0.724792
0.265167 0.650970 0.616425
0.279175 0.652924 0.616760
0.303986 0.658447 0.618286
0.406738 0.676117 0.631561
0.497528 0.691803 0.651764
0.578033 0.710205 0.674133
0.644257 0.717590 0.677460
0.730164 0.719330 0.663086
0.936798 0.817505 0.719635
0.282593 0.734619 0.643646
0.332184 0.740417 0.648438
0.393372 0.749664 0.657349
0.458435 0.760620 0.667358
0.516876 0.778198 0.678925
0.570404 0.799622 0.684631
0.653992 0.796753 0.677673
0.733063 0.787689 0.657410
0.879395 0.836792 0.681274
0.055237 0.147797 0.371307
0.058929 0.154541 0.383698
0.070770 0.172699 0.417297
0.096832 0.202789 0.474335
0.247253 0.237640 0.505646
0.360992 0.206848 0.504425
0.440277 0.210907 0.483917
0.495453 0.224579 0.483154
0.559509 0.253632 0.518158
0.055878 0.175323 0.387238
0.059723 0.181519 0.397583
0.072449 0.197876 0.427094
0.103241 0.230255 0.486938
0.257019 0.268646 0.506287
0.388275 0.273407 0.544891
0.458344 0.235321 0.509308
0.507202 0.240021 0.497589
0.573944 0.286835 0.537811
0.065430 0.236176 0.421600
0.068329 0.241669 0.431183
0.079559 0.257019 0.458984
0.115143 0.285919 0.512482
0.274231 0.321289 0.527252
0.415375 0.352661 0.585236
0.505554 0.342468 0.575165
0.533813 0.277832 0.531342
0.619141 0.382660 0.592621
0.082123 0.325684 0.480804
0.085419 0.331757 0.491089
0.096375 0.345154 0.514191
0.131744 0.366455 0.556274
0.292847 0.385315 0.554291
0.430084 0.424225 0.601318
0.546173 0.443604 0.632965
0.601196 0.426422 0.616547
0.662445 0.468872 0.639679
0.130890 0.431763 0.570435
0.135468 0.434875 0.574646
0.147614 0.443054 0.585632
0.168671 0.457001 0.607300
0.328369 0.474915 0.612030
0.444305 0.487610 0.609528
0.578827 0.532410 0.676025
0.645050 0.526031 0.668030
0.719147 0.547882 0.694031
0.177429 0.524750 0.604095
0.181183 0.527649 0.610565
0.190796 0.534515 0.626740
0.310181 0.548401 0.643677
0.409607 0.553436 0.642029
0.478821 0.568665 0.653259
0.595337 0.600616 0.721344
0.700928 0.606781 0.737671
0.794556 0.623688 0.758270
0.218658 0.598267 0.627869
0.222839 0.600891 0.631439
0.228851 0.607330 0.640930
0.288269 0.621857 0.657501
0.424896 0.638367 0.665466
0.529419 0.651001 0.691467
0.597595 0.663818 0.728088
0.726990 0.681335 0.767883
0.833862 0.704926 0.786682
0.249084 0.665222 0.664001
0.265167 0.667206 0.665161
0.281830 0.671631 0.668884
0.300842 0.678772 0.675323
0.431091 0.697327 0.686127
0.531860 0.714630 0.712830
0.608002 0.737610 0.749573
0.737854 0.745117 0.774689
0.900146 0.797028 0.821625
0.263672 0.740967 0.708557
0.292572 0.742401 0.709167
0.371124 0.750244 0.715851
0.448212 0.759857 0.725464
0.501099 0.775055 0.741608
0.542755 0.796478 0.763672
0.649719 0.808563 0.779083
0.756683 0.815155 0.783600
0.876068 0.839081 0.796051
0.070251 0.193146 0.421844
0.075256 0.200500 0.433502
0.089142 0.219299 0.462311
0.111694 0.242889 0.502686
0.246246 0.282288 0.520142
0.370422 0.311768 0.567749
0.468811 0.318604 0.574768
0.529236 0.319489 0.568329
0.566132 0.317932 0.566010
0.074310 0.217560 0.434906
0.079041 0.224457 0.445801
0.092316 0.241272 0.472534
0.119751 0.266144 0.514160
0.254364 0.303497 0.530060
0.376160 0.334900 0.574493
0.481354 0.350342 0.594360
0.541534 0.342651 0.581909
0.586212 0.360229 0.590607
0.082611 0.273895 0.471771
0.086670 0.279266 0.480103
0.102234 0.295044 0.505615
0.138123 0.318939 0.545258
0.270294 0.347260 0.551453
0.388611 0.379913 0.586670
0.505981 0.410034 0.630859
0.572388 0.413055 0.624756
0.617188 0.424530 0.628113
0.105591 0.358551 0.529114
0.110687 0.363190 0.536469
0.129150 0.374756 0.556610
0.164429 0.392456 0.590179
0.290497 0.409424 0.588867
0.403534 0.432617 0.593781
0.533997 0.481262 0.669525
0.605133 0.487762 0.667847
0.653656 0.495361 0.669220
0.159454 0.451294 0.596863
0.164398 0.454834 0.602234
0.175995 0.462402 0.614441
0.199738 0.475952 0.642242
0.321350 0.490631 0.647491
0.423523 0.491974 0.624603
0.550201 0.543182 0.712433
0.650879 0.560272 0.734833
0.714905 0.562469 0.737366
0.216370 0.541382 0.670044
0.220612 0.543396 0.676941
0.228424 0.547516 0.690369
0.307404 0.557831 0.694244
0.374268 0.570251 0.697266
0.463654 0.574829 0.685547
0.551453 0.595276 0.736938
0.693787 0.632294 0.807343
0.776184 0.631653 0.806458
0.225372 0.623688 0.698883
0.231232 0.626007 0.704254
0.240143 0.631775 0.718994
0.279144 0.641479 0.742554
0.429474 0.651794 0.743805
0.516327 0.655823 0.750793
0.564117 0.667114 0.780975
0.708618 0.695831 0.830627
0.810516 0.704132 0.837799
0.227539 0.695221 0.729950
0.246765 0.697418 0.732025
0.264893 0.703064 0.739655
0.285065 0.712860 0.754517
0.424957 0.731415 0.767792
0.509674 0.749695 0.799561
0.583557 0.760620 0.838501
0.711090 0.756073 0.845978
0.846985 0.773712 0.869049
0.230072 0.759857 0.768829
0.309113 0.763763 0.770935
0.374359 0.769348 0.775085
0.441498 0.776917 0.781189
0.479340 0.794128 0.803986
0.513397 0.815308 0.833191
0.615173 0.829315 0.854584
0.744812 0.840790 0.874054
0.877869 0.847351 0.892151
