src/assets/luts/ON1 Nature & Wildlife LUTs/CinematicX LUTs - 30 Free Cinematic LUTs - The Resolve Store 2022/Vivi - Rec709.cube
# Copyright: (C) Copyright 2022 The Resolve Store 
# Cannot be resold, shared or otherwise redistributed
TITLE "CinematicX (Rec.709)"
LUT_3D_SIZE 33
0.000000 0.000000 0.000000
0.006409 0.000793 0.000000
0.011597 0.001099 0.000000
0.019684 0.002533 0.000000
0.028900 0.004333 0.000641
0.043884 0.005371 0.000000
0.060211 0.007843 0.000000
0.082733 0.010132 0.000000
0.109222 0.011688 0.000000
0.138672 0.012207 0.000000
0.170502 0.013092 0.000000
0.202759 0.013550 0.000000
0.235321 0.014008 0.000000
0.268463 0.014099 0.000000
0.302490 0.015167 0.000000
0.336761 0.015381 0.000000
0.371796 0.016449 0.000000
0.406738 0.017334 0.000000
0.441467 0.017700 0.000000
0.476593 0.016937 0.000000
0.512177 0.016724 0.000000
0.547577 0.016541 0.000000
0.582977 0.015808 0.000000
0.617889 0.015259 0.000000
0.652618 0.014465 0.000000
0.687775 0.014099 0.000000
0.723389 0.014252 0.000000
0.759003 0.014343 0.000000
0.794495 0.014435 0.000000
0.829895 0.014404 0.000000
0.865021 0.014191 0.000000
0.900085 0.014099 0.000000
0.934601 0.013702 0.000000
0.005737 0.012421 0.007355
0.012054 0.013153 0.005768
0.017792 0.015442 0.004761
0.024963 0.017670 0.004272
0.035645 0.020325 0.004852
0.048584 0.022217 0.005310
0.068695 0.024353 0.003784
0.091797 0.027039 0.000641
0.119568 0.029266 0.000000
0.149750 0.030548 0.000000
0.181000 0.031586 0.000000
0.213104 0.032501 0.000000
0.246124 0.033875 0.000000
0.279358 0.035034 0.000000
0.313599 0.036621 0.000000
0.347717 0.037628 0.000000
0.382019 0.038422 0.000000
0.416260 0.038971 0.000000
0.450409 0.039490 0.000000
0.485077 0.038818 0.000000
0.519806 0.038666 0.000000
0.554749 0.038818 0.000000
0.589722 0.038940 0.000000
0.624664 0.039795 0.000000
0.659271 0.040344 0.000000
0.694183 0.040771 0.000000
0.729309 0.041290 0.000000
0.764435 0.041779 0.000000
0.799469 0.041870 0.000000
0.834595 0.042358 0.000000
0.869293 0.042450 0.000000
0.903961 0.042480 0.000000
0.938141 0.042389 0.000000
0.011414 0.024658 0.019135
0.017731 0.026733 0.014496
0.025879 0.028748 0.012604
0.034332 0.032288 0.011230
0.044189 0.035583 0.011322
0.056427 0.039886 0.011414
0.076813 0.043335 0.007721
0.101685 0.045715 0.001862
0.130280 0.047821 0.000000
0.161041 0.049774 0.000000
0.193512 0.051910 0.000000
0.225739 0.053711 0.000000
0.258362 0.055481 0.000000
0.291626 0.057159 0.000000
0.325134 0.058807 0.000000
0.359344 0.060394 0.000000
0.392914 0.061340 0.000000
0.426300 0.061890 0.000000
0.459900 0.062164 0.000000
0.494019 0.062073 0.000000
0.528534 0.062561 0.000000
0.563110 0.063721 0.000000
0.597900 0.064911 0.000000
0.632416 0.066101 0.000000
0.666504 0.067169 0.000000
0.700806 0.067902 0.000000
0.735443 0.068573 0.000000
0.770142 0.069458 0.000000
0.804901 0.070038 0.000000
0.839447 0.070587 0.000000
0.873749 0.071167 0.000000
0.908020 0.071594 0.000000
0.941986 0.072113 0.000000
0.016937 0.038818 0.033081
0.023132 0.041748 0.024414
0.032379 0.043823 0.022522
0.043762 0.047577 0.020416
0.055206 0.051636 0.017853
0.069122 0.056885 0.016998
0.087830 0.061859 0.011200
0.113403 0.065125 0.003326
0.143585 0.067688 0.000153
0.174652 0.070038 0.000000
0.207123 0.072937 0.000000
0.239410 0.075439 0.000000
0.272034 0.077728 0.000000
0.304626 0.079834 0.000000
0.337982 0.081970 0.000000
0.371338 0.083740 0.000000
0.404602 0.085205 0.000000
0.437561 0.086090 0.000000
0.470917 0.087189 0.000000
0.504761 0.088013 0.000000
0.538666 0.088837 0.000000
0.572723 0.090149 0.000000
0.606812 0.091736 0.000000
0.640686 0.093079 0.000000
0.674194 0.094299 0.000000
0.707977 0.095367 0.000000
0.742035 0.096466 0.000000
0.776276 0.097565 0.000000
0.810577 0.098694 0.000000
0.844696 0.099792 0.000000
0.878571 0.100739 0.000000
0.912445 0.101471 0.000000
0.946075 0.102203 0.000122
0.023010 0.054962 0.047852
0.030151 0.057465 0.038727
0.038666 0.060272 0.032410
0.051727 0.063599 0.030701
0.065613 0.068787 0.026550
0.080566 0.074432 0.021729
0.100494 0.080627 0.014435
0.126068 0.085449 0.005402
0.157166 0.088531 0.000977
0.189606 0.091553 0.000000
0.221985 0.094604 0.000000
0.254486 0.097870 0.000000
0.286774 0.100891 0.000000
0.318817 0.103699 0.000000
0.352081 0.106293 0.000000
0.384674 0.108490 0.000000
0.417542 0.110535 0.000000
0.449921 0.112030 0.000000
0.482819 0.113647 0.000000
0.516296 0.115326 0.000000
0.549408 0.116455 0.000000
0.582764 0.117676 0.000000
0.616241 0.119049 0.000000
0.649323 0.120667 0.000000
0.682312 0.122131 0.000000
0.715607 0.123718 0.000000
0.749146 0.125153 0.000000
0.782776 0.126709 0.000000
0.816681 0.128113 0.000000
0.850372 0.129517 0.000000
0.883820 0.130737 0.000000
0.917206 0.131561 0.000000
0.950378 0.132355 0.000458
0.031097 0.071838 0.060486
0.039307 0.074707 0.052216
0.047729 0.077484 0.044128
0.060883 0.081024 0.042328
0.074982 0.085815 0.037506
0.091614 0.092804 0.028687
0.113068 0.100220 0.017426
0.139984 0.106812 0.006989
0.172821 0.111420 0.001892
0.206146 0.114929 0.000031
0.238708 0.118530 0.000000
0.270782 0.122192 0.000000
0.302795 0.125671 0.000000
0.334534 0.128601 0.000000
0.366577 0.131592 0.000000
0.398376 0.134064 0.000000
0.430573 0.136505 0.000000
0.462799 0.138733 0.000000
0.495026 0.140717 0.000000
0.527618 0.142731 0.000000
0.560211 0.144501 0.000000
0.592773 0.145844 0.000000
0.625336 0.147308 0.000000
0.657715 0.149231 0.000000
0.690308 0.151123 0.000000
0.723389 0.152954 0.000000
0.756622 0.154755 0.000000
0.789795 0.156494 0.000000
0.823090 0.157990 0.000000
0.856232 0.159485 0.000000
0.889282 0.160828 0.000031
0.922211 0.161865 0.000275
0.954895 0.162567 0.000641
0.042450 0.090759 0.070312
0.049561 0.093506 0.061981
0.058258 0.096741 0.054291
0.072021 0.100067 0.052307
0.086212 0.104340 0.047668
0.103241 0.111542 0.037201
0.125763 0.120667 0.020691
0.153717 0.129120 0.008850
0.187714 0.134796 0.002655
0.222321 0.139465 0.000061
0.254883 0.143768 0.000000
0.286560 0.147766 0.000000
0.317963 0.151489 0.000000
0.349304 0.154907 0.000000
0.380829 0.158081 0.000000
0.412079 0.161011 0.000000
0.443329 0.163513 0.000000
0.474762 0.165894 0.000000
0.506714 0.168427 0.000000
0.538483 0.170502 0.000000
0.570374 0.172607 0.000000
0.602448 0.174438 0.000000
0.634430 0.176331 0.000000
0.666321 0.178589 0.000000
0.698425 0.180695 0.000000
0.731018 0.182831 0.000000
0.763794 0.184784 0.000000
0.796417 0.186554 0.000000
0.829193 0.188049 0.000000
0.861816 0.189514 0.000000
0.894348 0.190704 0.000153
0.926880 0.191772 0.000458
0.959351 0.192627 0.000793
0.054138 0.110504 0.076782
0.060852 0.114075 0.068970
0.069397 0.117371 0.063660
0.083710 0.120209 0.062347
0.099213 0.124725 0.057770
0.116974 0.131805 0.045288
0.139465 0.141022 0.025269
0.167572 0.151001 0.010620
0.202332 0.158478 0.003418
0.237579 0.164276 0.000061
0.270142 0.169617 0.000000
0.301849 0.174622 0.000000
0.332672 0.178650 0.000000
0.363495 0.182343 0.000000
0.394379 0.185760 0.000000
0.425018 0.188843 0.000000
0.455627 0.191650 0.000000
0.486450 0.194214 0.000000
0.517853 0.196808 0.000000
0.549133 0.199188 0.000000
0.580444 0.201385 0.000000
0.611908 0.203613 0.000000
0.643341 0.205872 0.000000
0.674713 0.208191 0.000000
0.706390 0.210449 0.000000
0.738312 0.212555 0.000000
0.770447 0.214539 0.000000
0.802673 0.216370 0.000000
0.834961 0.217926 0.000000
0.867035 0.219452 0.000061
0.899139 0.220703 0.000275
0.931305 0.221771 0.000641
0.963593 0.222687 0.000946
0.066437 0.132721 0.081451
0.072601 0.136230 0.075928
0.082336 0.139343 0.072632
0.097443 0.141937 0.072754
0.113586 0.146454 0.067596
0.132385 0.153717 0.053528
0.155212 0.162964 0.030029
0.182983 0.173096 0.013458
0.217499 0.181854 0.004700
0.252350 0.189117 0.000092
0.284760 0.195770 0.000000
0.315887 0.201477 0.000000
0.346497 0.206665 0.000000
0.376953 0.210907 0.000000
0.407104 0.214417 0.000000
0.437134 0.217560 0.000000
0.467224 0.220490 0.000000
0.497467 0.223267 0.000000
0.528229 0.225922 0.000000
0.558990 0.228455 0.000000
0.589874 0.230835 0.000000
0.620850 0.233124 0.000000
0.651733 0.235535 0.000000
0.682587 0.237854 0.000000
0.713806 0.240173 0.000000
0.745361 0.242432 0.000000
0.776947 0.244354 0.000000
0.808624 0.246216 0.000000
0.840485 0.247833 0.000000
0.872131 0.249390 0.000061
0.903900 0.250702 0.000427
0.935699 0.251831 0.000793
0.967682 0.252716 0.001068
0.078033 0.156372 0.087921
0.084534 0.159485 0.083191
0.096436 0.162079 0.082184
0.112091 0.164886 0.083466
0.129395 0.170074 0.077301
0.149170 0.177277 0.060364
0.172852 0.186554 0.035309
0.199738 0.196381 0.016296
0.233215 0.204987 0.006378
0.267395 0.213562 0.000610
0.299133 0.221741 0.000000
0.329559 0.228607 0.000000
0.359222 0.234283 0.000000
0.389252 0.239502 0.000000
0.418854 0.243835 0.000000
0.448334 0.247070 0.000000
0.477753 0.250000 0.000000
0.507477 0.252808 0.000000
0.537689 0.255707 0.000000
0.568085 0.258301 0.000000
0.598694 0.260834 0.000000
0.629303 0.263306 0.000000
0.659668 0.265686 0.000000
0.690094 0.268036 0.000000
0.720886 0.270264 0.000000
0.751984 0.272430 0.000000
0.783081 0.274475 0.000000
0.814301 0.276245 0.000000
0.845734 0.277863 0.000031
0.877045 0.279358 0.000275
0.908478 0.280640 0.000610
0.939972 0.281769 0.000916
0.971680 0.282654 0.001129
0.089844 0.181519 0.093231
0.098480 0.184296 0.091583
0.112213 0.186646 0.093140
0.128326 0.189941 0.093567
0.146057 0.195068 0.086578
0.167053 0.202423 0.067535
0.191162 0.211243 0.041321
0.217529 0.220795 0.020447
0.249725 0.229401 0.008728
0.283203 0.237671 0.002075
0.314178 0.247070 0.000000
0.343506 0.255402 0.000000
0.372253 0.262207 0.000000
0.400940 0.267975 0.000000
0.429596 0.272888 0.000000
0.458405 0.277069 0.000000
0.487427 0.280457 0.000000
0.516693 0.283325 0.000000
0.546539 0.286224 0.000000
0.576447 0.288940 0.000031
0.606628 0.291504 0.000061
0.636871 0.293945 0.000031
0.666809 0.296295 0.000000
0.696808 0.298462 0.000000
0.727203 0.300659 0.000000
0.757874 0.302704 0.000000
0.788605 0.304626 0.000000
0.819611 0.306458 0.000000
0.850616 0.308014 0.000031
0.881622 0.309479 0.000427
0.912781 0.310730 0.000763
0.944061 0.311829 0.001007
0.975525 0.312775 0.001221
0.103210 0.207245 0.100555
0.114960 0.209442 0.102264
0.129425 0.212128 0.104401
0.145935 0.216034 0.103577
0.164368 0.221649 0.094879
0.186401 0.229065 0.073639
0.210846 0.237885 0.048340
0.237335 0.246979 0.025757
0.267639 0.255341 0.011780
0.300262 0.263153 0.004364
0.330414 0.272003 0.000244
0.358276 0.281433 0.000000
0.385681 0.289734 0.000000
0.412903 0.296448 0.000000
0.440216 0.301941 0.000000
0.467926 0.306671 0.000000
0.496185 0.310791 0.000000
0.525055 0.314301 0.000000
0.554382 0.317322 0.000000
0.583862 0.319977 0.000092
0.613708 0.322510 0.000244
0.643494 0.324921 0.000244
0.673126 0.327148 0.000122
0.702728 0.329254 0.000092
0.732819 0.331329 0.000092
0.763153 0.333252 0.000061
0.793671 0.335114 0.000061
0.824402 0.336853 0.000061
0.855133 0.338409 0.000092
0.885895 0.339752 0.000427
0.916809 0.341003 0.000824
0.947906 0.342072 0.001068
0.979218 0.342957 0.001221
0.121277 0.233490 0.111633
0.133270 0.235992 0.113556
0.147888 0.238922 0.115509
0.164856 0.243378 0.112915
0.183929 0.249512 0.101929
0.206940 0.257141 0.079987
0.231567 0.265717 0.055267
0.257904 0.274261 0.031555
0.286285 0.282501 0.015686
0.318359 0.289795 0.007202
0.347748 0.298035 0.001984
0.374573 0.307037 0.000214
0.400177 0.316376 0.000000
0.425659 0.324524 0.000000
0.451385 0.330994 0.000000
0.477661 0.336334 0.000000
0.504730 0.340942 0.000000
0.532654 0.344971 0.000183
0.561371 0.348480 0.000153
0.590424 0.351471 0.000244
0.619812 0.353882 0.000244
0.649200 0.356140 0.000214
0.678497 0.358276 0.000214
0.707916 0.360260 0.000214
0.737793 0.362183 0.000183
0.767883 0.364044 0.000183
0.798187 0.365814 0.000153
0.828705 0.367432 0.000153
0.859222 0.368927 0.000336
0.889801 0.370209 0.000549
0.920532 0.371368 0.000793
0.951477 0.372406 0.001038
0.982635 0.373291 0.001160
0.142151 0.261841 0.124023
0.154449 0.264130 0.126495
0.169556 0.267548 0.126526
0.186035 0.272461 0.120087
0.206024 0.278870 0.106323
0.229156 0.286377 0.086212
0.253387 0.294617 0.061890
0.279297 0.302643 0.037872
0.306030 0.310699 0.019928
0.337219 0.317505 0.011078
0.365784 0.325134 0.005341
0.391876 0.333710 0.001892
0.416260 0.342743 0.000214
0.439606 0.351807 0.000000
0.463470 0.359680 0.000000
0.487915 0.365814 0.000000
0.513428 0.370880 0.000153
0.540039 0.375275 0.000244
0.567719 0.379181 0.000244
0.596008 0.382477 0.000244
0.624908 0.385315 0.000214
0.653961 0.387573 0.000214
0.683044 0.389557 0.000183
0.712311 0.391418 0.000183
0.742035 0.393280 0.000183
0.771973 0.394989 0.000153
0.802124 0.396667 0.000153
0.832520 0.398224 0.000244
0.862854 0.399628 0.000519
0.893341 0.400879 0.000732
0.923950 0.401978 0.000854
0.954773 0.402985 0.001038
0.985809 0.403809 0.001160
0.165680 0.290405 0.138184
0.178589 0.293121 0.138428
0.192932 0.297272 0.133911
0.209167 0.302704 0.124634
0.229584 0.308929 0.110046
0.251617 0.316071 0.091705
0.275513 0.323822 0.067719
0.300842 0.331482 0.044312
0.326630 0.339630 0.025146
0.356567 0.346375 0.015961
0.384308 0.353516 0.009918
0.409729 0.361572 0.005371
0.433075 0.370087 0.002350
0.455078 0.378754 0.000763
0.476532 0.387329 0.000092
0.498901 0.394684 0.000122
0.522522 0.400452 0.000305
0.547485 0.405212 0.000275
0.573792 0.409393 0.000244
0.601105 0.412994 0.000214
0.629303 0.416199 0.000214
0.657990 0.419067 0.000183
0.686890 0.421173 0.000183
0.716064 0.422943 0.000153
0.745667 0.424652 0.000153
0.775513 0.426300 0.000153
0.805542 0.427856 0.000244
0.835815 0.429291 0.000488
0.866119 0.430634 0.000732
0.896484 0.431824 0.000824
0.927002 0.432861 0.001007
0.957764 0.433807 0.001099
0.988739 0.434601 0.001099
0.191040 0.321045 0.148926
0.202881 0.324036 0.145203
0.217438 0.328674 0.137665
0.234222 0.333649 0.127625
0.253723 0.339722 0.114105
0.275055 0.346436 0.096130
0.298065 0.353577 0.073334
0.322723 0.360962 0.051605
0.348236 0.368866 0.032196
0.375732 0.376068 0.021423
0.402618 0.382599 0.015076
0.427216 0.390015 0.010223
0.449646 0.397949 0.006866
0.470520 0.406128 0.004761
0.490601 0.414246 0.003204
0.510498 0.422150 0.001923
0.531982 0.429047 0.001190
0.555206 0.434601 0.000671
0.580048 0.439209 0.000519
0.606171 0.443146 0.000366
0.633453 0.446625 0.000305
0.661469 0.449677 0.000275
0.690033 0.452362 0.000244
0.719025 0.454529 0.000214
0.748566 0.456207 0.000244
0.778320 0.457733 0.000275
0.808319 0.459198 0.000458
0.838562 0.460541 0.000641
0.868774 0.461823 0.000793
0.899170 0.462921 0.000916
0.929657 0.463959 0.000977
0.960419 0.464874 0.001068
0.991364 0.465637 0.001038
0.215485 0.353180 0.153931
0.227539 0.356171 0.148193
0.242188 0.360077 0.140686
0.258911 0.364868 0.130768
0.278015 0.370605 0.117920
0.298889 0.377045 0.100525
0.321259 0.384003 0.079254
0.344910 0.390869 0.058960
0.369385 0.398163 0.040039
0.393768 0.405701 0.028229
0.419800 0.411865 0.021667
0.443390 0.418671 0.016296
0.465027 0.425964 0.012543
0.485107 0.433594 0.009552
0.504272 0.441284 0.007233
0.523193 0.448944 0.005554
0.542603 0.456451 0.004028
0.563812 0.463043 0.002899
0.586945 0.468445 0.002106
0.611633 0.472870 0.001556
0.637817 0.476715 0.001129
0.664948 0.480042 0.000977
0.692932 0.482971 0.000885
0.721619 0.485565 0.000763
0.750946 0.487854 0.000671
0.780640 0.489471 0.000732
0.810577 0.490814 0.000793
0.840790 0.492065 0.000854
0.871033 0.493286 0.000946
0.901459 0.494324 0.000946
0.931976 0.495270 0.000977
0.962738 0.496155 0.001007
0.993652 0.496918 0.000977
0.240784 0.385803 0.157196
0.253510 0.388611 0.151276
0.268097 0.392273 0.144073
0.284363 0.396698 0.134491
0.302246 0.401825 0.121918
0.322418 0.407806 0.105377
0.343750 0.414337 0.085663
0.366058 0.420776 0.067352
0.389038 0.427124 0.049255
0.410828 0.434418 0.035858
0.434998 0.440674 0.029083
0.458069 0.447113 0.023499
0.479156 0.453949 0.018829
0.498840 0.461151 0.015289
0.517456 0.468475 0.012146
0.535675 0.475769 0.009796
0.554230 0.483063 0.007874
0.573425 0.490326 0.006104
0.594666 0.496735 0.004639
0.617889 0.501984 0.003571
0.642700 0.506348 0.002838
0.668762 0.510071 0.002258
0.695953 0.513336 0.001862
0.724152 0.516205 0.001617
0.753113 0.518738 0.001404
0.782532 0.520905 0.001221
0.812408 0.522675 0.001068
0.842621 0.523895 0.001068
0.872925 0.524994 0.001099
0.903351 0.525970 0.001038
0.933899 0.526855 0.000977
0.964691 0.527679 0.000946
0.995636 0.528381 0.000854
0.265747 0.417786 0.161133
0.278290 0.420441 0.155579
0.292389 0.423920 0.148346
0.308228 0.428131 0.138947
0.325562 0.432770 0.126709
0.344177 0.437805 0.111023
0.364319 0.443512 0.092896
0.385071 0.449310 0.076538
0.406860 0.455261 0.059631
0.427734 0.461853 0.045258
0.448395 0.468750 0.036957
0.471283 0.475098 0.030884
0.492249 0.481750 0.026123
0.511658 0.488617 0.021667
0.530029 0.495544 0.018005
0.547882 0.502625 0.015076
0.565857 0.509735 0.012268
0.584290 0.516815 0.009949
0.603516 0.523773 0.007904
0.624908 0.530121 0.006195
0.648224 0.535278 0.004883
0.673126 0.539551 0.003967
0.699341 0.543213 0.003235
0.726776 0.546448 0.002625
0.755249 0.549316 0.002136
0.784363 0.551788 0.001831
0.813965 0.553894 0.001526
0.844025 0.555725 0.001251
0.874359 0.556885 0.001160
0.904846 0.557800 0.001068
0.935425 0.558594 0.000946
0.966248 0.559357 0.000854
0.997192 0.559998 0.000732
0.287689 0.448425 0.166077
0.300171 0.450867 0.160431
0.314362 0.453827 0.153351
0.329956 0.457458 0.143768
0.346588 0.461639 0.131744
0.364014 0.466217 0.117310
0.382477 0.471039 0.101074
0.401917 0.476501 0.085419
0.422363 0.482178 0.070404
0.442535 0.488525 0.056061
0.462036 0.495789 0.045868
0.483124 0.502502 0.039001
0.503967 0.509064 0.033569
0.523438 0.515747 0.028839
0.541809 0.522491 0.024414
0.559540 0.529266 0.020905
0.577179 0.536194 0.017395
0.595062 0.543091 0.014587
0.613586 0.550049 0.012115
0.633179 0.556946 0.009705
0.654633 0.563110 0.007568
0.678070 0.568207 0.006073
0.703217 0.572510 0.004883
0.729797 0.576263 0.003815
0.757538 0.579498 0.003082
0.786133 0.582275 0.002594
0.815399 0.584656 0.002075
0.845184 0.586700 0.001678
0.875305 0.588470 0.001312
0.905823 0.589752 0.001038
0.936493 0.590515 0.000885
0.967377 0.591217 0.000763
0.998413 0.591827 0.000610
0.307648 0.477325 0.171600
0.320221 0.479553 0.165802
0.333801 0.482025 0.158691
0.349182 0.485352 0.149445
0.364868 0.489014 0.138123
0.381226 0.493073 0.124695
0.398895 0.497681 0.109833
0.417053 0.502930 0.095398
0.436493 0.508636 0.082733
0.456116 0.514893 0.068665
0.475250 0.521942 0.057526
0.493683 0.529449 0.049103
0.514252 0.535980 0.043091
0.533783 0.542511 0.037445
0.552368 0.549133 0.032623
0.570312 0.555817 0.027924
0.587982 0.562531 0.023621
0.605621 0.569244 0.019958
0.623718 0.576080 0.016907
0.642609 0.582947 0.013794
0.662354 0.589722 0.011108
0.684082 0.595886 0.008881
0.707886 0.601013 0.007050
0.733368 0.605377 0.005615
0.760223 0.609100 0.004456
0.788116 0.612305 0.003540
0.816895 0.615021 0.002808
0.846283 0.617371 0.002167
0.876129 0.619354 0.001648
0.906433 0.621033 0.001160
0.937134 0.622375 0.000793
0.968109 0.623199 0.000549
0.999237 0.623749 0.000366
0.325592 0.505157 0.178680
0.338135 0.507233 0.172760
0.351257 0.509338 0.165802
0.365723 0.512238 0.157013
0.380890 0.515533 0.146637
0.396912 0.519348 0.134460
0.413757 0.523895 0.120880
0.431152 0.529114 0.107086
0.449554 0.534790 0.095581
0.468964 0.541107 0.082306
0.488037 0.548004 0.070343
0.506134 0.555237 0.060516
0.523590 0.562469 0.052551
0.543091 0.568878 0.046570
0.561951 0.575500 0.040985
0.580200 0.582092 0.035858
0.598175 0.588715 0.030975
0.615906 0.595367 0.026459
0.633789 0.602051 0.022705
0.652161 0.608765 0.018890
0.671326 0.615540 0.015442
0.691437 0.622314 0.012482
0.713531 0.628418 0.009888
0.737610 0.633575 0.007843
0.763428 0.637909 0.006134
0.790436 0.641663 0.004822
0.818542 0.644867 0.003723
0.847443 0.647552 0.002777
0.876923 0.649841 0.002075
0.906952 0.651794 0.001434
0.937439 0.653442 0.000885
0.968445 0.654816 0.000458
0.999786 0.655792 0.000153
0.341705 0.532135 0.186859
0.354126 0.533966 0.180969
0.367218 0.536011 0.174133
0.381134 0.538605 0.166046
0.395752 0.541718 0.156433
0.411499 0.545410 0.145325
0.427643 0.549683 0.133026
0.444550 0.554962 0.119415
0.462189 0.560730 0.107758
0.480896 0.566895 0.097015
0.499237 0.573700 0.084259
0.517120 0.580505 0.073425
0.534393 0.587677 0.064148
0.551666 0.594818 0.056366
0.570740 0.601379 0.050171
0.589447 0.608032 0.044525
0.607666 0.614655 0.038971
0.625580 0.621246 0.034027
0.643402 0.627838 0.029358
0.661499 0.634369 0.024811
0.680206 0.641022 0.020721
0.699799 0.647766 0.016968
0.720367 0.654541 0.013611
0.742859 0.660675 0.010712
0.767303 0.665833 0.008423
0.793304 0.670227 0.006500
0.820557 0.673981 0.004974
0.848755 0.677185 0.003723
0.877808 0.679871 0.002686
0.907471 0.682159 0.001862
0.937744 0.684113 0.001160
0.968506 0.685516 0.000641
0.999725 0.686584 0.000305
0.357056 0.558472 0.195923
0.368927 0.560120 0.190521
0.381744 0.562073 0.184021
0.395233 0.564453 0.176270
0.409576 0.567566 0.167084
0.425018 0.571228 0.156494
0.440582 0.575348 0.145294
0.456879 0.580353 0.133148
0.473694 0.586090 0.120911
0.491272 0.592255 0.111053
0.509155 0.598480 0.100037
0.526611 0.605164 0.088715
0.544037 0.612183 0.078400
0.561218 0.619415 0.069122
0.578491 0.626648 0.060974
0.597443 0.633270 0.053894
0.615967 0.639954 0.047577
0.634155 0.646484 0.041779
0.652008 0.652924 0.036469
0.670105 0.659424 0.031403
0.688660 0.666107 0.026672
0.707977 0.672882 0.022186
0.728149 0.679749 0.018188
0.749207 0.686554 0.014587
0.772095 0.692688 0.011322
0.796753 0.697876 0.008759
0.823029 0.702332 0.006653
0.850433 0.706146 0.004974
0.878876 0.709351 0.003571
0.908173 0.711823 0.002594
0.938110 0.713654 0.001892
0.968567 0.715179 0.001282
0.999390 0.716431 0.000824
0.369263 0.583832 0.208038
0.381409 0.585480 0.202850
0.393982 0.587280 0.196747
0.407135 0.589569 0.189423
0.421173 0.592590 0.180786
0.435333 0.595825 0.171722
0.450867 0.599976 0.160950
0.466736 0.604767 0.149719
0.482819 0.610138 0.137817
0.499329 0.616028 0.126984
0.516632 0.622314 0.117889
0.534393 0.628845 0.106232
0.551941 0.635681 0.095032
0.569427 0.642761 0.084442
0.586609 0.650055 0.074463
0.603760 0.657440 0.065735
0.622681 0.664185 0.058075
0.641327 0.670929 0.050781
0.659607 0.677490 0.044220
0.677856 0.684021 0.038391
0.696411 0.690643 0.032990
0.715454 0.697418 0.027985
0.735260 0.704285 0.023407
0.756042 0.711273 0.018921
0.777740 0.718048 0.015015
0.801086 0.724152 0.011658
0.826233 0.729431 0.009003
0.852875 0.733673 0.006958
0.880707 0.737152 0.005432
0.909332 0.739990 0.004181
0.938690 0.742310 0.003235
0.968689 0.744232 0.002441
0.999146 0.745819 0.001801
0.378632 0.608276 0.221161
0.390839 0.609863 0.216064
0.403351 0.611572 0.210358
0.416351 0.613739 0.203735
0.430389 0.616669 0.195618
0.444305 0.619843 0.187195
0.459412 0.623810 0.177246
0.474762 0.628357 0.166565
0.490601 0.633514 0.155365
0.506836 0.639252 0.143768
0.523499 0.645325 0.133453
0.540924 0.651886 0.124237
0.558411 0.658661 0.111969
0.576050 0.665649 0.100403
0.593781 0.672882 0.089417
0.611145 0.680298 0.079041
0.628387 0.687836 0.069611
0.647156 0.694611 0.061218
0.665771 0.701324 0.053345
0.684418 0.708038 0.045990
0.703217 0.714722 0.039703
0.722290 0.721375 0.034241
0.742004 0.728180 0.028992
0.762665 0.735138 0.023987
0.784180 0.741943 0.019623
0.806549 0.748566 0.015686
0.830627 0.754547 0.012482
0.856079 0.759613 0.010010
0.882965 0.763947 0.008118
0.910706 0.767487 0.006622
0.939301 0.770447 0.005432
0.968781 0.772827 0.004456
0.998810 0.774811 0.003540
0.386597 0.632141 0.234375
0.398773 0.633667 0.229553
0.411407 0.635376 0.224152
0.424408 0.637604 0.218079
0.438416 0.640442 0.210602
0.452423 0.643555 0.202576
0.467224 0.647308 0.193512
0.482178 0.651489 0.183563
0.497437 0.656372 0.172821
0.513336 0.661835 0.161346
0.529694 0.667908 0.149384
0.546600 0.674347 0.139008
0.564117 0.681122 0.129456
0.581757 0.688110 0.116791
0.599518 0.695404 0.104706
0.617218 0.702759 0.093201
0.634857 0.710205 0.082397
0.652374 0.717499 0.072449
0.670929 0.724365 0.063477
0.690186 0.731140 0.054901
0.709564 0.737885 0.047150
0.728851 0.744537 0.040863
0.748627 0.751190 0.035156
0.769318 0.757996 0.029694
0.790710 0.764893 0.024780
