src/assets/luts/ON1 Nature & Wildlife LUTs/CinematicX LUTs - 30 Free Cinematic LUTs - The Resolve Store 2022/Vivi - Rec709.cube
# Copyright: (C) Copyright 2022 The Resolve Store 
# Cannot be resold, shared or otherwise redistributed
TITLE "CinematicX (Rec.709)"
LUT_3D_SIZE 9
0.000000 0.000000 0.000000
0.028900 0.004333 0.000641
0.109222 0.011688 0.000000
0.235321 0.014008 0.000000
0.371796 0.016449 0.000000
0.512177 0.016724 0.000000
0.652618 0.014465 0.000000
0.794495 0.014435 0.000000
0.934601 0.013702 0.000000
0.023010 0.054962 0.047852
0.065613 0.068787 0.026550
0.157166 0.088531 0.000977
0.286774 0.100891 0.000000
0.417542 0.110535 0.000000
0.549408 0.116455 0.000000
0.682312 0.122131 0.000000
0.816681 0.128113 0.000000
0.950378 0.132355 0.000458
0.066437 0.132721 0.081451
0.113586 0.146454 0.067596
0.217499 0.181854 0.004700
0.346497 0.206665 0.000000
0.467224 0.220490 0.000000
0.589874 0.230835 0.000000
0.713806 0.240173 0.000000
0.840485 0.247833 0.000000
0.967682 0.252716 0.001068
0.121277 0.233490 0.111633
0.183929 0.249512 0.101929
0.286285 0.282501 0.015686
0.400177 0.316376 0.000000
0.504730 0.340942 0.000000
0.619812 0.353882 0.000244
0.737793 0.362183 0.000183
0.859222 0.368927 0.000336
0.982635 0.373291 0.001160
0.215485 0.353180 0.153931
0.278015 0.370605 0.117920
0.369385 0.398163 0.040039
0.465027 0.425964 0.012543
0.542603 0.456451 0.004028
0.637817 0.476715 0.001129
0.750946 0.487854 0.000671
0.871033 0.493286 0.000946
0.993652 0.496918 0.000977
0.307648 0.477325 0.171600
0.364868 0.489014 0.138123
0.436493 0.508636 0.082733
0.514252 0.535980 0.043091
0.587982 0.562531 0.023621
0.662354 0.589722 0.011108
0.760223 0.609100 0.004456
0.876129 0.619354 0.001648
0.999237 0.623749 0.000366
0.369263 0.583832 0.208038
0.421173 0.592590 0.180786
0.482819 0.610138 0.137817
0.551941 0.635681 0.095032
0.622681 0.664185 0.058075
0.696411 0.690643 0.032990
0.777740 0.718048 0.015015
0.880707 0.737152 0.005432
0.999146 0.745819 0.001801
0.401459 0.677826 0.260010
0.452332 0.685638 0.239380
0.510132 0.700714 0.205963
0.574371 0.723602 0.159485
0.646210 0.752380 0.110565
0.719788 0.782257 0.064240
0.801178 0.810455 0.035706
0.890717 0.839935 0.025452
0.997192 0.859772 0.018372
0.420410 0.759369 0.298492
0.472229 0.768280 0.281494
0.527679 0.784332 0.255859
0.587769 0.805450 0.215485
0.656403 0.833069 0.159454
0.733093 0.865051 0.100891
0.814850 0.898895 0.059235
0.898590 0.935089 0.067566
0.993958 0.980469 0.122040
0.000000 0.003937 0.021576
0.021484 0.009949 0.039337
0.096985 0.014282 0.041626
0.225189 0.006775 0.050903
0.360870 0.005554 0.059753
0.499084 0.007690 0.070679
0.641083 0.007812 0.081604
0.788513 0.007050 0.092529
0.930725 0.007111 0.102509
0.018341 0.058685 0.077209
0.047180 0.068970 0.077118
0.158569 0.091553 0.064941
0.291565 0.094238 0.061768
0.415253 0.095245 0.065277
0.540894 0.098663 0.073792
0.675903 0.107971 0.084381
0.812836 0.117859 0.094788
0.948273 0.126251 0.104340
0.057648 0.130371 0.125519
0.095612 0.149261 0.110474
0.216949 0.189056 0.072937
0.355042 0.212311 0.073730
0.474365 0.221344 0.074585
0.593994 0.229919 0.082214
0.716705 0.238953 0.091583
0.841858 0.246521 0.100891
0.968628 0.251801 0.108948
0.107208 0.216309 0.136383
0.138977 0.236633 0.133820
0.272430 0.280487 0.074219
0.400452 0.320648 0.072601
0.508148 0.344757 0.087494
0.623138 0.355896 0.094208
0.740662 0.363647 0.100311
0.861053 0.369995 0.107178
0.983856 0.374054 0.113373
0.166046 0.330505 0.171234
0.238953 0.351837 0.175018
0.352631 0.391113 0.097778
0.461548 0.426300 0.074921
0.541870 0.458435 0.089935
0.638580 0.479004 0.103912
0.752563 0.489624 0.111084
0.872284 0.494507 0.114594
0.994476 0.497742 0.118530
0.286957 0.465424 0.217194
0.347351 0.478943 0.188293
0.426514 0.502991 0.132385
0.510437 0.534302 0.098694
0.587677 0.562927 0.094910
0.662140 0.590790 0.104340
0.760437 0.610443 0.114655
0.876495 0.620270 0.120392
0.999359 0.623993 0.123627
0.361786 0.580048 0.259003
0.413361 0.587524 0.230774
0.477509 0.605438 0.188110
0.549500 0.633362 0.151306
0.621490 0.663879 0.124268
0.696503 0.691284 0.111816
0.777863 0.719116 0.114288
0.880829 0.738281 0.120026
0.999237 0.746552 0.123444
0.402222 0.683105 0.323334
0.451935 0.687439 0.298065
0.508148 0.699585 0.260864
0.572266 0.722076 0.217834
0.644592 0.752441 0.178650
0.718872 0.783234 0.141296
0.800720 0.812347 0.119934
0.890686 0.841980 0.127014
0.997131 0.861633 0.133453
0.424774 0.770355 0.370148
0.475403 0.776703 0.350830
0.527618 0.787598 0.318237
0.586243 0.806671 0.278625
0.654327 0.834503 0.230896
0.730530 0.867523 0.183563
0.813446 0.902252 0.146942
0.899017 0.939972 0.161224
0.994171 0.982208 0.229797
0.000000 0.014404 0.055481
0.016754 0.019012 0.076904
0.065033 0.023865 0.074768
0.195557 0.014648 0.098114
0.345123 0.002655 0.131561
0.489899 0.000000 0.158447
0.632172 0.000183 0.179291
0.774597 0.000244 0.196442
0.916534 0.000702 0.210907
0.008575 0.068390 0.123016
0.033020 0.078430 0.131042
0.106873 0.090607 0.114838
0.255371 0.082947 0.127167
0.394012 0.081482 0.149200
0.526215 0.086578 0.168365
0.658661 0.093781 0.185181
0.794098 0.101105 0.200195
0.935272 0.108551 0.215668
0.057953 0.147430 0.174408
0.082153 0.161713 0.186523
0.188385 0.202484 0.182159
0.342010 0.224518 0.191193
0.474548 0.228333 0.193909
0.595520 0.232910 0.201538
0.716553 0.236725 0.208862
0.839447 0.240356 0.215454
0.965515 0.245483 0.223785
0.116364 0.233276 0.213440
0.142914 0.251678 0.215515
0.260681 0.301361 0.213959
0.394623 0.340973 0.205505
0.508148 0.358032 0.216949
0.625000 0.363922 0.217468
0.742950 0.367798 0.218964
0.862671 0.371216 0.222900
0.984741 0.374084 0.230652
0.167999 0.329865 0.227356
0.197479 0.351227 0.234528
0.335205 0.399658 0.215637
0.456268 0.442047 0.183716
0.544312 0.471252 0.209991
0.639008 0.487183 0.226471
0.753754 0.492828 0.228790
0.873322 0.495880 0.231598
0.995178 0.498444 0.238312
0.214630 0.434174 0.265564
0.265747 0.450653 0.269653
0.400208 0.492249 0.217438
0.503113 0.533569 0.178741
0.586487 0.568817 0.189148
0.663544 0.596161 0.207458
0.760620 0.614380 0.230499
0.876587 0.621674 0.241791
0.999512 0.624268 0.247406
0.322144 0.563873 0.329163
0.382080 0.574036 0.309937
0.457886 0.593048 0.260925
0.540253 0.625122 0.216309
0.618134 0.662567 0.201141
0.696045 0.692413 0.197296
0.777557 0.720886 0.216370
0.880737 0.740143 0.236938
0.999420 0.747650 0.246552
0.393005 0.681213 0.394348
0.447418 0.689697 0.381592
0.504395 0.699646 0.343170
0.568756 0.718292 0.290253
0.641449 0.750519 0.259949
0.717224 0.784912 0.234741
0.799622 0.814697 0.215607
0.890503 0.844482 0.230560
0.997192 0.863983 0.249603
0.419037 0.771606 0.439148
0.480377 0.785461 0.435822
0.533630 0.796631 0.407684
0.587128 0.809570 0.358948
0.652557 0.834869 0.313293
0.728516 0.870056 0.279144
0.811493 0.906525 0.253998
0.899261 0.944580 0.267853
0.994415 0.983856 0.337067
0.000000 0.027985 0.097748
0.017456 0.031250 0.118866
0.051422 0.030060 0.137787
0.149902 0.037445 0.113770
0.296875 0.024414 0.165009
0.455017 0.011932 0.220215
0.608459 0.005249 0.262085
0.756409 0.001678 0.293640
0.903442 0.000549 0.319031
0.002747 0.079865 0.163330
0.027588 0.090393 0.172577
0.076569 0.105469 0.194794
0.194153 0.092377 0.148773
0.332214 0.086121 0.189972
0.485535 0.088409 0.238770
0.633636 0.092926 0.275787
0.776886 0.098541 0.303986
0.925415 0.107086 0.332123
0.024048 0.161926 0.253082
0.058655 0.174133 0.268219
0.115845 0.206818 0.306183
0.298492 0.238739 0.259735
0.442200 0.224457 0.280914
0.573212 0.225861 0.305511
0.701477 0.232239 0.324066
0.828644 0.236176 0.337189
0.960754 0.249207 0.352020
0.100830 0.260315 0.302612
0.121765 0.267365 0.308105
0.179718 0.315399 0.354889
0.376617 0.377441 0.337585
0.496582 0.376129 0.346405
0.620544 0.373718 0.346497
0.739380 0.375183 0.351837
0.860870 0.376831 0.358185
0.984406 0.378418 0.365173
0.162384 0.354401 0.344879
0.187897 0.370209 0.355957
0.280792 0.427185 0.395844
0.442810 0.471832 0.368286
0.535156 0.491455 0.369324
0.637268 0.496216 0.364532
0.753448 0.499390 0.364014
0.873413 0.501160 0.366547
0.995758 0.501373 0.370300
0.220093 0.458099 0.406769
0.255066 0.474701 0.412842
0.368835 0.526062 0.400055
0.497528 0.561035 0.380219
0.581055 0.590332 0.370544
0.663849 0.610321 0.371429
0.760620 0.620972 0.371094
0.876678 0.624451 0.372223
0.999634 0.625031 0.374176
0.282440 0.564484 0.456207
0.323853 0.573242 0.444031
0.445435 0.618835 0.430725
0.541260 0.645874 0.397278
0.618561 0.676605 0.376434
0.692108 0.708923 0.374542
0.777283 0.732117 0.371277
0.880310 0.745880 0.373352
0.999664 0.749512 0.374542
0.347107 0.662689 0.466888
0.397339 0.677185 0.455719
0.495911 0.707886 0.462006
0.572540 0.728882 0.424957
0.642639 0.755981 0.384338
0.717285 0.794006 0.379089
0.796600 0.828125 0.372375
0.889709 0.854309 0.371399
0.997223 0.869781 0.380493
0.382324 0.751160 0.493500
0.452209 0.777527 0.491058
0.532684 0.800690 0.501526
0.595306 0.820160 0.468597
0.655334 0.838806 0.416290
0.728882 0.873749 0.389465
0.810669 0.913635 0.382111
0.898865 0.951263 0.400269
0.994598 0.984894 0.440765
0.000000 0.044342 0.159790
0.020691 0.048523 0.180664
0.053284 0.047394 0.207306
0.150848 0.046326 0.196930
0.245850 0.064178 0.170197
0.388153 0.053223 0.235016
0.553101 0.036285 0.311035
0.715332 0.024689 0.370392
0.873322 0.018127 0.414276
0.000793 0.095093 0.206024
0.027802 0.106995 0.221771
0.073639 0.118530 0.257141
0.203918 0.126221 0.273041
0.273773 0.111816 0.198730
0.413361 0.110413 0.260010
0.576843 0.110077 0.331604
0.735687 0.112518 0.386627
0.898254 0.123688 0.437347
0.007874 0.174194 0.310425
0.045959 0.185181 0.321167
0.094208 0.205627 0.348419
0.270142 0.262421 0.416809
0.396881 0.259247 0.328827
0.515930 0.234802 0.360046
0.647583 0.223724 0.398010
0.781799 0.221405 0.425537
0.943085 0.262817 0.468628
0.053955 0.272858 0.399902
0.087860 0.279663 0.407227
0.146881 0.324280 0.463348
0.320831 0.381561 0.489349
0.488678 0.419922 0.433350
0.606201 0.392029 0.444366
0.725220 0.384033 0.461243
0.848846 0.383484 0.475250
0.975037 0.386230 0.487549
0.132385 0.376495 0.447083
0.156067 0.381012 0.450562
0.199524 0.412445 0.477539
0.390198 0.487946 0.518097
0.542969 0.535583 0.496307
0.634460 0.518005 0.489380
0.751740 0.510254 0.486786
0.869415 0.508789 0.491241
0.989990 0.507263 0.496063
0.197327 0.480255 0.486755
0.218933 0.484314 0.487640
0.314575 0.538208 0.522278
0.477173 0.585602 0.514526
0.594635 0.616272 0.521088
0.664398 0.627441 0.514252
0.761932 0.627869 0.500122
0.877075 0.628571 0.498322
0.997345 0.627502 0.498871
0.259552 0.577545 0.535370
0.288757 0.582062 0.534637
0.420044 0.629150 0.532806
0.539703 0.669800 0.536591
0.634186 0.696594 0.533020
0.699432 0.720062 0.522003
0.779816 0.739532 0.511475
0.881287 0.748871 0.503479
0.998596 0.750397 0.500763
0.318634 0.663971 0.567780
0.367828 0.674622 0.562286
0.480438 0.717346 0.547577
0.581299 0.751068 0.565918
0.659851 0.776672 0.550812
0.727234 0.805084 0.526611
0.800751 0.835968 0.520477
0.890717 0.860413 0.514221
0.996033 0.872070 0.511200
0.352814 0.743713 0.588989
0.434082 0.771393 0.580811
0.515808 0.806305 0.577606
0.605255 0.838806 0.594635
0.674469 0.862518 0.577057
0.738281 0.887726 0.541718
0.814789 0.922729 0.527344
0.900665 0.958069 0.546021
0.993866 0.983398 0.551270
0.000000 0.064484 0.239899
0.029480 0.070221 0.261749
0.077332 0.074554 0.295837
0.171356 0.069122 0.305420
0.255890 0.076782 0.260437
0.337555 0.100861 0.239624
0.475098 0.094238 0.320496
0.644135 0.076752 0.416138
0.814209 0.062012 0.489410
0.000793 0.114594 0.274231
0.034882 0.126190 0.301727
0.089783 0.142059 0.342743
0.200531 0.166351 0.408264
0.309082 0.154297 0.333130
0.362061 0.148346 0.269897
0.498810 0.150787 0.347015
0.664673 0.148041 0.436066
0.845490 0.161835 0.522675
0.002472 0.190521 0.364227
0.044067 0.201202 0.375519
0.097504 0.219269 0.400970
0.215179 0.268982 0.489807
0.403961 0.316193 0.487335
0.480835 0.293640 0.402771
0.579956 0.259277 0.435455
0.709473 0.236420 0.479950
0.904785 0.296265 0.569611
0.023346 0.284393 0.474518
0.069885 0.291046 0.481018
0.123016 0.307373 0.499512
0.235718 0.371124 0.569092
0.461578 0.439240 0.573975
0.583557 0.449371 0.511688
0.688721 0.422821 0.536957
0.813416 0.406067 0.569824
0.950256 0.408173 0.597473
0.086884 0.389832 0.547302
0.117676 0.394196 0.551849
0.164581 0.422638 0.582947
0.346130 0.495605 0.629639
0.511566 0.542419 0.611755
0.640137 0.574432 0.583832
0.741455 0.540588 0.589874
0.857086 0.524475 0.602478
0.977203 0.519806 0.614075
0.158936 0.505951 0.589935
0.182648 0.509277 0.591736
0.215759 0.515625 0.596527
0.365204 0.586273 0.627655
0.567505 0.636871 0.634216
0.678436 0.668060 0.635651
0.760101 0.650696 0.624725
0.873779 0.640839 0.619873
0.989410 0.636353 0.622406
0.223816 0.603638 0.611755
0.247437 0.606506 0.611237
0.336304 0.637939 0.623901
0.504333 0.681671 0.636383
0.634277 0.718079 0.638550
0.717438 0.737915 0.652771
0.781586 0.751587 0.644318
0.881744 0.755127 0.629181
0.994537 0.754822 0.626770
0.292572 0.679749 0.634186
0.330658 0.686340 0.634186
0.446136 0.722321 0.642181
0.567352 0.760223 0.644165
0.672821 0.794342 0.666138
0.747467 0.818481 0.662903
0.808807 0.842102 0.653564
0.892853 0.864197 0.642853
0.993774 0.874512 0.638245
0.333160 0.753662 0.658173
0.402618 0.773621 0.664490
0.505432 0.810425 0.665192
0.602875 0.845154 0.676208
0.687042 0.877991 0.691071
0.760040 0.901886 0.681671
0.825409 0.928375 0.661072
0.904999 0.959412 0.662567
0.992950 0.982758 0.672852
0.002563 0.088806 0.334534
0.047302 0.097687 0.357635
0.104370 0.110718 0.397827
0.170837 0.124573 0.442902
0.309906 0.106659 0.414368
0.362152 0.121796 0.340179
0.432220 0.154663 0.335999
0.563934 0.156219 0.428406
0.734436 0.136810 0.534393
0.000000 0.138123 0.367981
0.044708 0.150452 0.393524
0.106262 0.168488 0.432739
0.175415 0.194366 0.487000
0.369019 0.230347 0.518341
0.404938 0.186951 0.399902
0.459503 0.204346 0.368805
0.589539 0.212952 0.456421
0.772034 0.227386 0.573639
0.002167 0.211151 0.430237
0.049683 0.220428 0.448456
0.110321 0.235657 0.481567
0.177826 0.263885 0.536713
0.412811 0.344513 0.620453
0.515686 0.371521 0.548828
0.553864 0.333191 0.477020
0.634003 0.285065 0.504547
0.845917 0.359680 0.640991
0.016663 0.298676 0.535309
0.067352 0.304962 0.540405
0.122375 0.317108 0.552887
0.182495 0.350250 0.596832
0.429901 0.440613 0.676422
0.577789 0.489563 0.631958
0.662140 0.491791 0.591278
0.760834 0.467590 0.629456
0.902344 0.458344 0.682190
0.054474 0.404358 0.634521
0.095917 0.409180 0.639832
0.146545 0.428467 0.663055
0.265656 0.493469 0.721069
0.449432 0.533325 0.713745
0.621857 0.591492 0.690552
0.725037 0.603943 0.660065
0.823212 0.573364 0.681793
0.944031 0.554138 0.709778
0.114502 0.524963 0.693939
0.141968 0.528046 0.697083
0.179962 0.534912 0.705231
0.316528 0.602875 0.745361
0.530396 0.638702 0.746124
0.662170 0.677521 0.721558
0.758911 0.699921 0.711639
0.858154 0.670441 0.719330
0.971497 0.654480 0.732147
0.183563 0.636810 0.711548
0.208344 0.639648 0.712463
0.243042 0.645630 0.715057
0.336090 0.675934 0.723846
0.560577 0.723328 0.740753
0.706390 0.756897 0.742157
0.787811 0.777649 0.752411
0.876617 0.772888 0.748047
0.984863 0.766327 0.746613
0.244476 0.710754 0.713867
0.278015 0.715668 0.714111
0.336090 0.728271 0.716736
0.506958 0.773438 0.737610
0.646820 0.805786 0.749420
0.752014 0.834167 0.757416
0.823364 0.850250 0.767883
0.893524 0.870697 0.765442
0.990234 0.879852 0.760986
0.297058 0.772644 0.726410
0.360016 0.789520 0.732086
0.465637 0.823334 0.747070
0.578979 0.855347 0.761719
0.683289 0.885071 0.778290
0.770294 0.913879 0.785126
0.841827 0.933075 0.781982
0.911163 0.958923 0.778900
0.991486 0.981293 0.790680
0.010559 0.118195 0.439728
0.066223 0.128632 0.461365
0.126648 0.145203 0.496490
0.185547 0.162720 0.550903
0.352905 0.207855 0.613434
0.438995 0.181305 0.528687
0.492615 0.216461 0.478668
0.554871 0.258942 0.478149
0.675354 0.257904 0.564270
0.001099 0.165375 0.467987
0.058167 0.177002 0.488953
0.123108 0.194763 0.524170
0.188324 0.219360 0.572235
0.367249 0.281860 0.668335
0.500122 0.304199 0.619629
0.532410 0.286682 0.528687
0.586060 0.315796 0.512756
0.712952 0.334656 0.603546
0.006500 0.231873 0.522705
0.061218 0.240540 0.537323
0.122803 0.255341 0.565094
0.186432 0.279022 0.611420
0.366913 0.357605 0.726257
0.547363 0.407837 0.699829
0.613251 0.429901 0.625702
0.635681 0.396027 0.567810
0.783081 0.448212 0.674225
0.019897 0.317474 0.597931
0.071198 0.324005 0.605164
0.128021 0.335541 0.623779
0.187531 0.356934 0.663269
0.359619 0.436554 0.758453
0.579285 0.503815 0.766785
0.674744 0.539612 0.700226
0.735046 0.541870 0.672638
0.842407 0.537231 0.727631
0.036682 0.427155 0.721436
0.086365 0.431458 0.724976
0.139984 0.440918 0.733734
0.194305 0.457764 0.751129
0.370544 0.529938 0.804474
0.596100 0.589966 0.812225
0.719666 0.634216 0.757782
0.795288 0.639191 0.733917
0.890900 0.618408 0.768097
0.076508 0.546844 0.795624
0.111633 0.550323 0.799438
0.156097 0.558319 0.809326
0.282623 0.613190 0.849792
0.486511 0.642395 0.842804
0.616760 0.671265 0.824463
0.751068 0.717621 0.797760
0.836151 0.726196 0.782440
0.930542 0.700409 0.805115
0.138550 0.659973 0.818207
0.163361 0.663025 0.820435
0.199982 0.668701 0.825928
0.278687 0.695312 0.841492
0.517670 0.736877 0.848419
0.682648 0.761078 0.839478
0.783539 0.791809 0.830414
0.863678 0.806000 0.825714
0.960388 0.788574 0.840820
0.194855 0.744843 0.813446
0.226746 0.750458 0.814667
0.272186 0.758362 0.817139
0.329651 0.770660 0.821289
0.544861 0.814941 0.836853
0.703583 0.845978 0.850708
0.817383 0.868164 0.859436
0.889740 0.882141 0.866699
0.980774 0.889832 0.872986
0.237427 0.807098 0.814667
0.277802 0.815643 0.817108
0.387695 0.845459 0.829651
0.519196 0.878052 0.847076
0.646240 0.901794 0.861664
0.757507 0.925110 0.878052
0.846893 0.941772 0.881744
0.918396 0.957611 0.883575
0.988800 0.979584 0.896637
0.024445 0.147797 0.543854
0.083679 0.158722 0.563263
0.142609 0.174774 0.593506
0.197388 0.188873 0.642944
0.343933 0.245056 0.720886
0.510651 0.282166 0.705078
0.577606 0.317413 0.659210
0.628479 0.352142 0.623596
0.674866 0.379242 0.613647
0.013611 0.192657 0.567566
0.074707 0.203552 0.585571
0.137848 0.220215 0.615356
0.199921 0.242065 0.656799
0.343231 0.302490 0.760529
0.531647 0.349548 0.747253
0.607544 0.386566 0.701630
0.657806 0.411163 0.655151
0.713562 0.447815 0.654816
0.018524 0.254761 0.614044
0.074371 0.262817 0.626495
0.134399 0.277374 0.652344
0.196350 0.302185 0.697662
0.338104 0.369171 0.789154
0.557251 0.429413 0.804138
0.648499 0.470856 0.760223
0.708191 0.501465 0.710938
0.764465 0.529236 0.708008
0.027313 0.338684 0.682159
0.079742 0.345032 0.692108
0.135986 0.358643 0.714691
0.194305 0.380035 0.752045
0.327942 0.442596 0.828796
0.574493 0.513123 0.856781
0.688843 0.559906 0.820465
0.756622 0.590912 0.764465
0.813873 0.607422 0.758484
0.029175 0.448090 0.792999
0.081940 0.452545 0.796417
0.136688 0.462219 0.805847
0.192627 0.479492 0.826111
0.338470 0.535309 0.876099
0.584167 0.594116 0.870880
0.715393 0.646454 0.851685
0.797272 0.673462 0.812195
0.859100 0.681000 0.804352
0.044769 0.573456 0.895355
0.090271 0.576416 0.898956
0.142395 0.582367 0.906616
0.253906 0.616302 0.929291
0.417053 0.643311 0.929138
0.598511 0.672791 0.897369
0.744232 0.721802 0.882721
0.832275 0.749329 0.859406
0.899994 0.752167 0.849915
0.095886 0.678101 0.923523
0.127228 0.681549 0.926544
0.170197 0.687714 0.933868
0.239227 0.705780 0.949890
0.515869 0.745758 0.933899
0.661072 0.766022 0.920258
0.766052 0.793213 0.911835
0.862518 0.821014 0.904602
0.934814 0.824677 0.897552
0.146088 0.767151 0.922211
0.173523 0.774536 0.925171
0.215637 0.783142 0.930267
0.272736 0.793640 0.938812
0.539154 0.831390 0.932770
0.684052 0.855804 0.936615
0.802612 0.877472 0.940918
0.893372 0.897247 0.941742
0.961731 0.903046 0.941528
0.184174 0.838928 0.917816
0.241852 0.860443 0.924744
0.345795 0.882385 0.932770
0.549835 0.897888 0.929810
0.650635 0.918427 0.940063
0.750580 0.937195 0.951508
0.842712 0.952942 0.961823
0.922791 0.966614 0.970398
0.978302 0.976318 0.975708
