src/assets/luts/ON1 Nature & Wildlife LUTs/CinematicX LUTs - 30 Free Cinematic LUTs - The Resolve Store 2022/Vivi - Rec709.cube
# Copyright: (C) Copyright 2022 The Resolve Store 
# Cannot be resold, shared or otherwise redistributed
TITLE "CinematicX (Rec.709)"
LUT_3D_SIZE 5
0.000000 0.000000 0.000000
0.109222 0.011688 0.000000
0.371796 0.016449 0.000000
0.652618 0.014465 0.000000
0.934601 0.013702 0.000000
0.066437 0.132721 0.081451
0.217499 0.181854 0.004700
0.467224 0.220490 0.000000
0.713806 0.240173 0.000000
0.967682 0.252716 0.001068
0.215485 0.353180 0.153931
0.369385 0.398163 0.040039
0.542603 0.456451 0.004028
0.750946 0.487854 0.000671
0.993652 0.496918 0.000977
0.369263 0.583832 0.208038
0.482819 0.610138 0.137817
0.622681 0.664185 0.058075
0.777740 0.718048 0.015015
0.999146 0.745819 0.001801
0.420410 0.759369 0.298492
0.527679 0.784332 0.255859
0.656403 0.833069 0.159454
0.814850 0.898895 0.059235
0.993958 0.980469 0.122040
0.000000 0.014404 0.055481
0.065033 0.023865 0.074768
0.345123 0.002655 0.131561
0.632172 0.000183 0.179291
0.916534 0.000702 0.210907
0.057953 0.147430 0.174408
0.188385 0.202484 0.182159
0.474548 0.228333 0.193909
0.716553 0.236725 0.208862
0.965515 0.245483 0.223785
0.167999 0.329865 0.227356
0.335205 0.399658 0.215637
0.544312 0.471252 0.209991
0.753754 0.492828 0.228790
0.995178 0.498444 0.238312
0.322144 0.563873 0.329163
0.457886 0.593048 0.260925
0.618134 0.662567 0.201141
0.777557 0.720886 0.216370
0.999420 0.747650 0.246552
0.419037 0.771606 0.439148
0.533630 0.796631 0.407684
0.652557 0.834869 0.313293
0.811493 0.906525 0.253998
0.994415 0.983856 0.337067
0.000000 0.044342 0.159790
0.053284 0.047394 0.207306
0.245850 0.064178 0.170197
0.553101 0.036285 0.311035
0.873322 0.018127 0.414276
0.007874 0.174194 0.310425
0.094208 0.205627 0.348419
0.396881 0.259247 0.328827
0.647583 0.223724 0.398010
0.943085 0.262817 0.468628
0.132385 0.376495 0.447083
0.199524 0.412445 0.477539
0.542969 0.535583 0.496307
0.751740 0.510254 0.486786
0.989990 0.507263 0.496063
0.259552 0.577545 0.535370
0.420044 0.629150 0.532806
0.634186 0.696594 0.533020
0.779816 0.739532 0.511475
0.998596 0.750397 0.500763
0.352814 0.743713 0.588989
0.515808 0.806305 0.577606
0.674469 0.862518 0.577057
0.814789 0.922729 0.527344
0.993866 0.983398 0.551270
0.002563 0.088806 0.334534
0.104370 0.110718 0.397827
0.309906 0.106659 0.414368
0.432220 0.154663 0.335999
0.734436 0.136810 0.534393
0.002167 0.211151 0.430237
0.110321 0.235657 0.481567
0.412811 0.344513 0.620453
0.553864 0.333191 0.477020
0.845917 0.359680 0.640991
0.054474 0.404358 0.634521
0.146545 0.428467 0.663055
0.449432 0.533325 0.713745
0.725037 0.603943 0.660065
0.944031 0.554138 0.709778
0.183563 0.636810 0.711548
0.243042 0.645630 0.715057
0.560577 0.723328 0.740753
0.787811 0.777649 0.752411
0.984863 0.766327 0.746613
0.297058 0.772644 0.726410
0.465637 0.823334 0.747070
0.683289 0.885071 0.778290
0.841827 0.933075 0.781982
0.991486 0.981293 0.790680
0.024445 0.147797 0.543854
0.142609 0.174774 0.593506
0.343933 0.245056 0.720886
0.577606 0.317413 0.659210
0.674866 0.379242 0.613647
0.018524 0.254761 0.614044
0.134399 0.277374 0.652344
0.338104 0.369171 0.789154
0.648499 0.470856 0.760223
0.764465 0.529236 0.708008
0.029175 0.448090 0.792999
0.136688 0.462219 0.805847
0.338470 0.535309 0.876099
0.715393 0.646454 0.851685
0.859100 0.681000 0.804352
0.095886 0.678101 0.923523
0.170197 0.687714 0.933868
0.515869 0.745758 0.933899
0.766052 0.793213 0.911835
0.934814 0.824677 0.897552
0.184174 0.838928 0.917816
0.345795 0.882385 0.932770
0.650635 0.918427 0.940063
0.842712 0.952942 0.961823
0.978302 0.976318 0.975708
